;FLAVOR:Marlin
;TIME:1915
;Filament used: 0.961734m
;Layer height: 0.175
;Generated with Cura_SteamEngine 3.0.4
M190 S65
M104 S205
M109 S205
M82 ; absolute extrusion mode
G21;(metric values)
G90;(absolute positioning)
M82;(set extruder to absolute mode)
M107;(start with the fan off)
G28;(Home the printer)
G92 E0;(Reset the extruder to 0)
G0 Z5 E5 F500;(Move up and prime the nozzle)
G0 X-1 Z0;(Move outside the printable area)
G1 Y60 E8 F500;(Draw a priming/wiping line to the rear)
G1 X-1;(Move a little closer to the print area)
G1 Y10 E16 F500;(draw more priming/wiping)
G1 E15 F250;(Small retract)
G92 E0;(Zero the extruder)
;LAYER_COUNT:171
;LAYER:0
M107
G0 F4320 X47.05 Y50.321 Z0.175
;TYPE:SKIRT
G1 F1800 X47.649 Y49.801 E0.0202
G1 X48.298 Y49.345 E0.0404
G1 X48.99 Y48.956 E0.06061
G1 X49.717 Y48.638 E0.08082
G1 X50.473 Y48.395 E0.10104
G1 X51.249 Y48.23 E0.12124
G1 X52.037 Y48.144 E0.14143
G1 X52.5 Y48.13 E0.15322
G1 X72.5 Y48.13 E0.66252
G1 X73.292 Y48.17 E0.68271
G1 X74.077 Y48.289 E0.70293
G1 X74.845 Y48.487 E0.72313
G1 X75.59 Y48.762 E0.74335
G1 X76.303 Y49.109 E0.76354
G1 X76.978 Y49.527 E0.78376
G1 X77.607 Y50.01 E0.80396
G1 X78.184 Y50.555 E0.82417
G1 X78.704 Y51.154 E0.84437
G1 X79.16 Y51.803 E0.86456
G1 X79.549 Y52.495 E0.88478
G1 X79.867 Y53.222 E0.90499
G1 X80.11 Y53.978 E0.92521
G1 X80.275 Y54.754 E0.94541
G1 X80.361 Y55.542 E0.9656
G1 X80.375 Y56.005 E0.97739
G1 X80.375 Y76.005 E1.48669
G1 X80.335 Y76.797 E1.50688
G1 X80.216 Y77.582 E1.5271
G1 X80.018 Y78.35 E1.5473
G1 X79.743 Y79.095 E1.56752
G1 X79.396 Y79.808 E1.58771
G1 X78.978 Y80.483 E1.60793
G1 X78.495 Y81.112 E1.62812
G1 X77.95 Y81.689 E1.64833
G1 X77.351 Y82.209 E1.66853
G1 X76.702 Y82.665 E1.68873
G1 X76.01 Y83.054 E1.70895
G1 X75.283 Y83.372 E1.72915
G1 X74.527 Y83.615 E1.74937
G1 X73.751 Y83.78 E1.76958
G1 X72.963 Y83.866 E1.78976
G1 X72.5 Y83.88 E1.80156
G1 X52.5 Y83.88 E2.31085
G1 X51.708 Y83.84 E2.33105
G1 X50.923 Y83.721 E2.35127
G1 X50.155 Y83.523 E2.37146
G1 X49.41 Y83.248 E2.39168
G1 X48.697 Y82.901 E2.41188
G1 X48.022 Y82.483 E2.43209
G1 X47.393 Y82 E2.45229
G1 X46.816 Y81.455 E2.4725
G1 X46.296 Y80.856 E2.4927
G1 X45.84 Y80.207 E2.5129
G1 X45.451 Y79.515 E2.53311
G1 X45.133 Y78.788 E2.55332
G1 X44.89 Y78.032 E2.57354
G1 X44.725 Y77.256 E2.59374
G1 X44.639 Y76.468 E2.61393
G1 X44.625 Y76.005 E2.62572
G1 X44.625 Y56.005 E3.13502
G1 X44.665 Y55.213 E3.15521
G1 X44.784 Y54.428 E3.17543
G1 X44.982 Y53.66 E3.19563
G1 X45.257 Y52.915 E3.21585
G1 X45.574 Y52.264 E3.23429
G0 F1620 X45.604 Y52.202
G0 X46.022 Y51.527
G0 X46.505 Y50.898
G0 X47.05 Y50.321
G0 F4320 X47.394 Y50.478
G1 F1500 E3.29663
G1 F1800 X47.99 Y49.981 E3.31639
G1 X48.634 Y49.549 E3.33614
G1 X49.319 Y49.186 E3.35588
G1 X50.038 Y48.894 E3.37564
G1 X50.783 Y48.679 E3.39538
G1 X51.546 Y48.541 E3.41513
G1 X52.5 Y48.48 E3.43947
G1 X72.5 Y48.48 E3.94877
G1 X73.275 Y48.52 E3.96853
G1 X74.041 Y48.639 E3.98827
G1 X74.791 Y48.837 E4.00802
G1 X75.517 Y49.111 E4.02778
G1 X76.21 Y49.458 E4.04752
G1 X76.864 Y49.875 E4.06727
G1 X77.472 Y50.357 E4.08703
G1 X78.027 Y50.899 E4.10678
G1 X78.524 Y51.495 E4.12654
G1 X78.956 Y52.139 E4.14629
G1 X79.319 Y52.824 E4.16603
G1 X79.611 Y53.543 E4.18579
G1 X79.826 Y54.288 E4.20554
G1 X79.964 Y55.051 E4.22528
G1 X80.025 Y56.005 E4.24963
G1 X80.025 Y76.005 E4.75892
G1 X79.985 Y76.78 E4.77868
G1 X79.866 Y77.546 E4.79842
G1 X79.668 Y78.296 E4.81818
G1 X79.394 Y79.022 E4.83794
G1 X79.047 Y79.715 E4.85767
G1 X78.63 Y80.369 E4.87742
G1 X78.148 Y80.977 E4.89718
G1 X77.606 Y81.532 E4.91694
G1 X77.01 Y82.029 E4.9367
G1 X76.366 Y82.461 E4.95645
G1 X75.681 Y82.824 E4.97619
G1 X74.962 Y83.116 E4.99595
G1 X74.217 Y83.331 E5.01569
G1 X73.454 Y83.469 E5.03544
G1 X72.5 Y83.53 E5.05978
G1 X52.5 Y83.53 E5.56908
G1 X51.725 Y83.49 E5.58884
G1 X50.959 Y83.371 E5.60858
G1 X50.209 Y83.173 E5.62833
G1 X49.483 Y82.899 E5.64809
G1 X48.79 Y82.552 E5.66783
G1 X48.136 Y82.135 E5.68758
G1 X47.528 Y81.653 E5.70734
G1 X46.973 Y81.111 E5.72709
G1 X46.476 Y80.515 E5.74685
G1 X46.044 Y79.871 E5.7666
G1 X45.681 Y79.186 E5.78634
G1 X45.389 Y78.467 E5.8061
G1 X45.174 Y77.722 E5.82585
G1 X45.036 Y76.959 E5.84559
G1 X44.975 Y76.005 E5.86994
G1 X44.975 Y56.005 E6.37923
G1 X45.015 Y55.23 E6.39899
G1 X45.134 Y54.464 E6.41873
G1 X45.332 Y53.714 E6.43849
G1 X45.606 Y52.988 E6.45825
G1 X45.898 Y52.404 E6.47487
G0 F1620 X45.953 Y52.295
G0 X46.37 Y51.641
G0 X46.852 Y51.033
G0 X47.394 Y50.478
G0 F4320 X47.737 Y50.639
G1 F1500 E6.53721
G1 F1800 X48.329 Y50.167 E6.55649
G1 X48.968 Y49.76 E6.57578
G1 X49.646 Y49.422 E6.59507
G1 X50.355 Y49.158 E6.61434
G1 X51.089 Y48.97 E6.63364
G1 X51.838 Y48.861 E6.65291
G1 X52.5 Y48.83 E6.66979
G1 X72.5 Y48.83 E7.17908
G1 X73.256 Y48.87 E7.19836
G1 X74.004 Y48.989 E7.21765
G1 X74.735 Y49.187 E7.23693
G1 X75.442 Y49.461 E7.25624
G1 X76.115 Y49.807 E7.27551
G1 X76.748 Y50.223 E7.2948
G1 X77.334 Y50.703 E7.31409
G1 X77.866 Y51.242 E7.33337
G1 X78.338 Y51.834 E7.35265
G1 X78.745 Y52.473 E7.37195
G1 X79.083 Y53.151 E7.39124
G1 X79.347 Y53.86 E7.4105
G1 X79.535 Y54.594 E7.4298
G1 X79.644 Y55.343 E7.44907
G1 X79.675 Y56.005 E7.46595
G1 X79.675 Y76.005 E7.97524
G1 X79.635 Y76.761 E7.99452
G1 X79.516 Y77.509 E8.01381
G1 X79.318 Y78.24 E8.03309
G1 X79.044 Y78.947 E8.0524
G1 X78.698 Y79.62 E8.07167
G1 X78.282 Y80.253 E8.09096
G1 X77.802 Y80.839 E8.11025
G1 X77.263 Y81.371 E8.12954
G1 X76.671 Y81.843 E8.14882
G1 X76.032 Y82.25 E8.16811
G1 X75.354 Y82.588 E8.1874
G1 X74.645 Y82.852 E8.20667
G1 X73.911 Y83.04 E8.22596
G1 X73.162 Y83.149 E8.24523
G1 X72.5 Y83.18 E8.26211
G1 X52.5 Y83.18 E8.77141
G1 X51.744 Y83.14 E8.79069
G1 X50.996 Y83.021 E8.80997
G1 X50.265 Y82.823 E8.82926
G1 X49.558 Y82.549 E8.84857
G1 X48.885 Y82.203 E8.86784
G1 X48.252 Y81.787 E8.88712
G1 X47.666 Y81.307 E8.90641
G1 X47.134 Y80.768 E8.9257
G1 X46.662 Y80.176 E8.94498
G1 X46.255 Y79.537 E8.96427
G1 X45.917 Y78.859 E8.98356
G1 X45.653 Y78.15 E9.00283
G1 X45.465 Y77.416 E9.02212
G1 X45.356 Y76.667 E9.0414
G1 X45.325 Y76.005 E9.05827
G1 X45.325 Y56.005 E9.56757
G1 X45.365 Y55.249 E9.58685
G1 X45.484 Y54.501 E9.60614
G1 X45.682 Y53.77 E9.62542
G1 X45.956 Y53.063 E9.64473
G1 X46.221 Y52.547 E9.6595
G0 F1620 X46.302 Y52.39
G0 X46.718 Y51.757
G0 X47.198 Y51.171
G0 X47.737 Y50.639
G0 F4320 X47.543 Y51.313
G1 F1500 E9.72184
G1 F1800 X48.079 Y50.805 E9.74064
G1 X48.667 Y50.358 E9.75945
G1 X49.3 Y49.977 E9.77827
G1 X49.97 Y49.666 E9.79708
G1 X50.67 Y49.43 E9.81589
G1 X51.391 Y49.271 E9.83469
G1 X52.126 Y49.19 E9.85352
G1 X52.5 Y49.18 E9.86305
G1 X72.5 Y49.18 E10.37234
G1 X73.238 Y49.22 E10.39116
G1 X73.966 Y49.339 E10.40995
G1 X74.678 Y49.537 E10.42877
G1 X75.364 Y49.81 E10.44757
G1 X76.017 Y50.156 E10.46639
G1 X76.629 Y50.57 E10.4852
G1 X77.192 Y51.048 E10.50401
G1 X77.7 Y51.584 E10.52281
G1 X78.147 Y52.172 E10.54162
G1 X78.528 Y52.805 E10.56044
G1 X78.839 Y53.475 E10.57925
G1 X79.075 Y54.175 E10.59806
G1 X79.234 Y54.896 E10.61686
G1 X79.315 Y55.631 E10.63569
G1 X79.325 Y56.005 E10.64521
G1 X79.325 Y76.005 E11.15451
G1 X79.285 Y76.743 E11.17333
G1 X79.166 Y77.471 E11.19212
G1 X78.968 Y78.183 E11.21093
G1 X78.695 Y78.869 E11.22974
G1 X78.349 Y79.522 E11.24855
G1 X77.935 Y80.134 E11.26737
G1 X77.457 Y80.697 E11.28618
G1 X76.921 Y81.205 E11.30498
G1 X76.333 Y81.652 E11.32379
G1 X75.7 Y82.033 E11.3426
G1 X75.03 Y82.344 E11.36141
G1 X74.33 Y82.58 E11.38023
G1 X73.609 Y82.739 E11.39903
G1 X72.874 Y82.82 E11.41786
G1 X72.5 Y82.83 E11.42738
G1 X52.5 Y82.83 E11.93668
G1 X51.762 Y82.79 E11.9555
G1 X51.034 Y82.671 E11.97428
G1 X50.322 Y82.473 E11.9931
G1 X49.636 Y82.2 E12.01191
G1 X48.983 Y81.854 E12.03072
G1 X48.371 Y81.44 E12.04954
G1 X47.808 Y80.962 E12.06835
G1 X47.3 Y80.426 E12.08715
G1 X46.853 Y79.838 E12.10596
G1 X46.472 Y79.205 E12.12477
G1 X46.161 Y78.535 E12.14358
G1 X45.925 Y77.835 E12.16239
G1 X45.766 Y77.114 E12.1812
G1 X45.685 Y76.379 E12.20003
G1 X45.675 Y76.005 E12.20955
G1 X45.675 Y56.005 E12.71885
G1 X45.715 Y55.267 E12.73767
G1 X45.834 Y54.539 E12.75645
G1 X46.032 Y53.827 E12.77527
G1 X46.219 Y53.357 E12.78815
G0 F1620 X46.305 Y53.141
G0 X46.651 Y52.488
G0 X47.065 Y51.876
G0 X47.543 Y51.313
G0 F4320 X47.889 Y51.46
G1 F1500 E12.85049
G1 F1800 X48.421 Y50.976 E12.86881
G1 X49.004 Y50.555 E12.88712
G1 X49.631 Y50.201 E12.90545
G1 X50.292 Y49.918 E12.92376
G1 X50.981 Y49.711 E12.94208
G1 X51.689 Y49.581 E12.96041
G1 X52.5 Y49.53 E12.98111
G1 X72.5 Y49.53 E13.4904
G1 X73.218 Y49.57 E13.50872
G1 X73.928 Y49.689 E13.52705
G1 X74.62 Y49.887 E13.54538
G1 X75.285 Y50.16 E13.56368
G1 X75.917 Y50.505 E13.58202
G1 X76.506 Y50.918 E13.60034
G1 X77.045 Y51.394 E13.61865
G1 X77.529 Y51.926 E13.63696
G1 X77.95 Y52.509 E13.65527
G1 X78.304 Y53.136 E13.67361
G1 X78.587 Y53.797 E13.69192
G1 X78.794 Y54.486 E13.71024
G1 X78.924 Y55.194 E13.72857
G1 X78.975 Y56.005 E13.74926
G1 X78.975 Y76.005 E14.25856
G1 X78.935 Y76.723 E14.27687
G1 X78.816 Y77.433 E14.2952
G1 X78.618 Y78.125 E14.31353
G1 X78.345 Y78.79 E14.33184
G1 X78 Y79.422 E14.35017
G1 X77.587 Y80.011 E14.36849
G1 X77.111 Y80.55 E14.3868
G1 X76.579 Y81.034 E14.40512
G1 X75.996 Y81.455 E14.42343
G1 X75.369 Y81.809 E14.44177
G1 X74.708 Y82.092 E14.46008
G1 X74.019 Y82.299 E14.4784
G1 X73.311 Y82.429 E14.49673
G1 X72.5 Y82.48 E14.51742
G1 X52.5 Y82.48 E15.02671
G1 X51.782 Y82.44 E15.04503
G1 X51.072 Y82.321 E15.06336
G1 X50.38 Y82.123 E15.08169
G1 X49.715 Y81.85 E15.09999
G1 X49.083 Y81.505 E15.11833
G1 X48.494 Y81.092 E15.13665
G1 X47.955 Y80.616 E15.15496
G1 X47.471 Y80.084 E15.17327
G1 X47.05 Y79.501 E15.19159
G1 X46.696 Y78.874 E15.20992
G1 X46.413 Y78.213 E15.22823
G1 X46.206 Y77.524 E15.24655
G1 X46.076 Y76.816 E15.26488
G1 X46.025 Y76.005 E15.28557
G1 X46.025 Y56.005 E15.79487
G1 X46.065 Y55.287 E15.81318
G1 X46.184 Y54.577 E15.83151
G1 X46.382 Y53.885 E15.84984
G1 X46.545 Y53.488 E15.86077
G0 F1620 X46.655 Y53.22
G0 X47 Y52.588
G0 X47.413 Y51.999
G0 X47.889 Y51.46
G0 F4320 X48.233 Y51.611
G1 F1500 E15.92311
G1 F1800 X48.762 Y51.153 E15.94093
G1 X49.34 Y50.758 E15.95876
G1 X49.959 Y50.432 E15.97657
G1 X50.611 Y50.178 E15.99439
G1 X51.288 Y50.001 E16.01221
G1 X51.981 Y49.902 E16.03003
G1 X52.5 Y49.88 E16.04326
G1 X72.5 Y49.88 E16.55256
G1 X73.199 Y49.92 E16.57039
G1 X73.888 Y50.039 E16.58819
G1 X74.559 Y50.237 E16.60601
G1 X75.204 Y50.509 E16.62383
G1 X75.813 Y50.853 E16.64164
G1 X76.379 Y51.265 E16.65947
G1 X76.894 Y51.738 E16.67728
G1 X77.352 Y52.267 E16.6951
G1 X77.747 Y52.845 E16.71292
G1 X78.073 Y53.464 E16.73074
G1 X78.327 Y54.116 E16.74856
G1 X78.504 Y54.793 E16.76638
G1 X78.603 Y55.486 E16.7842
G1 X78.625 Y56.005 E16.79743
G1 X78.625 Y76.005 E17.30673
G1 X78.585 Y76.704 E17.32455
G1 X78.466 Y77.393 E17.34236
G1 X78.268 Y78.064 E17.36018
G1 X77.996 Y78.709 E17.378
G1 X77.652 Y79.318 E17.39581
G1 X77.24 Y79.884 E17.41364
G1 X76.767 Y80.399 E17.43145
G1 X76.238 Y80.857 E17.44926
G1 X75.66 Y81.252 E17.46709
G1 X75.041 Y81.578 E17.48491
G1 X74.389 Y81.832 E17.50272
G1 X73.712 Y82.009 E17.52054
G1 X73.019 Y82.108 E17.53837
G1 X72.5 Y82.13 E17.5516
G1 X52.5 Y82.13 E18.06089
G1 X51.801 Y82.09 E18.07872
G1 X51.112 Y81.971 E18.09653
G1 X50.441 Y81.773 E18.11434
G1 X49.796 Y81.501 E18.13217
G1 X49.187 Y81.157 E18.14998
G1 X48.621 Y80.745 E18.16781
G1 X48.106 Y80.272 E18.18561
G1 X47.648 Y79.743 E18.20343
G1 X47.253 Y79.165 E18.22126
G1 X46.927 Y78.546 E18.23907
G1 X46.673 Y77.894 E18.25689
G1 X46.496 Y77.217 E18.27471
G1 X46.397 Y76.524 E18.29254
G1 X46.375 Y76.005 E18.30577
G1 X46.375 Y56.005 E18.81506
G1 X46.415 Y55.306 E18.83289
G1 X46.534 Y54.617 E18.8507
G1 X46.732 Y53.946 E18.86851
G1 X46.868 Y53.623 E18.87744
G0 F1620 X47.004 Y53.301
G0 X47.348 Y52.692
G0 X47.76 Y52.126
G0 X48.233 Y51.611
G0 F4320 X48.577 Y51.767
G1 F1500 E18.93977
G1 F1800 X49.102 Y51.336 E18.95707
G1 X49.674 Y50.969 E18.97438
G1 X50.285 Y50.672 E18.99168
G1 X50.927 Y50.448 E19.00899
G1 X51.59 Y50.302 E19.02628
G1 X52.5 Y50.23 E19.04952
G1 X72.5 Y50.23 E19.55882
G1 X73.178 Y50.27 E19.57611
G1 X73.847 Y50.389 E19.59342
G1 X74.497 Y50.586 E19.61071
G1 X75.12 Y50.858 E19.62802
G1 X75.706 Y51.202 E19.64533
G1 X76.248 Y51.612 E19.66263
G1 X76.738 Y52.082 E19.67992
G1 X77.169 Y52.607 E19.69722
G1 X77.536 Y53.179 E19.71453
G1 X77.833 Y53.79 E19.73183
G1 X78.057 Y54.432 E19.74914
G1 X78.203 Y55.095 E19.76643
G1 X78.275 Y56.005 E19.78967
G1 X78.275 Y76.005 E20.29897
G1 X78.235 Y76.683 E20.31627
G1 X78.116 Y77.352 E20.33357
G1 X77.919 Y78.002 E20.35086
G1 X77.647 Y78.625 E20.36818
G1 X77.303 Y79.211 E20.38548
G1 X76.893 Y79.753 E20.40279
G1 X76.423 Y80.243 E20.42007
G1 X75.898 Y80.674 E20.43737
G1 X75.326 Y81.041 E20.45468
G1 X74.715 Y81.338 E20.47198
G1 X74.073 Y81.562 E20.48929
G1 X73.41 Y81.708 E20.50658
G1 X72.5 Y81.78 E20.52983
G1 X52.5 Y81.78 E21.03912
G1 X51.822 Y81.74 E21.05642
G1 X51.153 Y81.621 E21.07372
G1 X50.503 Y81.424 E21.09102
G1 X49.88 Y81.152 E21.10833
G1 X49.294 Y80.808 E21.12563
G1 X48.752 Y80.398 E21.14294
G1 X48.262 Y79.928 E21.16023
G1 X47.831 Y79.403 E21.17752
G1 X47.464 Y78.831 E21.19483
G1 X47.167 Y78.22 E21.21213
G1 X46.943 Y77.578 E21.22944
G1 X46.797 Y76.915 E21.24673
G1 X46.725 Y76.005 E21.26998
G1 X46.725 Y56.005 E21.77927
G1 X46.765 Y55.327 E21.79657
G1 X46.884 Y54.658 E21.81387
G1 X47.081 Y54.008 E21.83117
G1 X47.188 Y53.763 E21.83797
G0 F1620 X47.353 Y53.385
G0 X47.697 Y52.799
G0 X48.107 Y52.257
G0 X48.577 Y51.767
G0 F4320 X48.92 Y51.929
G1 F1500 E21.90031
G1 F1800 X49.441 Y51.525 E21.9171
G1 X50.006 Y51.187 E21.93387
G1 X50.608 Y50.921 E21.95063
G1 X51.238 Y50.729 E21.9674
G1 X51.886 Y50.615 E21.98415
G1 X52.5 Y50.58 E21.99981
G1 X72.5 Y50.58 E22.50911
G1 X73.157 Y50.62 E22.52587
G1 X73.805 Y50.739 E22.54265
G1 X74.433 Y50.936 E22.55941
G1 X75.033 Y51.208 E22.57618
G1 X75.596 Y51.55 E22.59296
G1 X76.113 Y51.958 E22.60973
G1 X76.576 Y52.425 E22.62647
G1 X76.98 Y52.946 E22.64326
G1 X77.318 Y53.511 E22.66003
G1 X77.584 Y54.113 E22.67679
G1 X77.776 Y54.743 E22.69356
G1 X77.89 Y55.391 E22.71031
G1 X77.925 Y56.005 E22.72598
G1 X77.925 Y76.005 E23.23527
G1 X77.885 Y76.662 E23.25203
G1 X77.766 Y77.31 E23.26881
G1 X77.569 Y77.938 E23.28557
G1 X77.297 Y78.538 E23.30235
G1 X76.955 Y79.101 E23.31912
G1 X76.547 Y79.618 E23.33589
G1 X76.08 Y80.081 E23.35264
G1 X75.559 Y80.485 E23.36943
G1 X74.994 Y80.823 E23.38619
G1 X74.392 Y81.089 E23.40295
G1 X73.762 Y81.281 E23.41972
G1 X73.114 Y81.395 E23.43648
G1 X72.5 Y81.43 E23.45214
G1 X52.5 Y81.43 E23.96143
G1 X51.843 Y81.39 E23.97819
G1 X51.195 Y81.271 E23.99497
G1 X50.567 Y81.074 E24.01173
G1 X49.967 Y80.802 E24.02851
G1 X49.404 Y80.46 E24.04528
G1 X48.887 Y80.052 E24.06205
G1 X48.424 Y79.585 E24.0788
G1 X48.02 Y79.064 E24.09559
G1 X47.682 Y78.499 E24.11235
G1 X47.416 Y77.897 E24.12911
G1 X47.224 Y77.267 E24.14588
G1 X47.11 Y76.619 E24.16264
G1 X47.075 Y76.005 E24.1783
G1 X47.075 Y56.005 E24.6876
G1 X47.115 Y55.348 E24.70436
G1 X47.234 Y54.7 E24.72113
G1 X47.431 Y54.072 E24.73789
G1 X47.507 Y53.905 E24.74257
G0 F1620 X47.703 Y53.472
G0 X48.045 Y52.909
G0 X48.453 Y52.392
G0 X48.92 Y51.929
G0 F4320 X48.799 Y52.533
G1 F1500 E24.8049
G1 F1800 X49.263 Y52.097 E24.82112
G1 X49.778 Y51.722 E24.83734
G1 X50.335 Y51.415 E24.85354
G1 X50.927 Y51.18 E24.86976
G1 X51.544 Y51.021 E24.88598
G1 X52.176 Y50.94 E24.90221
G1 X52.5 Y50.93 E24.91046
G1 X72.5 Y50.93 E25.41976
G1 X73.136 Y50.97 E25.43598
G1 X73.761 Y51.089 E25.45219
G1 X74.367 Y51.286 E25.46841
G1 X74.943 Y51.557 E25.48462
G1 X75.481 Y51.898 E25.50084
G1 X75.972 Y52.304 E25.51707
G1 X76.408 Y52.768 E25.53328
G1 X76.783 Y53.283 E25.5495
G1 X77.09 Y53.84 E25.5657
G1 X77.325 Y54.432 E25.58192
G1 X77.484 Y55.049 E25.59814
