;FLAVOR:Marlin
;TIME:2256
;Filament used: 0.968769m
;Layer height: 0.13125
;Generated with Cura_SteamEngine 3.3.1
M190 S65
M104 S205
M109 S205
M82 ;absolute extrusion mode
G21;(metric values)
G90;(absolute positioning)
M82;(set extruder to absolute mode)
M107;(start with the fan off)
G28;(Home the printer)
G92 E0;(Reset the extruder to 0)
G0 Z5 E5 F500;(Move up and prime the nozzle)
G0 X-1 Z0;(Move outside the printable area)
G1 Y60 E8 F500;(Draw a priming/wiping line to the rear)
G1 X-1;(Move a little closer to the print area)
G1 Y10 E16 F500;(draw more priming/wiping)
G1 E15 F250;(Small retract)
G92 E0;(Zero the extruder)
G92 E0
G1 F2400 E-2.5
;LAYER_COUNT:229
;LAYER:0
M107
G0 F4320 X46.299 Y46.528 Z0.262
;TYPE:SKIRT
G1 F2400 E0
G1 F1800 X46.763 Y46.092 E0.02455
G1 X47.278 Y45.717 E0.04912
G1 X47.835 Y45.41 E0.07365
G1 X48.427 Y45.175 E0.09821
G1 X49.044 Y45.016 E0.12278
G1 X49.676 Y44.935 E0.14735
G1 X50 Y44.925 E0.15985
G1 X70 Y44.925 E0.93113
G1 X70.636 Y44.965 E0.95571
G1 X71.261 Y45.084 E0.98024
G1 X71.867 Y45.281 E1.00482
G1 X72.443 Y45.552 E1.02937
G1 X72.981 Y45.893 E1.05393
G1 X73.472 Y46.299 E1.0785
G1 X73.908 Y46.763 E1.10305
G1 X74.283 Y47.278 E1.12762
G1 X74.59 Y47.835 E1.15215
G1 X74.825 Y48.427 E1.17671
G1 X74.984 Y49.044 E1.20128
G1 X75.065 Y49.676 E1.22585
G1 X75.075 Y50 E1.23835
G1 X75.075 Y70 E2.00963
G1 X75.035 Y70.636 E2.03421
G1 X74.916 Y71.261 E2.05874
G1 X74.719 Y71.867 E2.08332
G1 X74.448 Y72.443 E2.10786
G1 X74.107 Y72.981 E2.13243
G1 X73.701 Y73.472 E2.157
G1 X73.237 Y73.908 E2.18155
G1 X72.722 Y74.283 E2.20612
G1 X72.165 Y74.59 E2.23065
G1 X71.573 Y74.825 E2.25521
G1 X70.956 Y74.984 E2.27978
G1 X70.324 Y75.065 E2.30435
G1 X70 Y75.075 E2.31685
G1 X50 Y75.075 E3.08813
G1 X49.364 Y75.035 E3.11271
G1 X48.739 Y74.916 E3.13724
G1 X48.133 Y74.719 E3.16181
G1 X47.557 Y74.448 E3.18636
G1 X47.019 Y74.107 E3.21093
G1 X46.528 Y73.701 E3.2355
G1 X46.092 Y73.237 E3.26005
G1 X45.717 Y72.722 E3.28462
G1 X45.41 Y72.165 E3.30914
G1 X45.175 Y71.573 E3.33371
G1 X45.016 Y70.956 E3.35828
G1 X44.935 Y70.324 E3.38285
G1 X44.925 Y70 E3.39535
G1 X44.925 Y50 E4.16663
G1 X44.965 Y49.364 E4.1912
G1 X45.084 Y48.739 E4.21574
G1 X45.281 Y48.133 E4.24031
G1 X45.552 Y47.557 E4.26486
G1 X45.861 Y47.069 E4.28714
G0 F1620 X45.893 Y47.019
G0 X46.299 Y46.528
G0 F4320 X46.644 Y46.674
G1 F2400 E4.31402
G1 F1800 X47.104 Y46.267 E4.3377
G1 X47.613 Y45.922 E4.36141
G1 X48.162 Y45.647 E4.38509
G1 X48.743 Y45.445 E4.40881
G1 X49.344 Y45.321 E4.43248
G1 X50 Y45.275 E4.45784
G1 X70 Y45.275 E5.22912
G1 X70.613 Y45.315 E5.25281
G1 X71.216 Y45.434 E5.27651
G1 X71.798 Y45.631 E5.30021
G1 X72.35 Y45.901 E5.3239
G1 X72.862 Y46.241 E5.3476
G1 X73.326 Y46.644 E5.37131
G1 X73.733 Y47.104 E5.39499
G1 X74.078 Y47.613 E5.4187
G1 X74.353 Y48.162 E5.44238
G1 X74.555 Y48.743 E5.4661
G1 X74.679 Y49.344 E5.48977
G1 X74.725 Y50 E5.51513
G1 X74.725 Y70 E6.28641
G1 X74.685 Y70.613 E6.3101
G1 X74.566 Y71.216 E6.3338
G1 X74.369 Y71.798 E6.3575
G1 X74.099 Y72.35 E6.38119
G1 X73.759 Y72.862 E6.40489
G1 X73.356 Y73.326 E6.42859
G1 X72.896 Y73.733 E6.45228
G1 X72.387 Y74.078 E6.47599
G1 X71.838 Y74.353 E6.49967
G1 X71.257 Y74.555 E6.52339
G1 X70.656 Y74.679 E6.54706
G1 X70 Y74.725 E6.57242
G1 X50 Y74.725 E7.3437
G1 X49.387 Y74.685 E7.36739
G1 X48.784 Y74.566 E7.39109
G1 X48.202 Y74.369 E7.41479
G1 X47.65 Y74.099 E7.43848
G1 X47.138 Y73.759 E7.46218
G1 X46.674 Y73.356 E7.48588
G1 X46.267 Y72.896 E7.50957
G1 X45.922 Y72.387 E7.53328
G1 X45.647 Y71.838 E7.55696
G1 X45.445 Y71.257 E7.58068
G1 X45.321 Y70.656 E7.60435
G1 X45.275 Y70 E7.62971
G1 X45.275 Y50 E8.40099
G1 X45.315 Y49.387 E8.42468
G1 X45.434 Y48.784 E8.44838
G1 X45.631 Y48.202 E8.47207
G1 X45.901 Y47.65 E8.49577
G1 X46.196 Y47.207 E8.5163
G0 F1620 X46.241 Y47.138
G0 X46.644 Y46.674
G0 F4320 X46.988 Y46.827
G1 F2400 E8.54318
G1 F1800 X47.444 Y46.45 E8.56599
G1 X47.946 Y46.137 E8.58881
G1 X48.485 Y45.896 E8.61158
G1 X49.053 Y45.729 E8.63441
G1 X49.637 Y45.64 E8.65719
G1 X50 Y45.625 E8.6712
G1 X70 Y45.625 E9.44248
G1 X70.59 Y45.665 E9.46528
G1 X71.169 Y45.784 E9.48808
G1 X71.727 Y45.98 E9.51089
G1 X72.253 Y46.25 E9.53369
G1 X72.738 Y46.588 E9.55648
G1 X73.173 Y46.988 E9.57927
G1 X73.55 Y47.444 E9.60209
G1 X73.863 Y47.946 E9.6249
G1 X74.104 Y48.485 E9.64767
G1 X74.271 Y49.053 E9.6705
G1 X74.36 Y49.637 E9.69329
G1 X74.375 Y50 E9.7073
G1 X74.375 Y70 E10.47857
G1 X74.335 Y70.59 E10.50138
G1 X74.216 Y71.169 E10.52417
G1 X74.02 Y71.727 E10.54698
G1 X73.75 Y72.253 E10.56978
G1 X73.412 Y72.738 E10.59258
G1 X73.012 Y73.173 E10.61537
G1 X72.556 Y73.55 E10.63819
G1 X72.054 Y73.863 E10.661
G1 X71.515 Y74.104 E10.68377
G1 X70.947 Y74.271 E10.7066
G1 X70.363 Y74.36 E10.72938
G1 X70 Y74.375 E10.74339
G1 X50 Y74.375 E11.51467
G1 X49.41 Y74.335 E11.53748
G1 X48.831 Y74.216 E11.56027
G1 X48.273 Y74.02 E11.58308
G1 X47.747 Y73.75 E11.60588
G1 X47.262 Y73.412 E11.62868
G1 X46.827 Y73.012 E11.65147
G1 X46.45 Y72.556 E11.67428
G1 X46.137 Y72.054 E11.6971
G1 X45.896 Y71.515 E11.71987
G1 X45.729 Y70.947 E11.7427
G1 X45.64 Y70.363 E11.76548
G1 X45.625 Y70 E11.77949
G1 X45.625 Y50 E12.55077
G1 X45.665 Y49.41 E12.57357
G1 X45.784 Y48.831 E12.59637
G1 X45.98 Y48.273 E12.61918
G1 X46.25 Y47.747 E12.64198
G1 X46.527 Y47.349 E12.66068
G0 F1620 X46.588 Y47.262
G0 X46.988 Y46.827
G0 F4320 X46.935 Y47.392
G1 F2400 E12.68755
G1 F1800 X47.332 Y46.987 E12.70943
G1 X47.782 Y46.641 E12.73132
G1 X48.276 Y46.363 E12.75318
G1 X48.804 Y46.157 E12.77503
G1 X49.356 Y46.027 E12.7969
G1 X50 Y45.975 E12.82182
G1 X70 Y45.975 E13.5931
G1 X70.566 Y46.015 E13.61498
G1 X71.12 Y46.134 E13.63683
G1 X71.652 Y46.33 E13.65869
G1 X72.152 Y46.598 E13.68057
G1 X72.608 Y46.935 E13.70244
G1 X73.013 Y47.332 E13.72431
G1 X73.359 Y47.782 E13.7462
G1 X73.637 Y48.276 E13.76806
G1 X73.843 Y48.804 E13.78991
G1 X73.973 Y49.356 E13.81178
G1 X74.025 Y50 E13.8367
G1 X74.025 Y70 E14.60798
G1 X73.985 Y70.566 E14.62986
G1 X73.866 Y71.12 E14.65171
G1 X73.67 Y71.652 E14.67358
G1 X73.402 Y72.152 E14.69545
G1 X73.065 Y72.608 E14.71732
G1 X72.668 Y73.013 E14.73919
G1 X72.218 Y73.359 E14.76108
G1 X71.724 Y73.637 E14.78294
G1 X71.196 Y73.843 E14.8048
G1 X70.644 Y73.973 E14.82667
G1 X70 Y74.025 E14.85158
G1 X50 Y74.025 E15.62286
G1 X49.434 Y73.985 E15.64474
G1 X48.88 Y73.866 E15.66659
G1 X48.348 Y73.67 E15.68846
G1 X47.848 Y73.402 E15.71033
G1 X47.392 Y73.065 E15.7322
G1 X46.987 Y72.668 E15.75407
G1 X46.641 Y72.218 E15.77596
G1 X46.363 Y71.724 E15.79782
G1 X46.157 Y71.196 E15.81968
G1 X46.027 Y70.644 E15.84155
G1 X45.975 Y70 E15.86646
G1 X45.975 Y50 E16.63774
G1 X46.015 Y49.434 E16.65962
G1 X46.134 Y48.88 E16.68148
G1 X46.33 Y48.348 E16.70334
G1 X46.537 Y47.962 E16.72023
G0 F1620 X46.598 Y47.848
G0 X46.935 Y47.392
G0 F4320 X47.281 Y47.528
G1 F2400 E16.74711
G1 F1800 X47.674 Y47.155 E16.768
G1 X48.118 Y46.844 E16.78891
G1 X48.602 Y46.601 E16.8098
G1 X49.117 Y46.433 E16.83069
G1 X49.651 Y46.342 E16.85158
G1 X50 Y46.325 E16.86505
G1 X70 Y46.325 E17.63633
G1 X70.54 Y46.365 E17.65721
G1 X71.069 Y46.484 E17.67812
G1 X71.574 Y46.679 E17.699
G1 X72.046 Y46.947 E17.71993
G1 X72.472 Y47.281 E17.7408
G1 X72.845 Y47.674 E17.7617
G1 X73.156 Y48.118 E17.7826
G1 X73.399 Y48.602 E17.80349
G1 X73.567 Y49.117 E17.82438
G1 X73.658 Y49.651 E17.84527
G1 X73.675 Y50 E17.85874
G1 X73.675 Y70 E18.63002
G1 X73.635 Y70.54 E18.6509
G1 X73.516 Y71.069 E18.67181
G1 X73.321 Y71.574 E18.69269
G1 X73.053 Y72.046 E18.71362
G1 X72.719 Y72.472 E18.7345
G1 X72.326 Y72.845 E18.75539
G1 X71.882 Y73.156 E18.7763
G1 X71.398 Y73.399 E18.79718
G1 X70.883 Y73.567 E18.81807
G1 X70.349 Y73.658 E18.83896
G1 X70 Y73.675 E18.85244
G1 X50 Y73.675 E19.62372
G1 X49.46 Y73.635 E19.6446
G1 X48.931 Y73.516 E19.66551
G1 X48.426 Y73.321 E19.68638
G1 X47.954 Y73.053 E19.70731
G1 X47.528 Y72.719 E19.72819
G1 X47.155 Y72.326 E19.74909
G1 X46.844 Y71.882 E19.76999
G1 X46.601 Y71.398 E19.79088
G1 X46.433 Y70.883 E19.81177
G1 X46.342 Y70.349 E19.83266
G1 X46.325 Y70 E19.84613
G1 X46.325 Y50 E20.61741
G1 X46.365 Y49.46 E20.63829
G1 X46.484 Y48.931 E20.6592
G1 X46.679 Y48.426 E20.68008
G1 X46.87 Y48.089 E20.69502
G0 F1620 X46.947 Y47.954
G0 X47.281 Y47.528
G0 F4320 X47.626 Y47.672
G1 F2400 E20.72189
G1 F1800 X48.015 Y47.333 E20.74179
G1 X48.451 Y47.058 E20.76167
G1 X48.924 Y46.854 E20.78154
G1 X49.423 Y46.725 E20.80141
G1 X50 Y46.675 E20.82375
G1 X70 Y46.675 E21.59503
G1 X70.514 Y46.715 E21.61491
G1 X71.015 Y46.834 E21.63477
G1 X71.492 Y47.029 E21.65464
G1 X71.934 Y47.295 E21.67453
G1 X72.328 Y47.626 E21.69438
G1 X72.667 Y48.015 E21.71427
G1 X72.942 Y48.451 E21.73415
G1 X73.146 Y48.924 E21.75402
G1 X73.275 Y49.423 E21.77389
G1 X73.325 Y50 E21.79623
G1 X73.325 Y70 E22.56751
G1 X73.285 Y70.514 E22.58739
G1 X73.166 Y71.015 E22.60725
G1 X72.971 Y71.492 E22.62712
G1 X72.705 Y71.934 E22.64701
G1 X72.374 Y72.328 E22.66686
G1 X71.985 Y72.667 E22.68676
G1 X71.549 Y72.942 E22.70664
G1 X71.076 Y73.146 E22.7265
G1 X70.577 Y73.275 E22.74638
G1 X70 Y73.325 E22.76871
G1 X50 Y73.325 E23.53999
G1 X49.486 Y73.285 E23.55987
G1 X48.985 Y73.166 E23.57973
G1 X48.508 Y72.971 E23.5996
G1 X48.066 Y72.705 E23.6195
G1 X47.672 Y72.374 E23.63934
G1 X47.333 Y71.985 E23.65924
G1 X47.058 Y71.549 E23.67912
G1 X46.854 Y71.076 E23.69898
G1 X46.725 Y70.577 E23.71886
G1 X46.675 Y70 E23.74119
G1 X46.675 Y50 E24.51247
G1 X46.715 Y49.486 E24.53235
G1 X46.834 Y48.985 E24.55221
G1 X47.029 Y48.508 E24.57208
G1 X47.201 Y48.223 E24.58492
G0 F1620 X47.295 Y48.066
G0 X47.626 Y47.672
G0 F4320 X47.971 Y47.825
G1 F2400 E24.6118
G1 F1800 X48.353 Y47.522 E24.6306
G1 X48.78 Y47.287 E24.6494
G1 X49.239 Y47.124 E24.66818
G1 X49.719 Y47.038 E24.68699
G1 X50 Y47.025 E24.69784
G1 X70 Y47.025 E25.46911
G1 X70.486 Y47.065 E25.48792
G1 X70.959 Y47.184 E25.50673
G1 X71.406 Y47.378 E25.52552
G1 X71.815 Y47.643 E25.54431
G1 X72.175 Y47.971 E25.5631
G1 X72.478 Y48.353 E25.5819
G1 X72.713 Y48.78 E25.60069
G1 X72.876 Y49.239 E25.61948
G1 X72.962 Y49.719 E25.63828
G1 X72.975 Y50 E25.64913
G1 X72.975 Y70 E26.42041
G1 X72.935 Y70.486 E26.43921
G1 X72.816 Y70.959 E26.45802
G1 X72.622 Y71.406 E26.47682
G1 X72.357 Y71.815 E26.49561
G1 X72.029 Y72.175 E26.51439
G1 X71.647 Y72.478 E26.53319
G1 X71.22 Y72.713 E26.55199
G1 X70.761 Y72.876 E26.57077
G1 X70.281 Y72.962 E26.58958
G1 X70 Y72.975 E26.60043
G1 X50 Y72.975 E27.3717
G1 X49.514 Y72.935 E27.39051
G1 X49.041 Y72.816 E27.40932
G1 X48.594 Y72.622 E27.42811
G1 X48.185 Y72.357 E27.4469
G1 X47.825 Y72.029 E27.46569
G1 X47.522 Y71.647 E27.48449
G1 X47.287 Y71.22 E27.50328
G1 X47.124 Y70.761 E27.52207
G1 X47.038 Y70.281 E27.54087
G1 X47.025 Y70 E27.55172
G1 X47.025 Y50 E28.323
G1 X47.065 Y49.514 E28.34181
G1 X47.184 Y49.041 E28.36061
G1 X47.378 Y48.594 E28.37941
G1 X47.529 Y48.361 E28.39011
G0 F1620 X47.643 Y48.185
G0 X47.971 Y47.825
G0 F4320 X47.99 Y48.312
G1 F2400 E28.41699
G1 F1800 X48.314 Y47.988 E28.43466
G1 X48.689 Y47.726 E28.4523
G1 X49.104 Y47.533 E28.46995
G1 X49.546 Y47.415 E28.4876
G1 X50 Y47.375 E28.50517
G1 X70 Y47.375 E29.27645
G1 X70.456 Y47.415 E29.2941
G1 X70.898 Y47.533 E29.31175
G1 X71.313 Y47.727 E29.32941
G1 X71.688 Y47.99 E29.34708
G1 X72.012 Y48.314 E29.36475
G1 X72.274 Y48.689 E29.38239
G1 X72.467 Y49.104 E29.40004
G1 X72.585 Y49.546 E29.41768
G1 X72.625 Y50 E29.43525
G1 X72.625 Y70 E30.20653
G1 X72.585 Y70.456 E30.22419
G1 X72.467 Y70.898 E30.24183
G1 X72.273 Y71.313 E30.25949
G1 X72.01 Y71.688 E30.27716
G1 X71.686 Y72.012 E30.29483
G1 X71.311 Y72.274 E30.31247
G1 X70.896 Y72.467 E30.33012
G1 X70.454 Y72.585 E30.34776
G1 X70 Y72.625 E30.36534
G1 X50 Y72.625 E31.13662
G1 X49.544 Y72.585 E31.15427
G1 X49.102 Y72.467 E31.17191
G1 X48.687 Y72.273 E31.18958
G1 X48.312 Y72.01 E31.20724
G1 X47.988 Y71.686 E31.22491
G1 X47.726 Y71.311 E31.24255
G1 X47.533 Y70.896 E31.2602
G1 X47.415 Y70.454 E31.27784
G1 X47.375 Y70 E31.29542
G1 X47.375 Y50 E32.0667
G1 X47.415 Y49.544 E32.08435
G1 X47.533 Y49.102 E32.10199
G1 X47.626 Y48.903 E32.11046
G0 F1620 X47.727 Y48.687
G0 X47.99 Y48.312
G0 F4320 X48.336 Y48.449
G1 F2400 E32.13734
G1 F1800 X48.654 Y48.166 E32.15376
G1 X49.02 Y47.947 E32.17021
G1 X49.42 Y47.8 E32.18664
G1 X50 Y47.725 E32.20919
G1 X70 Y47.725 E32.98047
G1 X70.424 Y47.765 E32.9969
G1 X70.834 Y47.883 E33.01335
G1 X71.214 Y48.076 E33.02979
G1 X71.551 Y48.336 E33.0462
G1 X71.834 Y48.654 E33.06262
G1 X72.053 Y49.02 E33.07906
G1 X72.2 Y49.42 E33.0955
G1 X72.275 Y50 E33.11805
G1 X72.275 Y70 E33.88933
G1 X72.235 Y70.424 E33.90575
G1 X72.117 Y70.834 E33.92221
G1 X71.924 Y71.214 E33.93864
G1 X71.664 Y71.551 E33.95506
G1 X71.346 Y71.834 E33.97147
G1 X70.98 Y72.053 E33.98792
G1 X70.58 Y72.2 E34.00436
G1 X70 Y72.275 E34.02691
G1 X50 Y72.275 E34.79819
G1 X49.576 Y72.235 E34.81461
G1 X49.166 Y72.117 E34.83106
G1 X48.786 Y71.924 E34.8475
G1 X48.449 Y71.664 E34.86391
G1 X48.166 Y71.346 E34.88033
G1 X47.947 Y70.98 E34.89678
G1 X47.8 Y70.58 E34.91321
G1 X47.725 Y70 E34.93577
G1 X47.725 Y50 E35.70704
G1 X47.765 Y49.576 E35.72347
G1 X47.883 Y49.166 E35.73992
G1 X47.953 Y49.028 E35.74589
G0 F1620 X48.076 Y48.786
G0 X48.336 Y48.449
G0 F4320 X48.681 Y48.598
G1 F2400 E35.77277
G1 F1800 X48.992 Y48.36 E35.78787
G1 X49.345 Y48.19 E35.80298
G1 X49.725 Y48.095 E35.81808
G1 X50 Y48.075 E35.82872
G1 X70 Y48.075 E36.6
G1 X70.39 Y48.115 E36.61511
G1 X70.764 Y48.233 E36.63024
G1 X71.106 Y48.424 E36.64534
G1 X71.402 Y48.681 E36.66046
G1 X71.64 Y48.992 E36.67556
G1 X71.81 Y49.345 E36.69067
G1 X71.905 Y49.725 E36.70578
G1 X71.925 Y50 E36.71641
G1 X71.925 Y70 E37.48769
G1 X71.885 Y70.39 E37.50281
G1 X71.767 Y70.764 E37.51793
G1 X71.576 Y71.106 E37.53304
G1 X71.319 Y71.402 E37.54816
G1 X71.008 Y71.64 E37.56326
G1 X70.655 Y71.81 E37.57837
G1 X70.275 Y71.905 E37.59347
G1 X70 Y71.925 E37.60411
G1 X50 Y71.925 E38.37538
G1 X49.61 Y71.885 E38.3905
G1 X49.236 Y71.767 E38.40563
G1 X48.894 Y71.576 E38.42073
G1 X48.598 Y71.319 E38.43585
G1 X48.36 Y71.008 E38.45095
G1 X48.19 Y70.655 E38.46606
G1 X48.095 Y70.275 E38.48117
G1 X48.075 Y70 E38.4918
G1 X48.075 Y50 E39.26308
G1 X48.115 Y49.61 E39.2782
G1 X48.233 Y49.236 E39.29332
G1 X48.276 Y49.16 E39.29669
G0 F1620 X48.424 Y48.894
G0 X48.681 Y48.598
G0 F4320 X48.772 Y49.014
G1 F2400 E39.32357
G1 F1800 X49.023 Y48.764 E39.33723
G1 X49.324 Y48.577 E39.35089
G1 X49.66 Y48.462 E39.36459
G1 X50 Y48.425 E39.37778
G1 X70 Y48.425 E40.14906
G1 X70.352 Y48.465 E40.16272
G1 X70.686 Y48.582 E40.17637
G1 X70.986 Y48.772 E40.19006
G1 X71.236 Y49.023 E40.20372
G1 X71.423 Y49.324 E40.21739
G1 X71.538 Y49.66 E40.23108
G1 X71.575 Y50 E40.24427
G1 X71.575 Y70 E41.01555
G1 X71.535 Y70.352 E41.02921
G1 X71.418 Y70.686 E41.04286
G1 X71.228 Y70.986 E41.05655
G1 X70.977 Y71.236 E41.07022
G1 X70.676 Y71.423 E41.08388
G1 X70.34 Y71.538 E41.09758
G1 X70 Y71.575 E41.11077
G1 X50 Y71.575 E41.88204
G1 X49.648 Y71.535 E41.89571
G1 X49.314 Y71.418 E41.90935
G1 X49.014 Y71.228 E41.92305
G1 X48.764 Y70.977 E41.93671
G1 X48.577 Y70.676 E41.95037
G1 X48.462 Y70.34 E41.96407
G1 X48.425 Y70 E41.97726
G1 X48.425 Y50 E42.74854
G1 X48.465 Y49.648 E42.7622
G1 X48.469 Y49.637 E42.76265
G0 F1620 X48.582 Y49.314
G0 X48.772 Y49.014
G0 F4320 X49.118 Y49.15
G1 F2400 E42.78953
G1 F1800 X49.362 Y48.954 E42.8016
G1 X49.647 Y48.827 E42.81363
G1 X50 Y48.775 E42.82739
G1 X70 Y48.775 E43.59867
G1 X70.31 Y48.815 E43.61072
G1 X70.6 Y48.932 E43.62278
G1 X70.85 Y49.118 E43.6348
G1 X71.046 Y49.362 E43.64687
G1 X71.173 Y49.647 E43.6589
G1 X71.225 Y50 E43.67266
G1 X71.225 Y70 E44.44394
G1 X71.185 Y70.31 E44.45599
G1 X71.068 Y70.6 E44.46805
G1 X70.882 Y70.85 E44.48007
G1 X70.638 Y71.046 E44.49214
G1 X70.353 Y71.173 E44.50417
