; generated by Slic3r 1.2.9 on 2018-05-07 at 00:00:45

; external perimeters extrusion width = 0.40mm
; perimeters extrusion width = 0.67mm
; infill extrusion width = 0.67mm
; solid infill extrusion width = 0.67mm
; top infill extrusion width = 0.67mm
; support material extrusion width = 0.40mm

M107
M190 S40 ; set bed temperature
M104 S219 ; set temperature
G28 ; home all axes
G1 Z5 F5000 ; lift nozzle

M109 S219 ; wait for temperature to be reached
G21 ; set units to millimeters
G90 ; use absolute coordinates
M82 ; use absolute distances for extrusion
G92 E0
G1 E-5.00000 F4800.00000
G92 E0
G1 Z0.300 F7800.000
G1 X36.043 Y35.915 F7800.000
G1 E5.00000 F4800.00000
G1 X39.186 Y33.362 E5.27315 F900.000
G1 X42.767 Y31.476 E5.54630
G1 X46.650 Y30.329 E5.81945
G1 X50.500 Y29.964 E6.08041
G1 X70.500 Y29.964 E7.42988
G1 X74.529 Y30.363 E7.70303
G1 X78.401 Y31.545 E7.97618 F900.000
G1 X81.966 Y33.463 E8.24933
G1 X85.085 Y36.043 E8.52248
G1 X87.638 Y39.186 E8.79563
G1 X89.524 Y42.767 E9.06878
G1 X90.671 Y46.650 E9.34194
G1 X91.036 Y50.500 E9.60289
G1 X91.036 Y70.500 E10.95236
G1 X90.637 Y74.529 E11.22551
G1 X89.455 Y78.401 E11.49866
G1 X87.537 Y81.966 E11.77181
G1 X84.957 Y85.085 E12.04497
G1 X81.814 Y87.638 E12.31812
G1 X78.233 Y89.524 E12.59127
G1 X74.350 Y90.671 E12.86442
G1 X70.500 Y91.036 E13.12537
G1 X50.500 Y91.036 E14.47484
G1 X46.471 Y90.637 E14.74800
G1 X42.599 Y89.455 E15.02115
G1 X39.034 Y87.537 E15.29430
G1 X35.915 Y84.957 E15.56745
G1 X33.362 Y81.814 E15.84060
G1 X31.476 Y78.233 E16.11375
G1 X30.329 Y74.350 E16.38690
G1 X29.964 Y70.500 E16.64786
G1 X29.964 Y50.500 E17.99733
G1 X30.363 Y46.471 E18.27048
G1 X31.545 Y42.599 E18.54363
G1 X33.463 Y39.034 E18.81678
G1 X36.005 Y35.961 E19.08588
G1 E14.08588 F4800.00000
G92 E0
G1 X38.255 Y38.127 F7800.000
G1 E5.00000 F4800.00000
G1 X43.290 Y33.092 E5.48039 F900.000
G1 X77.710 Y33.092 E7.80289
G1 X87.908 Y43.290 E8.77592
G1 X87.908 Y77.710 E11.09842 F900.000
G1 X77.710 Y87.908 E12.07145
G1 X43.290 Y87.908 E14.39395
G1 X33.092 Y77.710 E15.36698
G1 X33.092 Y43.290 E17.68948
G1 X38.213 Y38.169 E18.17808
G1 X38.634 Y38.506 F7800.000
G1 X43.511 Y33.628 E18.64350 F900.000
G1 X77.489 Y33.628 E20.93606
G1 X87.372 Y43.511 E21.87915 F900.000
G1 X87.372 Y77.489 E24.17171
G1 X77.489 Y87.372 E25.11480
G1 X43.511 Y87.372 E27.40736
G1 X33.628 Y77.489 E28.35045
G1 X33.628 Y43.511 E30.64301
G1 X38.591 Y38.548 E31.11664
G1 X39.013 Y38.884 F7800.000
G1 X43.733 Y34.164 E31.56709 F900.000
G1 X77.267 Y34.164 E33.82971
G1 X86.836 Y43.733 E34.74286
G1 X86.836 Y77.267 E37.00548 F900.000
G1 X77.267 Y86.836 E37.91863
G1 X43.733 Y86.836 E40.18126
G1 X34.164 Y77.267 E41.09441
G1 X34.164 Y43.733 E43.35703
G1 X38.970 Y38.927 E43.81568
G1 X39.391 Y39.263 F7800.000
G1 X43.955 Y34.699 E44.25116 F900.000
G1 X77.045 Y34.699 E46.48385
G1 X86.301 Y43.955 E47.36706 F900.000
G1 X86.301 Y77.045 E49.59974
G1 X77.045 Y86.301 E50.48295
G1 X43.955 Y86.301 E52.71564
G1 X34.699 Y77.045 E53.59885
G1 X34.699 Y43.955 E55.83153
G1 X39.349 Y39.305 E56.27521
G1 X39.770 Y39.642 F7800.000
G1 X44.177 Y35.235 E56.69572 F900.000
G1 X76.823 Y35.235 E58.89847
G1 X85.765 Y44.177 E59.75174
G1 X85.765 Y76.823 E61.95448 F900.000
G1 X76.823 Y85.765 E62.80776
G1 X44.177 Y85.765 E65.01050
G1 X35.235 Y76.823 E65.86377
G1 X35.235 Y44.177 E68.06651
G1 X39.728 Y39.684 E68.49523
G1 X40.149 Y40.020 F7800.000
G1 X44.399 Y35.770 E68.90077 F900.000
G1 X76.601 Y35.770 E71.07357
G1 X85.230 Y44.399 E71.89691 F900.000
G1 X85.230 Y76.601 E74.06971
G1 X76.601 Y85.230 E74.89304
G1 X44.399 Y85.230 E77.06585
G1 X35.770 Y76.601 E77.88918
G1 X35.770 Y44.399 E80.06198
G1 X40.106 Y40.063 E80.47573
G1 X40.528 Y40.399 F7800.000
G1 X44.621 Y36.306 E80.86630 F900.000
G1 X76.379 Y36.306 E83.00916
G1 X84.694 Y44.621 E83.80256
G1 X84.694 Y76.379 E85.94542 F900.000
G1 X76.379 Y84.694 E86.73882
G1 X44.621 Y84.694 E88.88168
G1 X36.306 Y76.379 E89.67507
G1 X36.306 Y44.621 E91.81794
G1 X40.485 Y40.442 E92.21671
G1 X40.906 Y40.778 F7800.000
G1 X44.843 Y36.842 E92.59231 F900.000
G1 X76.157 Y36.842 E94.70524
G1 X84.158 Y44.843 E95.46869 F900.000
G1 X84.158 Y76.157 E97.58162
G1 X76.157 Y84.158 E98.34507
G1 X44.843 Y84.158 E100.45800
G1 X36.842 Y76.157 E101.22145
G1 X36.842 Y44.843 E103.33438
G1 X40.864 Y40.820 E103.71818
G1 X41.285 Y41.157 F7800.000
G1 X45.064 Y37.377 E104.07881 F900.000
G1 X75.936 Y37.377 E106.16180
G1 X83.623 Y45.064 E106.89531
G1 X83.623 Y75.936 E108.97830 F900.000
G1 X75.936 Y83.623 E109.71181
G1 X45.064 Y83.623 E111.79480
G1 X37.377 Y75.936 E112.52832
G1 X37.377 Y45.064 E114.61130
G1 X41.243 Y41.199 E114.98013
G1 X41.664 Y41.535 F7800.000
G1 X45.286 Y37.913 E115.32580 F900.000
G1 X75.714 Y37.913 E117.37884
G1 X83.087 Y45.286 E118.08242 F900.000
G1 X83.087 Y75.714 E120.13546
G1 X75.714 Y83.087 E120.83904
G1 X45.286 Y83.087 E122.89209
G1 X37.913 Y75.714 E123.59566
G1 X37.913 Y45.286 E125.64871
G1 X41.621 Y41.578 E126.00257
G1 X42.043 Y41.914 F7800.000
G1 X45.508 Y38.449 E126.33327 F900.000
G1 X75.492 Y38.449 E128.35637
G1 X82.551 Y45.508 E129.03001
G1 X82.551 Y75.492 E131.05312 F900.000
G1 X75.492 Y82.551 E131.72675
G1 X45.508 Y82.551 E133.74986
G1 X38.449 Y75.492 E134.42350
G1 X38.449 Y45.508 E136.44660
G1 X42.000 Y41.957 E136.78550
G1 X42.421 Y42.293 F7800.000
G1 X45.730 Y38.984 E137.10122 F900.000
G1 X75.270 Y38.984 E139.09439
G1 X82.016 Y45.730 E139.73808 F900.000
G1 X82.016 Y75.270 E141.73125
G1 X75.270 Y82.016 E142.37495
G1 X45.730 Y82.016 E144.36811
G1 X38.984 Y75.270 E145.01181
G1 X38.984 Y45.730 E147.00498
G1 X42.379 Y42.335 E147.32890
G1 X42.800 Y42.672 F7800.000
G1 X45.952 Y39.520 E147.62966 F900.000
G1 X75.048 Y39.520 E149.59289
G1 X81.480 Y45.952 E150.20664
G1 X81.480 Y75.048 E152.16987 F900.000
G1 X75.048 Y81.480 E152.78363
G1 X45.952 Y81.480 E154.74686
G1 X39.520 Y75.048 E155.36061
G1 X39.520 Y45.952 E157.32384
G1 X42.758 Y42.714 E157.63280
G1 X43.179 Y43.050 F7800.000
G1 X46.174 Y40.055 E157.91858 F900.000
G1 X74.826 Y40.055 E159.85187
G1 X80.945 Y46.174 E160.43569 F900.000
G1 X80.945 Y74.826 E162.36897
G1 X74.826 Y80.945 E162.95279
G1 X46.174 Y80.945 E164.88608
G1 X40.055 Y74.826 E165.46990
G1 X40.055 Y46.174 E167.40319
G1 X43.136 Y43.093 E167.69717
G1 X43.558 Y43.429 F7800.000
G1 X46.396 Y40.591 E167.96799 F900.000
G1 X74.604 Y40.591 E169.87134
G1 X80.409 Y46.396 E170.42522
G1 X80.409 Y74.604 E172.32856 F900.000
G1 X74.604 Y80.409 E172.88244
G1 X46.396 Y80.409 E174.78579
G1 X40.591 Y74.604 E175.33967
G1 X40.591 Y46.396 E177.24302
G1 X43.515 Y43.472 E177.52204
G1 X43.936 Y43.808 F7800.000
G1 X46.617 Y41.127 E177.77788 F900.000
G1 X74.383 Y41.127 E179.65129
G1 X79.873 Y46.617 E180.17523 F900.000
G1 X79.873 Y74.383 E182.04864
G1 X74.383 Y79.873 E182.57258
G1 X46.617 Y79.873 E184.44599
G1 X41.127 Y74.383 E184.96993
G1 X41.127 Y46.617 E186.84334
G1 X43.894 Y43.850 E187.10738
G1 X44.315 Y44.187 F7800.000
G1 X46.839 Y41.662 E187.34826 F900.000
G1 X74.161 Y41.662 E189.19173
G1 X79.338 Y46.839 E189.68573
G1 X79.338 Y74.161 E191.52920 F900.000
G1 X74.161 Y79.338 E192.02320
G1 X46.839 Y79.338 E193.86667
G1 X41.662 Y74.161 E194.36067
G1 X41.662 Y46.839 E196.20414
G1 X44.273 Y44.229 E196.45321
G1 X44.694 Y44.565 F7800.000
G1 X47.061 Y42.198 E196.67912 F900.000
G1 X73.939 Y42.198 E198.49265
G1 X78.802 Y47.061 E198.95671 F900.000
G1 X78.802 Y73.939 E200.77024
G1 X73.939 Y78.802 E201.23430
G1 X47.061 Y78.802 E203.04783
G1 X42.198 Y73.939 E203.51189
G1 X42.198 Y47.061 E205.32542
G1 X44.651 Y44.608 E205.55953
G1 X45.072 Y44.944 F7800.000
G1 X47.283 Y42.734 E205.77047 F900.000
G1 X73.717 Y42.734 E207.55406
G1 X78.266 Y47.283 E207.98818
G1 X78.266 Y73.717 E209.77177 F900.000
G1 X73.717 Y78.266 E210.20589
G1 X47.283 Y78.266 E211.98948
G1 X42.734 Y73.717 E212.42360
G1 X42.734 Y47.283 E214.20719
G1 X45.030 Y44.987 E214.42633
G1 X45.451 Y45.323 F7800.000
G1 X47.505 Y43.269 E214.62230 F900.000
G1 X73.495 Y43.269 E216.37595
G1 X77.731 Y47.505 E216.78013 F900.000
G1 X77.731 Y73.495 E218.53378
G1 X73.495 Y77.731 E218.93796
G1 X47.505 Y77.731 E220.69161
G1 X43.269 Y73.495 E221.09580
G1 X43.269 Y47.505 E222.84945
G1 X45.409 Y45.365 E223.05362
G1 X45.830 Y45.702 F7800.000
G1 X47.727 Y43.805 E223.23461 F900.000
G1 X73.273 Y43.805 E224.95832
G1 X77.195 Y47.727 E225.33257
G1 X77.195 Y73.273 E227.05628 F900.000
G1 X73.273 Y77.195 E227.43052
G1 X47.727 Y77.195 E229.15423
G1 X43.805 Y73.273 E229.52848
G1 X43.805 Y47.727 E231.25219
G1 X45.788 Y45.744 E231.44139
G1 X46.209 Y46.080 F7800.000
G1 X47.949 Y44.340 E231.60741 F900.000
G1 X73.051 Y44.340 E233.30118
G1 X76.660 Y47.949 E233.64549 F900.000
G1 X76.660 Y73.051 E235.33926
G1 X73.051 Y76.660 E235.68356
G1 X47.949 Y76.660 E237.37734
G1 X44.340 Y73.051 E237.72164
G1 X44.340 Y47.949 E239.41541
G1 X46.166 Y46.123 E239.58964
G1 X46.587 Y46.459 F7800.000
G1 X48.170 Y44.876 E239.74070 F900.000
G1 X72.830 Y44.876 E241.40453
G1 X76.124 Y48.170 E241.71889
G1 X76.124 Y72.830 E243.38273 F900.000
G1 X72.830 Y76.124 E243.69709
G1 X48.170 Y76.124 E245.36092
G1 X44.876 Y72.830 E245.67529
G1 X44.876 Y48.170 E247.33912
G1 X46.545 Y46.501 E247.49838
G1 X46.966 Y46.838 F7800.000
G1 X48.392 Y45.412 E247.63447 F900.000
G1 X72.608 Y45.412 E249.26836
G1 X75.588 Y48.392 E249.55278 F900.000
G1 X75.588 Y72.608 E251.18668
G1 X72.608 Y75.588 E251.47110
G1 X48.392 Y75.588 E253.10500
G1 X45.412 Y72.608 E253.38942
G1 X45.412 Y48.392 E255.02332
G1 X46.924 Y46.880 E255.16760
G1 X47.345 Y47.217 F7800.000
G1 X48.614 Y45.947 E255.28872 F900.000
G1 X72.386 Y45.947 E256.89268
G1 X75.053 Y48.614 E257.14716
G1 X75.053 Y72.386 E258.75111 F900.000
G1 X72.386 Y75.053 E259.00560
G1 X48.614 Y75.053 E260.60955
G1 X45.947 Y72.386 E260.86404
G1 X45.947 Y48.614 E262.46799
G1 X47.302 Y47.259 E262.59731
G1 X47.724 Y47.595 F7800.000
G1 X48.836 Y46.483 E262.70346 F900.000
G1 X72.164 Y46.483 E264.27748
G1 X74.517 Y48.836 E264.50202 F900.000
G1 X74.517 Y72.164 E266.07604
G1 X72.164 Y74.517 E266.30058
G1 X48.836 Y74.517 E267.87460
G1 X46.483 Y72.164 E268.09914
G1 X46.483 Y48.836 E269.67316
G1 X47.681 Y47.638 E269.78751
G1 X48.102 Y47.974 F7800.000
G1 X49.058 Y47.018 E269.87868 F900.000
G1 X71.942 Y47.018 E271.42276
G1 X73.982 Y49.058 E271.61737
G1 X73.982 Y71.942 E273.16144 F900.000
G1 X71.942 Y73.982 E273.35605
G1 X49.058 Y73.982 E274.90012
G1 X47.018 Y71.942 E275.09473
G1 X47.018 Y49.058 E276.63880
G1 X48.060 Y48.016 E276.73818
G1 X48.481 Y48.353 F7800.000
G1 X49.280 Y47.554 E276.81439 F900.000
G1 X71.720 Y47.554 E278.32853
G1 X73.446 Y49.280 E278.49320 F900.000
G1 X73.446 Y71.720 E280.00733
G1 X71.720 Y73.446 E280.17200
G1 X49.280 Y73.446 E281.68613
G1 X47.554 Y71.720 E281.85080
G1 X47.554 Y49.280 E283.36494
G1 X48.439 Y48.395 E283.44935
G1 X48.860 Y48.731 F7800.000
G1 X49.502 Y48.090 E283.51059 F900.000
G1 X71.498 Y48.090 E284.99478
G1 X72.910 Y49.502 E285.12951
G1 X72.910 Y71.498 E286.61371 F900.000
G1 X71.498 Y72.910 E286.74843
G1 X49.502 Y72.910 E288.23263
G1 X48.090 Y71.498 E288.36736
G1 X48.090 Y49.502 E289.85155
G1 X48.817 Y48.774 E289.92099
G1 X49.239 Y49.110 F7800.000
G1 X49.723 Y48.625 E289.96726 F900.000
G1 X71.277 Y48.625 E291.42152
G1 X72.375 Y49.723 E291.52631 F900.000
G1 X72.375 Y71.277 E292.98057
G1 X71.277 Y72.375 E293.08535
G1 X49.723 Y72.375 E294.53961
G1 X48.625 Y71.277 E294.64440
G1 X48.625 Y49.723 E296.09866
G1 X49.196 Y49.153 E296.15313
G1 X49.617 Y49.489 F7800.000
G1 X49.945 Y49.161 E296.18443 F900.000
G1 X71.055 Y49.161 E297.60874
G1 X71.839 Y49.945 E297.68359
G1 X71.839 Y71.055 E299.10791 F900.000
G1 X71.055 Y71.839 E299.18276
G1 X49.945 Y71.839 E300.60708
G1 X49.161 Y71.055 E300.68193
G1 X49.161 Y49.945 E302.10624
G1 X49.575 Y49.531 E302.14574
G1 X49.996 Y49.868 F7800.000
G1 X50.167 Y49.697 E302.16207 F900.000
G1 X70.833 Y49.697 E303.55645
G1 X71.303 Y50.167 E303.60136 F900.000
G1 X71.303 Y70.833 E304.99574
G1 X70.833 Y71.303 E305.04065
G1 X50.167 Y71.303 E306.43503
G1 X49.697 Y70.833 E306.47994
G1 X49.697 Y50.167 E307.87431
G1 X49.954 Y49.910 E307.89885
G1 X50.389 Y50.232 F7800.000
G1 X70.611 Y50.232 E309.26328 F900.000
G1 X70.768 Y50.389 E309.27825
G1 X70.768 Y70.611 E310.64269
G1 X70.611 Y70.768 E310.65766
G1 X50.389 Y70.768 E312.02210
G1 X50.232 Y70.611 E312.03707
G1 X50.232 Y50.389 E313.40151
G1 X50.347 Y50.275 E313.41243
G1 E308.41243 F4800.00000
G92 E0
G1 X69.800 Y69.800 F7800.000
G1 E5.00000 F4800.00000
G1 X51.200 Y69.800 E6.25501 F900.000
G1 X51.200 Y51.200 E7.51001
G1 X69.800 Y51.200 E8.76502
G1 X69.800 Y69.740 E10.01598
G1 X69.800 Y70.200 F7800.000
G1 X70.200 Y70.200 F7800.000
G1 X50.800 Y70.200 E11.32496 F900.000
G1 X50.800 Y50.800 E12.63395
G1 X70.200 Y50.800 E13.94293
G1 X70.200 Y70.140 E15.24787
G1 X69.854 Y70.000 F7800.000
G1 E10.24787 F4800.00000
G92 E0
G1 Z0.300 F7800.000
M104 S215 ; set temperature
G1 Z0.500 F7800.000
G1 X69.700 Y69.700 F7800.000
G1 E5.00000 F4800.00000
G1 X51.300 Y69.700 E5.55178 F1800.000
G1 X51.300 Y51.300 E6.10357
G1 X69.700 Y51.300 E6.65535
G1 X69.700 Y69.640 E7.20533
G1 X69.700 Y70.100 F7800.000
G1 X70.300 Y70.300 F7800.000
G1 X50.700 Y70.300 E7.79310 F1800.000
G1 X50.700 Y50.700 E8.38087
G1 X70.300 Y50.700 E8.96864
G1 X70.300 Y70.240 E9.55461
G1 X69.954 Y70.100 F7800.000
G1 X69.991 Y69.991 F7800.000
G1 X51.009 Y69.991 E10.55622 F1200.000
G1 X51.009 Y51.009 E11.55782
G1 X69.991 Y51.009 E12.55943
G1 X70.000 Y69.932 E13.55792
G1 E8.55792 F4800.00000
G92 E0
G1 Z0.700 F7800.000
G1 X69.700 Y69.700 F7800.000
G1 E5.00000 F4800.00000
G1 X51.300 Y69.700 E5.55178 F1800.000
G1 X51.300 Y51.300 E6.10357
G1 X69.700 Y51.300 E6.65535
G1 X69.700 Y69.640 E7.20533
G1 X69.700 Y70.100 F7800.000
G1 X70.300 Y70.300 F7800.000
G1 X50.700 Y70.300 E7.79310 F1800.000
G1 X50.700 Y50.700 E8.38087
G1 X70.300 Y50.700 E8.96864
G1 X70.300 Y70.240 E9.55461
G1 X69.954 Y70.100 F7800.000
G1 X69.991 Y69.991 F7800.000
G1 X51.009 Y69.991 E10.55622 F1200.000
G1 X51.009 Y51.009 E11.55782
G1 X69.991 Y51.009 E12.55943
G1 X70.000 Y69.932 E13.55792
M106 S206.55
G1 E8.55792 F4800.00000
G92 E0
G1 Z0.900 F7800.000
G1 X69.700 Y69.700 F7800.000
G1 E5.00000 F4800.00000
G1 X51.300 Y69.700 E5.55178 F1800.000
G1 X51.300 Y51.300 E6.10357
G1 X69.700 Y51.300 E6.65535
G1 X69.700 Y69.640 E7.20533
G1 X69.700 Y70.100 F7800.000
G1 X70.300 Y70.300 F7800.000
G1 X50.700 Y70.300 E7.79310 F1800.000
G1 X50.700 Y50.700 E8.38087
G1 X70.300 Y50.700 E8.96864
G1 X70.300 Y70.240 E9.55461
G1 X69.954 Y70.100 F7800.000
G1 X69.991 Y69.991 F7800.000
G1 X51.009 Y69.991 E10.55622 F1200.000
G1 X51.009 Y51.009 E11.55782
G1 X69.991 Y51.009 E12.55943
G1 X70.000 Y69.932 E13.55792
G1 E8.55792 F4800.00000
G92 E0
G1 Z1.100 F7800.000
G1 X69.700 Y69.700 F7800.000
G1 E5.00000 F4800.00000
G1 X51.300 Y69.700 E5.55178 F1800.000
G1 X51.300 Y51.300 E6.10357
G1 X69.700 Y51.300 E6.65535
G1 X69.700 Y69.640 E7.20533
G1 X69.700 Y70.100 F7800.000
G1 X70.300 Y70.300 F7800.000
G1 X50.700 Y70.300 E7.79310 F1800.000
G1 X50.700 Y50.700 E8.38087
G1 X70.300 Y50.700 E8.96864
G1 X70.300 Y70.240 E9.55461
G1 X69.954 Y70.100 F7800.000
G1 X69.991 Y69.991 F7800.000
G1 X51.009 Y69.991 E10.55622 F1200.000
G1 X51.009 Y51.009 E11.55782
G1 X69.991 Y51.009 E12.55943
G1 X70.000 Y69.932 E13.55792
G1 E8.55792 F4800.00000
G92 E0
G1 Z1.300 F7800.000
G1 X69.700 Y69.700 F7800.000
G1 E5.00000 F4800.00000
G1 X51.300 Y69.700 E5.55178 F1800.000
G1 X51.300 Y51.300 E6.10357
G1 X69.700 Y51.300 E6.65535
G1 X69.700 Y69.640 E7.20533
G1 X69.700 Y70.100 F7800.000
G1 X70.300 Y70.300 F7800.000
G1 X50.700 Y70.300 E7.79310 F1800.000
G1 X50.700 Y50.700 E8.38087
G1 X70.300 Y50.700 E8.96864
G1 X70.300 Y70.240 E9.55461
G1 X69.954 Y70.100 F7800.000
G1 X69.991 Y69.991 F7800.000
G1 X51.009 Y69.991 E10.55622 F1200.000
G1 X51.009 Y51.009 E11.55782
G1 X69.991 Y51.009 E12.55943
G1 X70.000 Y69.932 E13.55792
G1 E8.55792 F4800.00000
G92 E0
G1 Z1.500 F7800.000
G1 X69.700 Y69.700 F7800.000
G1 E5.00000 F4800.00000
G1 X51.300 Y69.700 E5.55178 F1800.000
G1 X51.300 Y51.300 E6.10357
G1 X69.700 Y51.300 E6.65535
G1 X69.700 Y69.640 E7.20533
G1 X69.700 Y70.100 F7800.000
G1 X70.300 Y70.300 F7800.000
G1 X50.700 Y70.300 E7.79310 F1800.000
G1 X50.700 Y50.700 E8.38087
G1 X70.300 Y50.700 E8.96864
G1 X70.300 Y70.240 E9.55461
G1 X69.954 Y70.100 F7800.000
