;FLAVOR:Marlin
;TIME:284
;Filament used: 0.136359m
;Layer height: 0.175
;Generated with Cura_SteamEngine 3.3.1
M190 S65
M104 S205
M109 S205
M82 ;absolute extrusion mode
G21;(metric values)
G90;(absolute positioning)
M82;(set extruder to absolute mode)
M107;(start with the fan off)
G28;(Home the printer)
G92 E0;(Reset the extruder to 0)
G0 Z5 E5 F500;(Move up and prime the nozzle)
G0 X-1 Z0;(Move outside the printable area)
G1 Y60 E8 F500;(Draw a priming/wiping line to the rear)
G1 X-1;(Move a little closer to the print area)
G1 Y10 E16 F500;(draw more priming/wiping)
G1 E15 F250;(Small retract)
G92 E0;(Zero the extruder)
G92 E0
G1 F2400 E-2.5
;LAYER_COUNT:40
;LAYER:0
M107
G0 F4320 X52.35 Y54.223 Z0.262
;TYPE:SKIRT
G1 F2400 E0
G1 F1800 X52.755 Y53.847 E0.02107
G1 X53.248 Y53.444 E0.04534
G1 X53.876 Y53.059 E0.07343
G1 X54.852 Y52.554 E0.11532
G1 X55.435 Y52.297 E0.13961
G1 X56.045 Y52.115 E0.16388
G1 X56.582 Y52.022 E0.18466
G1 X57.671 Y51.892 E0.22647
G1 X58.307 Y51.856 E0.25076
G1 X58.943 Y51.9 E0.27506
G1 X59.481 Y52.002 E0.29594
G1 X60.55 Y52.264 E0.3379
G1 X61.134 Y52.447 E0.36123
G1 X61.161 Y52.436 E0.36234
G1 X61.777 Y52.274 E0.38663
G1 X62.279 Y52.201 E0.40597
G1 X62.628 Y52.168 E0.41933
G1 X63.265 Y52.147 E0.44363
G1 X63.899 Y52.207 E0.46791
G1 X64.52 Y52.346 E0.49217
G1 X65.12 Y52.562 E0.51648
G1 X65.556 Y52.775 E0.53498
G1 X66.211 Y53.136 E0.5635
G1 X66.748 Y53.478 E0.58777
G1 X67.287 Y53.931 E0.61461
G1 X67.874 Y54.498 E0.64572
G1 X68.303 Y54.968 E0.66998
G1 X68.605 Y55.385 E0.68961
G1 X68.901 Y55.841 E0.71034
G1 X69.213 Y56.396 E0.73461
G1 X69.49 Y57.096 E0.76331
G1 X69.812 Y58.131 E0.80464
G1 X69.963 Y58.75 E0.82893
G1 X70.035 Y59.383 E0.85322
G1 X70.031 Y59.956 E0.87506
G1 X69.963 Y61.041 E0.91651
G1 X69.883 Y61.673 E0.9408
G1 X69.725 Y62.29 E0.96508
G1 X69.521 Y62.817 E0.98662
G1 X69.075 Y63.802 E1.02785
G1 X68.777 Y64.365 E1.05213
G1 X68.41 Y64.886 E1.07643
G1 X68.034 Y65.305 E1.09789
G1 X67.264 Y66.072 E1.13932
G1 X66.785 Y66.492 E1.16361
G1 X66.258 Y66.849 E1.18788
G1 X65.743 Y67.114 E1.20996
G1 X64.755 Y67.553 E1.25118
G1 X64.158 Y67.774 E1.27545
G1 X63.438 Y67.935 E1.30358
G1 X62.898 Y68.015 E1.32439
G1 X62.263 Y68.069 E1.34868
G1 X61.558 Y68.035 E1.37559
G1 X60.153 Y67.869 E1.42953
G1 X60.063 Y67.879 E1.43298
G1 X59.14 Y68.057 E1.46882
G1 X58.509 Y68.138 E1.49307
G1 X57.872 Y68.14 E1.51736
G1 X57.419 Y68.092 E1.53473
G1 X56.335 Y67.928 E1.57652
G1 X55.712 Y67.793 E1.60083
G1 X55.112 Y67.582 E1.62507
G1 X54.622 Y67.342 E1.64588
G1 X53.661 Y66.806 E1.68783
G1 X53.125 Y66.462 E1.71211
G1 X52.637 Y66.053 E1.73638
G1 X52.259 Y65.652 E1.75739
G1 X51.55 Y64.814 E1.79924
G1 X51.17 Y64.303 E1.82352
G1 X50.822 Y63.676 E1.85086
G1 X50.589 Y63.175 E1.87192
G1 X50.358 Y62.582 E1.89619
G1 X50.183 Y61.86 E1.92451
G1 X50.005 Y60.779 E1.96628
G1 X49.942 Y60.145 E1.99057
G1 X49.958 Y59.508 E2.01486
G1 X50.033 Y58.975 E2.03538
G1 X50.245 Y57.897 E2.07726
G1 X50.407 Y57.281 E2.10155
G1 X50.645 Y56.69 E2.12584
G1 X50.91 Y56.205 E2.14691
G1 X51.488 Y55.271 E2.18878
G1 X51.856 Y54.752 E2.21304
G1 X51.874 Y54.732 E2.21406
G0 F1620 X52.35 Y54.223
G0 F4320 X52.588 Y54.479
G1 F2400 E2.24064
G1 F1800 X52.993 Y54.103 E2.26171
G1 X53.47 Y53.715 E2.28515
G1 X54.037 Y53.369 E2.31047
G1 X55.013 Y52.864 E2.35237
G1 X55.576 Y52.618 E2.37579
G1 X56.166 Y52.447 E2.39921
G1 X56.624 Y52.369 E2.41692
G1 X57.713 Y52.239 E2.45873
G1 X58.327 Y52.206 E2.48218
G1 X58.939 Y52.253 E2.50558
G1 X59.398 Y52.342 E2.5234
G1 X60.467 Y52.604 E2.56536
G1 X61.053 Y52.789 E2.58879
G1 X61.133 Y52.826 E2.59215
G1 X61.374 Y52.735 E2.60197
G1 X61.972 Y52.594 E2.6254
G1 X62.312 Y52.549 E2.63847
G1 X62.661 Y52.516 E2.65184
G1 X63.275 Y52.498 E2.67525
G1 X63.887 Y52.56 E2.69871
G1 X64.485 Y52.701 E2.72213
G1 X65.06 Y52.918 E2.74556
G1 X65.387 Y53.082 E2.75951
G1 X66.042 Y53.443 E2.78802
G1 X66.559 Y53.774 E2.81142
G1 X67.044 Y54.183 E2.83561
G1 X67.631 Y54.75 E2.86673
G1 X68.044 Y55.204 E2.89012
G1 X68.311 Y55.575 E2.90755
G1 X68.607 Y56.031 E2.92828
G1 X68.908 Y56.567 E2.95171
G1 X69.156 Y57.2 E2.97763
G1 X69.478 Y58.235 E3.01896
G1 X69.622 Y58.833 E3.04241
G1 X69.687 Y59.444 E3.06583
G1 X69.682 Y59.935 E3.08455
G1 X69.614 Y61.02 E3.126
G1 X69.536 Y61.629 E3.14941
G1 X69.379 Y62.223 E3.17283
G1 X69.202 Y62.673 E3.19126
G1 X68.756 Y63.658 E3.23249
G1 X68.467 Y64.2 E3.2559
G1 X68.11 Y64.7 E3.27933
G1 X67.787 Y65.057 E3.29768
G1 X67.017 Y65.824 E3.33912
G1 X66.554 Y66.228 E3.36254
G1 X66.043 Y66.569 E3.38596
G1 X65.601 Y66.794 E3.40487
G1 X64.613 Y67.233 E3.44609
G1 X64.036 Y67.445 E3.46953
G1 X63.386 Y67.589 E3.49491
G1 X62.846 Y67.669 E3.51572
G1 X62.234 Y67.719 E3.53913
G1 X61.599 Y67.687 E3.56337
G1 X60.156 Y67.516 E3.61877
G1 X60.008 Y67.533 E3.62445
G1 X59.074 Y67.713 E3.66071
G1 X58.464 Y67.79 E3.68415
G1 X57.85 Y67.788 E3.70756
G1 X57.471 Y67.746 E3.7221
G1 X56.387 Y67.582 E3.76389
G1 X55.787 Y67.451 E3.78731
G1 X55.209 Y67.243 E3.81073
G1 X54.792 Y67.037 E3.82846
G1 X53.831 Y66.501 E3.87041
G1 X53.315 Y66.167 E3.89384
G1 X52.847 Y65.769 E3.91727
G1 X52.526 Y65.426 E3.93518
G1 X51.817 Y64.588 E3.97702
G1 X51.451 Y64.094 E4.00046
G1 X51.14 Y63.529 E4.02505
G1 X50.907 Y63.028 E4.04612
G1 X50.684 Y62.455 E4.06956
G1 X50.529 Y61.803 E4.09511
G1 X50.351 Y60.722 E4.13688
G1 X50.291 Y60.11 E4.16032
G1 X50.31 Y59.496 E4.18374
G1 X50.377 Y59.042 E4.20124
G1 X50.589 Y57.964 E4.24312
G1 X50.746 Y57.37 E4.26654
G1 X50.98 Y56.802 E4.28996
G1 X51.207 Y56.39 E4.3079
G1 X51.785 Y55.456 E4.34977
G1 X52.116 Y54.991 E4.37153
G0 F1620 X52.142 Y54.955
G0 X52.588 Y54.479
G0 F4320 X52.826 Y54.736
G1 F2400 E4.39811
G1 F1800 X53.231 Y54.36 E4.41918
G1 X53.691 Y53.988 E4.44173
G1 X54.197 Y53.68 E4.46431
G1 X55.173 Y53.175 E4.50621
G1 X55.716 Y52.94 E4.52877
G1 X56.285 Y52.779 E4.55131
G1 X56.665 Y52.717 E4.56599
G1 X57.754 Y52.587 E4.6078
G1 X58.345 Y52.557 E4.63036
G1 X58.934 Y52.606 E4.65289
G1 X59.314 Y52.682 E4.66767
G1 X60.383 Y52.944 E4.70963
G1 X60.947 Y53.123 E4.73219
G1 X61.116 Y53.203 E4.73932
G1 X61.583 Y53.038 E4.7582
G1 X62.345 Y52.897 E4.78774
G1 X62.694 Y52.864 E4.80111
G1 X63.285 Y52.849 E4.82365
G1 X63.873 Y52.913 E4.8462
G1 X64.447 Y53.056 E4.86875
G1 X65.218 Y53.388 E4.90075
G1 X65.873 Y53.749 E4.92927
G1 X66.37 Y54.069 E4.9518
G1 X66.801 Y54.434 E4.97333
G1 X67.388 Y55.001 E5.00445
G1 X67.784 Y55.44 E5.02699
G1 X68.018 Y55.766 E5.04229
G1 X68.314 Y56.222 E5.06301
G1 X68.601 Y56.739 E5.08556
G1 X68.821 Y57.304 E5.10867
G1 X69.143 Y58.339 E5.15
G1 X69.281 Y58.914 E5.17254
G1 X69.339 Y59.503 E5.1951
G1 X69.332 Y59.913 E5.21074
G1 X69.264 Y60.998 E5.25218
G1 X69.188 Y61.584 E5.27471
G1 X69.033 Y62.154 E5.29723
G1 X68.883 Y62.529 E5.31263
G1 X68.437 Y63.514 E5.35385
G1 X68.158 Y64.035 E5.37638
G1 X67.81 Y64.513 E5.39893
G1 X67.54 Y64.809 E5.4142
G1 X66.77 Y65.576 E5.45563
G1 X66.323 Y65.964 E5.4782
G1 X65.829 Y66.288 E5.50072
G1 X65.458 Y66.474 E5.51655
G1 X64.47 Y66.913 E5.55776
G1 X63.915 Y67.116 E5.58029
G1 X63.335 Y67.243 E5.60293
G1 X62.795 Y67.323 E5.62374
G1 X62.206 Y67.37 E5.64627
G1 X61.641 Y67.34 E5.66784
G1 X60.155 Y67.164 E5.72489
G1 X59.963 Y67.185 E5.73225
G1 X59.007 Y67.37 E5.76937
G1 X58.421 Y67.442 E5.79188
G1 X57.829 Y67.435 E5.81445
G1 X57.524 Y67.4 E5.82616
G1 X56.44 Y67.236 E5.86796
G1 X55.862 Y67.108 E5.89053
G1 X55.307 Y66.904 E5.91307
G1 X54.963 Y66.731 E5.92775
G1 X54.002 Y66.195 E5.9697
G1 X53.506 Y65.873 E5.99225
G1 X53.058 Y65.486 E6.01482
G1 X52.793 Y65.2 E6.02968
G1 X52.084 Y64.362 E6.07153
G1 X51.734 Y63.886 E6.09405
G1 X51.457 Y63.381 E6.11601
G1 X51.224 Y62.88 E6.13708
G1 X51.011 Y62.328 E6.15963
G1 X50.874 Y61.746 E6.18243
G1 X50.696 Y60.665 E6.2242
G1 X50.64 Y60.076 E6.24675
G1 X50.663 Y59.485 E6.2693
G1 X50.72 Y59.11 E6.28376
G1 X50.932 Y58.032 E6.32565
G1 X51.085 Y57.461 E6.34819
G1 X51.314 Y56.915 E6.37076
G1 X51.505 Y56.574 E6.38566
G1 X52.083 Y55.64 E6.42753
G1 X52.36 Y55.253 E6.44568
G0 F1620 X52.427 Y55.159
G0 X52.826 Y54.736
G0 F4320 X53.064 Y54.992
G1 F2400 E6.47225
G1 F1800 X53.469 Y54.616 E6.49332
G1 X53.911 Y54.261 E6.51493
G1 X54.358 Y53.991 E6.53484
G1 X55.334 Y53.486 E6.57674
G1 X55.855 Y53.262 E6.59836
G1 X56.402 Y53.113 E6.61997
G1 X56.707 Y53.064 E6.63175
G1 X57.796 Y52.934 E6.67356
G1 X58.362 Y52.907 E6.69516
G1 X58.927 Y52.959 E6.7168
G1 X59.231 Y53.022 E6.72863
G1 X60.3 Y53.284 E6.77059
G1 X60.84 Y53.457 E6.79221
G1 X61.111 Y53.589 E6.8037
G1 X61.25 Y53.521 E6.8096
G1 X61.789 Y53.346 E6.83121
G1 X62.378 Y53.246 E6.85398
G1 X62.727 Y53.213 E6.86735
G1 X63.294 Y53.199 E6.88897
G1 X63.857 Y53.266 E6.91059
G1 X64.406 Y53.411 E6.93224
G1 X65.049 Y53.695 E6.95903
G1 X65.704 Y54.056 E6.98755
G1 X66.18 Y54.364 E7.00916
G1 X66.557 Y54.686 E7.02806
G1 X67.144 Y55.253 E7.05918
G1 X67.523 Y55.675 E7.0808
G1 X67.724 Y55.957 E7.09401
G1 X68.02 Y56.413 E7.11473
G1 X68.295 Y56.909 E7.13635
G1 X68.487 Y57.408 E7.15674
G1 X68.809 Y58.443 E7.19806
G1 X68.939 Y58.995 E7.21968
G1 X68.99 Y59.56 E7.24131
G1 X68.983 Y59.891 E7.25393
G1 X68.915 Y60.976 E7.29538
G1 X68.84 Y61.538 E7.31699
G1 X68.686 Y62.084 E7.33862
G1 X68.565 Y62.384 E7.35095
G1 X68.119 Y63.369 E7.39218
G1 X67.849 Y63.868 E7.41381
G1 X67.512 Y64.324 E7.43542
G1 X67.293 Y64.561 E7.44773
G1 X66.523 Y65.328 E7.48916
G1 X66.094 Y65.699 E7.51078
G1 X65.617 Y66.006 E7.53241
G1 X65.316 Y66.154 E7.5452
G1 X64.328 Y66.593 E7.58642
G1 X63.795 Y66.786 E7.60803
G1 X63.284 Y66.897 E7.62796
G1 X62.744 Y66.977 E7.64878
G1 X62.178 Y67.02 E7.67042
G1 X61.682 Y66.992 E7.68936
G1 X60.157 Y66.812 E7.7479
G1 X59.91 Y66.839 E7.75737
G1 X58.941 Y67.026 E7.795
G1 X58.378 Y67.094 E7.81662
G1 X57.576 Y67.054 E7.84723
G1 X56.492 Y66.89 E7.88903
G1 X55.939 Y66.766 E7.91063
G1 X55.408 Y66.565 E7.93228
G1 X55.133 Y66.425 E7.94404
G1 X54.172 Y65.889 E7.98599
G1 X53.698 Y65.579 E8.00759
G1 X53.272 Y65.205 E8.0292
G1 X53.06 Y64.974 E8.04115
G1 X52.351 Y64.136 E8.083
G1 X52.016 Y63.678 E8.10464
G1 X51.774 Y63.233 E8.12395
G1 X51.541 Y62.732 E8.14501
G1 X51.339 Y62.203 E8.1666
G1 X51.219 Y61.689 E8.18672
G1 X51.041 Y60.608 E8.22849
G1 X50.989 Y60.043 E8.25012
G1 X51.016 Y59.477 E8.27172
G1 X51.064 Y59.177 E8.28331
G1 X51.276 Y58.099 E8.32519
G1 X51.424 Y57.552 E8.3468
G1 X51.648 Y57.031 E8.36842
G1 X51.802 Y56.758 E8.38037
G1 X52.38 Y55.824 E8.42224
G1 X52.604 Y55.514 E8.43682
G0 F1620 X52.712 Y55.364
G0 X53.064 Y54.992
G0 F4320 X53.303 Y55.249
G1 F2400 E8.4634
G1 F1800 X53.708 Y54.873 E8.48446
G1 X54.131 Y54.534 E8.50513
G1 X54.519 Y54.302 E8.52237
G1 X55.495 Y53.797 E8.56426
G1 X55.993 Y53.584 E8.58491
G1 X56.748 Y53.412 E8.61443
G1 X57.837 Y53.282 E8.65625
G1 X58.379 Y53.258 E8.67693
G1 X59.148 Y53.362 E8.70651
G1 X60.217 Y53.624 E8.74847
G1 X60.732 Y53.791 E8.76912
G1 X61.092 Y53.985 E8.78471
G1 X61.471 Y53.81 E8.80062
G1 X61.991 Y53.659 E8.82126
G1 X62.411 Y53.594 E8.83747
G1 X62.76 Y53.561 E8.85083
G1 X63.302 Y53.55 E8.8715
G1 X63.839 Y53.619 E8.89214
G1 X64.361 Y53.766 E8.91282
G1 X64.88 Y54.001 E8.93454
G1 X65.535 Y54.362 E8.96305
G1 X65.989 Y54.658 E8.98371
G1 X66.314 Y54.938 E9.00007
G1 X66.901 Y55.505 E9.03118
G1 X67.262 Y55.909 E9.05184
G1 X67.431 Y56.147 E9.06296
G1 X67.727 Y56.603 E9.08369
G1 X67.987 Y57.078 E9.10434
G1 X68.153 Y57.512 E9.12205
G1 X68.475 Y58.547 E9.16337
G1 X68.597 Y59.075 E9.18403
G1 X68.634 Y59.869 E9.21434
G1 X68.566 Y60.954 E9.25578
G1 X68.492 Y61.491 E9.27645
G1 X68.246 Y62.24 E9.30651
G1 X67.8 Y63.225 E9.34773
G1 X67.541 Y63.701 E9.36839
G1 X67.046 Y64.313 E9.3984
G1 X66.276 Y65.08 E9.43983
G1 X65.865 Y65.433 E9.46049
G1 X65.174 Y65.834 E9.49095
G1 X64.186 Y66.273 E9.53216
G1 X63.676 Y66.456 E9.55282
G1 X63.233 Y66.55 E9.57009
G1 X62.693 Y66.63 E9.5909
G1 X62.152 Y66.67 E9.61158
G1 X61.723 Y66.645 E9.62796
G1 X60.156 Y66.46 E9.68812
G1 X59.855 Y66.493 E9.69966
G1 X58.875 Y66.682 E9.73771
G1 X58.337 Y66.746 E9.75837
G1 X57.628 Y66.708 E9.78544
G1 X56.544 Y66.544 E9.82724
G1 X56.016 Y66.423 E9.84789
G1 X55.304 Y66.12 E9.87739
G1 X54.343 Y65.584 E9.91934
G1 X53.89 Y65.285 E9.94003
G1 X53.327 Y64.748 E9.96969
G1 X52.618 Y63.91 E10.01154
G1 X52.3 Y63.471 E10.03221
G1 X52.092 Y63.086 E10.04889
G1 X51.859 Y62.585 E10.06996
G1 X51.667 Y62.078 E10.09063
G1 X51.565 Y61.632 E10.10807
G1 X51.387 Y60.551 E10.14984
G1 X51.338 Y60.011 E10.17051
G1 X51.407 Y59.245 E10.19983
G1 X51.619 Y58.167 E10.24171
G1 X51.763 Y57.644 E10.2624
G1 X52.1 Y56.942 E10.29208
G1 X52.678 Y56.008 E10.33396
G1 X52.848 Y55.774 E10.34498
G0 F1620 X52.996 Y55.57
G0 X53.303 Y55.249
G0 F4320 X53.541 Y55.505
G1 F2400 E10.37156
G1 F1800 X53.946 Y55.129 E10.39263
G1 X54.349 Y54.809 E10.41224
G1 X54.68 Y54.613 E10.42691
G1 X55.656 Y54.108 E10.46881
G1 X56.131 Y53.907 E10.48847
G1 X56.79 Y53.759 E10.51422
G1 X57.879 Y53.629 E10.55603
G1 X58.394 Y53.608 E10.57568
G1 X59.064 Y53.702 E10.60148
G1 X60.133 Y53.964 E10.64344
G1 X60.623 Y54.125 E10.6631
G1 X61.095 Y54.382 E10.68359
G1 X61.214 Y54.307 E10.68895
G1 X61.688 Y54.104 E10.70861
G1 X62.188 Y53.977 E10.72828
G1 X62.444 Y53.943 E10.73812
G1 X62.793 Y53.91 E10.75149
G1 X63.308 Y53.901 E10.77113
G1 X63.819 Y53.972 E10.79079
G1 X64.312 Y54.121 E10.81043
G1 X64.711 Y54.308 E10.82723
G1 X65.366 Y54.669 E10.85574
G1 X65.797 Y54.952 E10.8754
G1 X66.071 Y55.189 E10.88921
G1 X66.658 Y55.756 E10.92032
G1 X67.137 Y56.338 E10.94906
G1 X67.433 Y56.794 E10.96979
G1 X67.679 Y57.246 E10.98941
G1 X67.819 Y57.616 E11.00449
G1 X68.141 Y58.651 E11.04581
G1 X68.255 Y59.154 E11.06548
G1 X68.284 Y59.847 E11.09192
G1 X68.216 Y60.932 E11.13337
G1 X68.144 Y61.442 E11.153
G1 X67.927 Y62.095 E11.17924
G1 X67.481 Y63.08 E11.22046
G1 X67.233 Y63.532 E11.24011
G1 X66.799 Y64.065 E11.26632
G1 X66.029 Y64.832 E11.30775
G1 X65.636 Y65.166 E11.32742
G1 X65.032 Y65.515 E11.35401
G1 X64.044 Y65.954 E11.39523
G1 X63.558 Y66.126 E11.41488
G1 X63.181 Y66.204 E11.42956
G1 X62.641 Y66.284 E11.45037
G1 X62.127 Y66.32 E11.47002
G1 X61.764 Y66.297 E11.48388
G1 X60.159 Y66.107 E11.5455
G1 X59.81 Y66.146 E11.55889
G1 X58.808 Y66.339 E11.59779
G1 X58.296 Y66.397 E11.61744
G1 X57.681 Y66.362 E11.64092
G1 X56.597 Y66.198 E11.68272
G1 X56.095 Y66.081 E11.70237
G1 X55.474 Y65.814 E11.72814
G1 X54.513 Y65.278 E11.77009
G1 X54.084 Y64.993 E11.78973
G1 X53.595 Y64.522 E11.81561
G1 X52.886 Y63.684 E11.85746
G1 X52.584 Y63.266 E11.87712
G1 X52.409 Y62.938 E11.89129
G1 X52.176 Y62.437 E11.91236
G1 X51.996 Y61.954 E11.93201
G1 X51.91 Y61.575 E11.94683
G1 X51.732 Y60.494 E11.98859
G1 X51.688 Y59.981 E12.00822
G1 X51.75 Y59.312 E12.03384
G1 X51.962 Y58.234 E12.07572
G1 X52.101 Y57.738 E12.09536
G1 X52.398 Y57.126 E12.1213
G1 X52.976 Y56.192 E12.16317
G1 X53.091 Y56.035 E12.17059
G0 F1620 X53.28 Y55.776
G0 X53.541 Y55.505
G0 F4320 X53.779 Y55.762
G1 F2400 E12.19716
G1 F1800 X54.184 Y55.386 E12.21823
G1 X54.567 Y55.084 E12.23683
G1 X54.841 Y54.924 E12.24892
G1 X55.817 Y54.419 E12.29082
G1 X56.267 Y54.231 E12.30941
G1 X56.831 Y54.107 E12.33143
G1 X57.92 Y53.977 E12.37324
G1 X58.407 Y53.959 E12.39182
G1 X58.981 Y54.042 E12.41393
G1 X60.05 Y54.304 E12.45589
G1 X60.513 Y54.458 E12.47449
G1 X61.022 Y54.737 E12.49662
G1 X61.099 Y54.79 E12.50019
G1 X61.448 Y54.582 E12.51568
G1 X61.901 Y54.404 E12.53423
G1 X62.477 Y54.291 E12.55661
G1 X62.826 Y54.258 E12.56998
G1 X63.313 Y54.252 E12.58854
G1 X63.795 Y54.326 E12.60713
G1 X64.259 Y54.477 E12.62574
G1 X64.542 Y54.615 E12.63774
G1 X65.197 Y54.976 E12.66625
G1 X65.603 Y55.245 E12.68482
G1 X65.828 Y55.441 E12.6962
G1 X66.415 Y56.008 E12.72731
G1 X66.843 Y56.528 E12.75299
G1 X67.139 Y56.984 E12.77371
G1 X67.37 Y57.413 E12.79229
G1 X67.485 Y57.72 E12.80479
G1 X67.807 Y58.755 E12.84611
G1 X67.913 Y59.231 E12.8647
G1 X67.935 Y59.825 E12.88737
G1 X67.867 Y60.91 E12.92881
G1 X67.797 Y61.392 E12.94738
G1 X67.608 Y61.951 E12.96988
G1 X67.162 Y62.936 E13.0111
G1 X66.925 Y63.362 E13.02969
G1 X66.552 Y63.817 E13.05212
G1 X65.782 Y64.584 E13.09355
G1 X65.409 Y64.898 E13.11214
G1 X64.89 Y65.195 E13.13494
G1 X63.902 Y65.634 E13.17615
G1 X63.442 Y65.794 E13.19472
G1 X63.13 Y65.858 E13.20686
G1 X62.59 Y65.938 E13.22768
G1 X62.104 Y65.97 E13.24625
G1 X61.805 Y65.949 E13.25767
G1 X60.162 Y65.755 E13.32075
G1 X59.755 Y65.799 E13.33635
G1 X58.742 Y65.995 E13.37569
