;FLAVOR:Marlin
;TIME:2659
;Filament used: 1.19603m
;Layer height: 0.12
;Generated with Cura_SteamEngine 3.6.0
M140 S60
M105
M190 S60
M104 S205
M105
M109 S205
M82 ;absolute extrusion mode
; Ender 3 Custom Start G-code
G28 ; Home all axes
G92 E0 ; Reset Extruder
G1 Z2.0 F3000 ; Move Z Axis up little to prevent scratching of Heat Bed
G1 X0.1 Y20 Z0.3 F5000.0 ; Move to start position
G1 X0.1 Y200.0 Z0.3 F1500.0 E15 ; Draw the first line
G1 X0.4 Y200.0 Z0.3 F5000.0 ; Move to side a little
G1 X0.4 Y20 Z0.3 F1500.0 E30 ; Draw the second line
G92 E0 ; Reset Extruder
G1 Z2.0 F3000 ; Move Z Axis up little to prevent scratching of Heat Bed
; End of custom start GCode
G92 E0
G1 F1500 E-6
;LAYER_COUNT:216
;LAYER:-6
M107
G0 F7200 X96.677 Y87.705 Z0.144
;TYPE:SUPPORT-INTERFACE
G1 F1500 E0
G1 F1125 X97.302 Y87.056 E0.04315
G1 X97.427 Y86.936 E0.05145
G1 X98.098 Y86.333 E0.09466
G1 X98.926 Y85.687 E0.14496
G1 X99.085 Y85.574 E0.1543
G1 X99.823 Y85.084 E0.19673
G1 X100.743 Y84.562 E0.24739
G1 X100.893 Y84.484 E0.25549
G1 X101.708 Y84.101 E0.29862
G1 X102.71 Y83.712 E0.3501
G1 X102.86 Y83.66 E0.3577
G1 X103.71 Y83.405 E0.4002
G1 X103.883 Y83.358 E0.40879
G1 X104.778 Y83.158 E0.45271
G1 X105.813 Y83.001 E0.50285
G1 X105.982 Y82.983 E0.51099
G1 X107.055 Y82.908 E0.56251
G1 X107.56 Y82.9 E0.5867
G1 X127.503 Y82.901 E1.54186
G1 X128.627 Y82.946 E1.59574
G1 X129.719 Y83.073 E1.64839
G1 X130.731 Y83.265 E1.69772
G1 X131.625 Y83.499 E1.74198
G1 X132.63 Y83.835 E1.79274
G1 X132.796 Y83.898 E1.80124
G1 X133.599 Y84.239 E1.84302
G1 X133.788 Y84.327 E1.85301
G1 X134.582 Y84.736 E1.89579
G1 X134.699 Y84.801 E1.9022
G1 X135.478 Y85.276 E1.94589
G1 X135.629 Y85.376 E1.95457
G1 X136.491 Y86 E2.00554
G1 X137.182 Y86.576 E2.04862
G1 X137.295 Y86.677 E2.05588
G1 X137.944 Y87.302 E2.09903
G1 X138.064 Y87.427 E2.10733
G1 X138.667 Y88.098 E2.15054
G1 X139.322 Y88.938 E2.20156
G1 X139.416 Y89.069 E2.20928
G1 X139.916 Y89.823 E2.25261
G1 X140.438 Y90.743 E2.30327
G1 X140.516 Y90.893 E2.31137
G1 X140.899 Y91.708 E2.3545
G1 X141.288 Y92.71 E2.40598
G1 X141.34 Y92.86 E2.41358
G1 X141.595 Y93.71 E2.45609
G1 X141.642 Y93.883 E2.46467
G1 X141.84 Y94.769 E2.50815
G1 X141.998 Y95.807 E2.55844
G1 X142.016 Y95.969 E2.56625
G1 X142.092 Y97.055 E2.61839
G1 X142.1 Y97.556 E2.64239
G1 X142.1 Y137.486 E4.55482
G1 X142.054 Y138.627 E4.60951
G1 X141.927 Y139.719 E4.66216
G1 X141.735 Y140.731 E4.7115
G1 X141.504 Y141.616 E4.7553
G1 X141.452 Y141.788 E4.76391
G1 X141.176 Y142.6 E4.80499
G1 X141.096 Y142.809 E4.8157
G1 X140.68 Y143.774 E4.86603
G1 X140.199 Y144.699 E4.91597
G1 X139.724 Y145.478 E4.95967
G1 X139.624 Y145.629 E4.96834
G1 X139 Y146.491 E5.01931
G1 X138.424 Y147.182 E5.06239
G1 X138.323 Y147.295 E5.06965
G1 X137.698 Y147.944 E5.11281
G1 X137.573 Y148.064 E5.1211
G1 X136.903 Y148.666 E5.16424
G1 X136.074 Y149.313 E5.21461
G1 X135.915 Y149.426 E5.22395
G1 X135.177 Y149.916 E5.26638
G1 X134.257 Y150.438 E5.31704
G1 X134.106 Y150.516 E5.32518
G1 X133.292 Y150.899 E5.36827
G1 X132.29 Y151.288 E5.41975
G1 X132.14 Y151.34 E5.42735
G1 X131.29 Y151.595 E5.46985
G1 X131.117 Y151.642 E5.47844
G1 X130.222 Y151.842 E5.52236
G1 X129.187 Y151.999 E5.5725
G1 X129.019 Y152.017 E5.58059
G1 X127.945 Y152.092 E5.63216
G1 X127.44 Y152.1 E5.65635
G1 X107.497 Y152.099 E6.61151
G1 X106.373 Y152.054 E6.66539
G1 X105.281 Y151.927 E6.71804
G1 X104.269 Y151.735 E6.76737
G1 X103.375 Y151.501 E6.81163
G1 X102.37 Y151.165 E6.86239
G1 X102.204 Y151.102 E6.87089
G1 X101.401 Y150.761 E6.91267
G1 X101.212 Y150.673 E6.92266
G1 X100.418 Y150.264 E6.96544
G1 X100.301 Y150.199 E6.97185
G1 X99.522 Y149.724 E7.01555
G1 X99.371 Y149.624 E7.02422
G1 X98.509 Y149 E7.07519
G1 X97.818 Y148.424 E7.11827
G1 X97.705 Y148.323 E7.12553
G1 X97.056 Y147.698 E7.16869
G1 X96.936 Y147.573 E7.17698
G1 X96.333 Y146.902 E7.22019
G1 X95.678 Y146.062 E7.27121
G1 X95.081 Y145.172 E7.32254
G1 X94.556 Y144.246 E7.37352
G1 X94.484 Y144.107 E7.38102
G1 X94.087 Y143.261 E7.42577
G1 X93.712 Y142.29 E7.47563
G1 X93.655 Y142.125 E7.48399
G1 X93.405 Y141.29 E7.52573
G1 X93.358 Y141.117 E7.53432
G1 X93.157 Y140.216 E7.57853
G1 X93 Y139.178 E7.62881
G1 X92.983 Y139.018 E7.63652
G1 X92.908 Y137.945 E7.68804
G1 X92.9 Y137.444 E7.71204
G1 X92.9 Y97.514 E9.62447
G1 X92.946 Y96.373 E9.67916
G1 X93.073 Y95.281 E9.73181
G1 X93.265 Y94.269 E9.78115
G1 X93.496 Y93.384 E9.82495
G1 X93.548 Y93.212 E9.83356
G1 X93.834 Y92.37 E9.87615
G1 X93.898 Y92.204 E9.88467
G1 X94.239 Y91.401 E9.92645
G1 X94.32 Y91.226 E9.93569
G1 X94.736 Y90.418 E9.97922
G1 X94.801 Y90.301 E9.98563
G1 X95.276 Y89.522 E10.02933
G1 X95.376 Y89.371 E10.038
G1 X96 Y88.509 E10.08897
G1 X96.318 Y88.128 E10.11274
G0 F1012.5 X96.576 Y87.818
G0 X96.677 Y87.705
G1 F1500 E4.11274
G0 F7200 X96 Y88.509
G1 F1500 E10.13932
G1 F1125 X96 Y146.474 E12.91553
G1 F1500 E6.91553
G0 F7200 X97.6 Y148.221
G1 F1500 E12.91553
G1 F1125 X97.6 Y86.78 E15.85822
G1 F1500 E9.85822
G0 F7200 X99.2 Y85.497
G1 F1500 E15.85822
G1 F1125 X99.2 Y149.5 E18.92362
G1 F1500 E12.92362
G0 F7200 X100.8 Y150.46
G1 F1500 E18.92362
G1 F1125 X100.8 Y84.532 E22.08121
G1 F1500 E16.08121
G0 F7200 X102.4 Y83.832
G1 F1500 E22.08121
G1 F1125 X102.4 Y151.175 E25.30658
G1 F1500 E19.30658
G0 F7200 X104 Y151.664
G1 F1500 E25.30658
G1 F1125 X104 Y83.331 E28.57936
G1 F1500 E22.57936
G0 F7200 X105.6 Y83.033
G1 F1500 E28.57936
G1 F1125 X105.6 Y151.964 E31.88078
G1 F1500 E25.88078
G0 F7200 X107.2 Y152.087
G1 F1500 E31.88078
G1 F1125 X107.2 Y82.905 E35.19422
G1 F1500 E29.19422
G0 F7200 X108.8 Y82.901
G1 F1500 E35.19422
G1 F1125 X108.8 Y152.099 E38.50843
G1 F1500 E32.50843
G0 F7200 X110.4 Y152.099
G1 F1500 E38.50843
G1 F1125 X110.4 Y82.901 E41.82264
G1 F1500 E35.82264
G0 F7200 X112 Y82.901
G1 F1500 E41.82264
G1 F1125 X112 Y152.099 E45.13685
G1 F1500 E39.13685
G0 F7200 X113.6 Y152.099
G1 F1500 E45.13685
G1 F1125 X113.6 Y82.901 E48.45106
G1 F1500 E42.45106
G0 F7200 X115.2 Y82.901
G1 F1500 E48.45106
G1 F1125 X115.2 Y152.099 E51.76528
G1 F1500 E45.76528
G0 F7200 X116.8 Y152.099
G1 F1500 E51.76528
G1 F1125 X116.8 Y82.901 E55.07949
G1 F1500 E49.07949
G0 F7200 X118.4 Y82.901
G1 F1500 E55.07949
G1 F1125 X118.4 Y152.099 E58.3937
G1 F1500 E52.3937
G0 F7200 X120 Y152.099
G1 F1500 E58.3937
G1 F1125 X120 Y82.901 E61.70791
G1 F1500 E55.70791
G0 F7200 X121.6 Y82.901
G1 F1500 E61.70791
G1 F1125 X121.6 Y152.099 E65.02212
G1 F1500 E59.02212
G0 F7200 X123.2 Y152.099
G1 F1500 E65.02212
G1 F1125 X123.2 Y82.901 E68.33633
G1 F1500 E62.33633
G0 F7200 X124.8 Y82.901
G1 F1500 E68.33633
G1 F1125 X124.8 Y152.099 E71.65054
G1 F1500 E65.65054
G0 F7200 X126.4 Y152.099
G1 F1500 E71.65054
G1 F1125 X126.4 Y82.901 E74.96475
G1 F1500 E68.96475
G0 F7200 X128 Y82.921
G1 F1500 E74.96475
G1 F1125 X128 Y152.089 E78.27752
G1 F1500 E72.27752
G0 F7200 X129.6 Y151.937
G1 F1500 E78.27752
G1 F1125 X129.6 Y83.06 E81.57636
G1 F1500 E75.57636
G0 F7200 X131.2 Y83.388
G1 F1500 E81.57636
G1 F1125 X131.2 Y151.62 E84.8443
G1 F1500 E78.8443
G0 F7200 X132.8 Y151.091
G1 F1500 E84.8443
G1 F1125 X132.8 Y83.9 E88.06239
G1 F1500 E82.06239
G0 F7200 X134.4 Y84.643
G1 F1500 E88.06239
G1 F1125 X134.4 Y150.357 E91.20973
G1 F1500 E85.20973
G0 F7200 X136 Y149.366
G1 F1500 E91.20973
G1 F1125 X136 Y85.645 E94.26162
G1 F1500 E88.26162
G0 F7200 X137.6 Y86.971
G1 F1500 E94.26162
G1 F1125 X137.6 Y148.039 E97.18645
G1 F1500 E91.18645
G0 F7200 X139.2 Y146.215
G1 F1500 E97.18645
G1 F1125 X139.2 Y88.782 E99.93718
G1 F1500 E93.93718
G0 F7200 X140.8 Y91.498
G1 F1500 E99.93718
G1 F1125 X140.8 Y143.496 E102.4276
G1 F1500 E96.4276
G0 F7200 X94.4 Y143.927
G1 F1500 E102.4276
G1 F1125 X94.4 Y91.07 E104.95917
G1 F1500 E98.95917
G0 F7200 X133.863 Y84.366
;TIME_ELAPSED:137.168735
;LAYER:-5
M140 S60
G0 X133.863 Y84.366 Z0.324
;TYPE:SUPPORT
G1 F1500 E104.95917
G1 F1125 X133.787 Y84.326 E104.96431
G1 X133.597 Y84.239 E104.97682
G1 X132.795 Y83.897 E105.02902
G1 X132.629 Y83.834 E105.03965
G1 X131.624 Y83.498 E105.10309
G1 X131.567 Y83.483 E105.10662
G1 X141.509 Y93.425 E105.94837
G1 X141.593 Y93.71 E105.96616
G1 X141.641 Y93.883 E105.97691
G1 X141.839 Y94.768 E106.0312
G1 X141.911 Y95.242 E106.0599
G1 X129.747 Y83.078 E107.08979
G1 X129.718 Y83.073 E107.09155
G1 X128.626 Y82.945 E107.15737
G1 X128.183 Y82.928 E107.18391
G1 X142.074 Y96.819 E108.36002
G1 X142.09 Y97.055 E108.37418
G1 X142.099 Y97.555 E108.40412
G1 X142.099 Y98.258 E108.4462
G1 X126.741 Y82.901 E109.74647
G1 X125.327 Y82.901 E109.83112
G1 X142.099 Y99.673 E111.25115
G1 X142.099 Y101.087 E111.3358
G1 X123.913 Y82.901 E112.87555
G1 X122.499 Y82.901 E112.9602
G1 X142.099 Y102.501 E114.61966
G1 X142.099 Y103.915 E114.70432
G1 X121.084 Y82.901 E116.48354
G1 X119.67 Y82.901 E116.56819
G1 X142.099 Y105.329 E118.46714
G1 X142.099 Y106.744 E118.55185
G1 X118.256 Y82.901 E120.57055
G1 X116.841 Y82.9 E120.65527
G1 X142.099 Y108.158 E122.79377
G1 X142.099 Y109.572 E122.87843
G1 X115.427 Y82.9 E125.13665
G1 X114.013 Y82.9 E125.2213
G1 X142.099 Y110.986 E127.59925
G1 X142.099 Y112.4 E127.6839
G1 X112.598 Y82.9 E130.1816
G1 X111.184 Y82.9 E130.26626
G1 X142.099 Y113.815 E132.88372
G1 X142.099 Y115.229 E132.96838
G1 X109.77 Y82.9 E135.70556
G1 X108.356 Y82.9 E135.79021
G1 X142.099 Y116.643 E138.64711
G1 X142.099 Y118.057 E138.73177
G1 X106.956 Y82.915 E141.70716
G1 X105.981 Y82.983 E141.76567
G1 X105.812 Y83 E141.77584
G1 X105.653 Y83.025 E141.78548
G1 X142.099 Y119.472 E144.87127
G1 X142.099 Y120.886 E144.95593
G1 X104.445 Y83.232 E148.14396
G1 X103.882 Y83.357 E148.17849
G1 X103.709 Y83.405 E148.18924
G1 X103.321 Y83.522 E148.2135
G1 X142.099 Y122.3 E151.49669
G1 X142.099 Y123.714 E151.58135
G1 X102.268 Y83.883 E154.9537
G1 X101.707 Y84.1 E154.98971
G1 X101.275 Y84.304 E155.01831
G1 X142.099 Y125.128 E158.47474
G1 X142.099 Y126.543 E158.55945
G1 X100.344 Y84.787 E162.09474
G1 X99.822 Y85.083 E162.13067
G1 X99.464 Y85.322 E162.15644
G1 X142.099 Y127.957 E165.76619
G1 X142.099 Y129.371 E165.85085
G1 X98.639 Y85.911 E169.53045
G1 X98.097 Y86.332 E169.57154
G1 X97.86 Y86.547 E169.5907
G1 X142.099 Y130.785 E173.33621
G1 X142.099 Y132.199 E173.42087
G1 X97.131 Y87.231 E177.22815
G1 X96.676 Y87.704 E177.26744
G1 X96.575 Y87.818 E177.27656
G1 X96.451 Y87.966 E177.28812
G1 X142.099 Y133.614 E181.15298
G1 X142.099 Y135.028 E181.23763
G1 X95.822 Y88.751 E185.15574
G1 X95.375 Y89.37 E185.20145
G1 X95.274 Y89.521 E185.21233
G1 X95.238 Y89.581 E185.21652
G1 X142.099 Y136.442 E189.18407
G1 X142.099 Y137.486 E189.24657
G1 X142.085 Y137.842 E189.2679
G1 X94.709 Y90.466 E193.27906
G1 X94.318 Y91.225 E193.33018
G1 X94.235 Y91.406 E193.3421
G1 X141.991 Y139.162 E197.38543
G1 X141.926 Y139.718 E197.41895
G1 X141.799 Y140.385 E197.45959
G1 X93.821 Y92.406 E201.52177
G1 X93.547 Y93.212 E201.57273
G1 X93.495 Y93.384 E201.58349
G1 X93.472 Y93.472 E201.58893
G1 X141.527 Y141.527 E205.65758
G1 X141.504 Y141.615 E205.66303
G1 X141.451 Y141.786 E205.67375
G1 X141.178 Y142.593 E205.72475
G1 X93.199 Y94.613 E209.787
G1 X93.072 Y95.28 E209.82765
G1 X93.007 Y95.836 E209.86117
G1 X140.76 Y143.588 E213.9042
G1 X140.68 Y143.773 E213.91627
G1 X140.287 Y144.529 E213.96728
G1 X92.913 Y97.156 E217.97823
G1 X92.9 Y97.513 E217.99962
G1 X92.899 Y98.556 E218.06206
G1 X139.761 Y145.417 E222.02966
G1 X139.724 Y145.477 E222.03388
G1 X139.623 Y145.628 E222.04475
G1 X139.176 Y146.247 E222.09046
G1 X92.899 Y99.97 E226.00857
G1 X92.899 Y101.384 E226.09323
G1 X138.547 Y147.032 E229.95808
G1 X138.423 Y147.18 E229.96964
G1 X138.322 Y147.294 E229.97876
G1 X137.868 Y147.767 E230.01801
G1 X92.899 Y102.799 E233.82534
G1 X92.899 Y104.213 E233.90999
G1 X137.138 Y148.452 E237.65555
G1 X136.902 Y148.664 E237.67454
G1 X136.36 Y149.088 E237.71574
G1 X92.899 Y105.627 E241.39543
G1 X92.899 Y107.041 E241.48008
G1 X135.534 Y149.676 E245.08984
G1 X135.176 Y149.915 E245.11561
G1 X134.655 Y150.211 E245.15148
G1 X92.899 Y108.456 E248.68678
G1 X92.899 Y109.87 E248.77143
G1 X133.724 Y150.695 E252.22794
G1 X133.291 Y150.898 E252.25657
G1 X132.731 Y151.115 E252.29252
G1 X92.899 Y111.284 E255.66492
G1 X92.899 Y112.698 E255.74957
G1 X131.678 Y151.477 E259.03285
G1 X131.289 Y151.593 E259.05715
G1 X131.116 Y151.641 E259.0679
G1 X130.553 Y151.767 E259.10244
G1 X92.899 Y114.112 E262.29052
G1 X92.899 Y115.527 E262.37523
G1 X129.346 Y151.973 E265.46103
G1 X129.186 Y151.998 E265.47072
G1 X129.018 Y152.016 E265.48084
G1 X128.042 Y152.084 E265.53941
G1 X92.899 Y116.941 E268.51484
G1 X92.899 Y118.355 E268.5995
G1 X126.642 Y152.098 E271.4564
G1 X125.228 Y152.098 E271.54105
G1 X92.899 Y119.769 E274.27824
G1 X92.899 Y121.183 E274.36289
G1 X123.814 Y152.098 E276.98035
G1 X122.4 Y152.098 E277.06501
G1 X92.899 Y122.598 E279.56271
G1 X92.899 Y124.012 E279.64736
G1 X120.985 Y152.098 E282.02531
G1 X119.571 Y152.098 E282.10996
G1 X92.899 Y125.426 E284.36819
G1 X92.899 Y126.84 E284.45284
G1 X118.157 Y152.098 E286.59135
G1 X116.743 Y152.098 E286.676
G1 X92.899 Y128.255 E288.69474
G1 X92.899 Y129.669 E288.7794
G1 X115.329 Y152.098 E290.67842
G1 X113.914 Y152.098 E290.76314
G1 X92.899 Y131.083 E292.5424
G1 X92.899 Y132.497 E292.62706
G1 X112.5 Y152.098 E294.28661
G1 X111.086 Y152.098 E294.37126
G1 X92.899 Y133.911 E295.91109
G1 X92.899 Y135.326 E295.9958
G1 X109.672 Y152.098 E297.41587
G1 X108.258 Y152.098 E297.50052
G1 X92.899 Y136.74 E298.80087
G1 X92.899 Y137.443 E298.84296
G1 X92.908 Y137.943 E298.8729
G1 X92.924 Y138.179 E298.88706
G1 X106.816 Y152.071 E300.06325
G1 X106.372 Y152.053 E300.08985
G1 X105.281 Y151.926 E300.15561
G1 X105.251 Y151.92 E300.15744
G1 X93.087 Y139.756 E301.18732
G1 X93.157 Y140.215 E301.21512
G1 X93.357 Y141.115 E301.27032
G1 X93.405 Y141.289 E301.28112
G1 X93.49 Y141.573 E301.29887
G1 X103.432 Y151.515 E302.14063
G1 X103.374 Y151.5 E302.14421
G1 X102.369 Y151.164 E302.20765
G1 X102.203 Y151.101 E302.21828
G1 X101.401 Y150.76 E302.27046
G1 X101.211 Y150.672 E302.28299
G1 X101.135 Y150.632 E302.28814
G1 X100.417 Y150.263 E302.33646
G1 X100.3 Y150.198 E302.34448
G1 X99.521 Y149.723 E302.3991
G1 X99.371 Y149.623 E302.40989
G1 X98.509 Y148.999 E302.4736
G1 X97.818 Y148.423 E302.52746
G1 X97.705 Y148.322 E302.53653
G1 X97.056 Y147.697 E302.59048
G1 X96.935 Y147.571 E302.60093
G1 X96.333 Y146.901 E302.65486
G1 X95.677 Y146.06 E302.71871
G1 X95.081 Y145.171 E302.78279
G1 X94.555 Y144.245 E302.84655
G1 X94.484 Y144.106 E302.85589
G0 F7200 X94.373 Y143.87
G1 F1125 X101.135 Y150.632 E303.42841
G1 F1500 E297.42841
G0 F7200 X140.625 Y91.128
G1 F1500 E303.42841
G1 F1125 X133.863 Y84.366 E304.00092
G1 X134.581 Y84.736 E304.04928
G1 X134.698 Y84.8 E304.05726
G1 X135.477 Y85.275 E304.11189
G1 X135.628 Y85.376 E304.12276
G1 X136.489 Y85.999 E304.18639
G1 X137.18 Y86.576 E304.24028
G1 X137.294 Y86.677 E304.2494
G1 X137.943 Y87.301 E304.3033
G1 X138.063 Y87.427 E304.31372
G1 X138.666 Y88.098 E304.36773
G1 X139.321 Y88.938 E304.4315
G1 X139.415 Y89.069 E304.44115
G1 X139.915 Y89.823 E304.49532
G1 X140.437 Y90.743 E304.55864
G1 X140.514 Y90.892 E304.56868
G1 F1500 E298.56868
G0 F7200 X105.813 Y82.8
;TIME_ELAPSED:316.724177
;LAYER:-4
G0 X105.813 Y82.8 Z0.444
;TYPE:SUPPORT-INTERFACE
G1 F1500 E304.56868
G1 X105.786 Y82.803 E304.56923
G1 X104.886 Y82.936 E304.58738
G1 X104.733 Y82.964 E304.59049
G1 X103.824 Y83.167 E304.60907
G1 X103.7 Y83.2 E304.61163
G1 X131.279 Y83.2 E305.162
G1 X131.673 Y83.303 E305.17013
G1 X132.562 Y83.6 E305.18883
G1 X102.443 Y83.6 E305.78989
G1 X101.78 Y83.853 E305.80405
G1 X101.638 Y83.913 E305.80713
G1 X101.453 Y84 E305.81121
G1 X133.551 Y84 E306.45176
G1 X133.69 Y84.059 E306.45477
G1 X133.865 Y84.141 E306.45863
G1 X134.362 Y84.4 E306.46981
G1 X100.623 Y84.4 E307.14311
G1 X99.919 Y84.8 E307.15927
G1 X135.083 Y84.8 E307.86101
G1 X135.575 Y85.1 E307.87251
G1 X135.726 Y85.2 E307.87612
G1 X99.289 Y85.2 E308.60326
G1 X98.964 Y85.415 E308.61104
G1 X98.81 Y85.524 E308.6148
G1 X98.712 Y85.6 E308.61728
G1 X136.281 Y85.6 E309.36701
G1 X136.606 Y85.835 E309.37501
G1 X136.803 Y86 E309.38014
G1 X98.194 Y86 E310.15062
G1 X98.092 Y86.078 E310.15318
G1 X97.965 Y86.184 E310.15649
G1 X97.725 Y86.4 E310.16293
G1 X137.278 Y86.4 E310.95225
G1 X137.423 Y86.522 E310.95603
G1 X137.712 Y86.8 E310.96404
G1 X97.28 Y86.8 E311.7709
