;FLAVOR:Marlin
;TIME:4096
;Filament used: 1.74309m
;Layer height: 0.2

;POSTPROCESSED
;ChangeAtZ instances: 1
;Generated with Cura_SteamEngine 3.6.0
M140 S60
M105
M190 S60
M104 S190
M105
M109 S190
M82 ;absolute extrusion mode
; Ender 3 Custom Start G-code
G28 ; Home all axes
G92 E0 ; Reset Extruder
G1 Z2.0 F3000 ; Move Z Axis up little to prevent scratching of Heat Bed
G1 X0.1 Y20 Z0.3 F5000.0 ; Move to start position
G1 X0.1 Y200.0 Z0.3 F1500.0 E15 ; Draw the first line
G1 X0.4 Y200.0 Z0.3 F5000.0 ; Move to side a little
G1 X0.4 Y20 Z0.3 F1500.0 E30 ; Draw the second line
G92 E0 ; Reset Extruder
G1 Z2.0 F3000 ; Move Z Axis up little to prevent scratching of Heat Bed
; End of custom start GCode
G92 E0
G1 F1500 E-6
;LAYER_COUNT:411

;LAYER:-6
M107
G0 F7200 X99.33 Y105.743 Z0.24
;TYPE:SUPPORT-INTERFACE
G1 F1500 E0
G1 F1125 X100.256 Y104.922 E0.09879
G1 X101.476 Y103.92 E0.22481
G1 X102.725 Y103.055 E0.34608
G1 X102.714 Y103.038 E0.3477
G1 X103.316 Y102.56 E0.40906
G1 X104.555 Y101.658 E0.5314
G1 X104.915 Y101.422 E0.56576
G1 X105.757 Y100.913 E0.6443
G1 X106.58 Y100.484 E0.71838
G1 X106.839 Y100.363 E0.7412
G1 X108.351 Y99.746 E0.87156
G1 X108.571 Y99.672 E0.89008
G1 X109.703 Y99.331 E0.98446
G1 X110.591 Y99.102 E1.05766
G1 X111.529 Y98.894 E1.13435
G1 X111.672 Y98.868 E1.14596
G1 X112.721 Y98.718 E1.23054
G1 X113.287 Y98.673 E1.27587
G1 X114.532 Y98.602 E1.37541
G1 X115.487 Y98.586 E1.45165
G1 X116.405 Y98.623 E1.52499
G1 X117.043 Y98.67 E1.57606
G1 X118.214 Y98.805 E1.67015
G1 X119.393 Y99.021 E1.76583
G1 X120.127 Y99.187 E1.8259
G1 X121.187 Y99.466 E1.91339
G1 X122.211 Y99.791 E1.99915
G1 X123.038 Y100.111 E2.06994
G1 X123.403 Y100.27 E2.10172
G1 X124.546 Y100.822 E2.20304
G1 X125.003 Y101.066 E2.24439
G1 X125.887 Y101.581 E2.32606
G1 X126.035 Y101.675 E2.34006
G1 X126.901 Y102.273 E2.42406
G1 X127.287 Y102.565 E2.4627
G1 X128.019 Y103.155 E2.53775
G1 X128.82 Y103.897 E2.6249
G1 X129.148 Y104.226 E2.66199
G1 X129.903 Y105.047 E2.75102
G1 X130.361 Y105.608 E2.80883
G1 X130.536 Y105.834 E2.83165
G1 X131.061 Y106.557 E2.90297
G1 X131.415 Y107.076 E2.95312
G1 X131.697 Y107.454 E2.99077
G1 X131.862 Y107.654 E3.01146
G1 X132.602 Y108.634 E3.10949
G1 X133.075 Y109.36 E3.17865
G1 X133.177 Y109.533 E3.19469
G1 X133.858 Y110.816 E3.31063
G1 X133.946 Y111.003 E3.32713
G1 X134.366 Y111.98 E3.41202
G1 X134.422 Y112.127 E3.42458
G1 X134.712 Y112.972 E3.49589
G1 X134.764 Y113.142 E3.51008
G1 X134.992 Y114.01 E3.58172
G1 X135.03 Y114.178 E3.59547
G1 X135.191 Y115.043 E3.6657
G1 X135.219 Y115.232 E3.68095
G1 X135.317 Y116.115 E3.75187
G1 X135.33 Y116.286 E3.76556
G1 X135.368 Y117.312 E3.84752
G1 X135.368 Y117.69 E3.87769
G1 X135.335 Y118.65 E3.95437
G1 X135.323 Y118.821 E3.96805
G1 X135.227 Y119.715 E4.03982
G1 X135.044 Y120.752 E4.12388
G1 X135.003 Y120.939 E4.13916
G1 X134.744 Y121.932 E4.22108
G1 X134.596 Y122.394 E4.2598
G1 X134.539 Y122.564 E4.27412
G1 X134.159 Y123.567 E4.35973
G1 X134.093 Y123.723 E4.37325
G1 X133.638 Y124.682 E4.45799
G1 X133.215 Y125.443 E4.52749
G1 X133.096 Y125.641 E4.54593
G1 X132.593 Y126.424 E4.62021
G1 X132.497 Y126.562 E4.63363
G1 X131.967 Y127.268 E4.7041
G1 X131.839 Y127.425 E4.72027
G1 X131.714 Y127.564 E4.73519
G1 X131.292 Y128.104 E4.7899
G1 X131.061 Y128.442 E4.82258
G1 X130.469 Y129.25 E4.90254
G1 X130.288 Y129.479 E4.92584
G1 X129.576 Y130.318 E5.01367
G1 X129.158 Y130.755 E5.06195
G1 X128.784 Y131.13 E5.10422
G1 X128.042 Y131.82 E5.18511
G1 X127.27 Y132.451 E5.2647
G1 X127.052 Y132.618 E5.28662
G1 X126.201 Y133.215 E5.3696
G1 X126.044 Y133.317 E5.38454
G1 X125.237 Y133.799 E5.45957
G1 X124.867 Y134.002 E5.49326
G1 X123.856 Y134.51 E5.58358
G1 X123.379 Y134.72 E5.62518
G1 X122.66 Y135.014 E5.68719
G1 X121.319 Y135.491 E5.8008
G1 X121.049 Y135.57 E5.82326
G1 X119.729 Y135.901 E5.93189
G1 X118.857 Y136.079 E6.00293
G1 X117.934 Y136.236 E6.07767
G1 X117.77 Y136.258 E6.09088
G1 X116.896 Y136.344 E6.16098
G1 X116.197 Y136.387 E6.21688
G1 X114.956 Y136.416 E6.31597
G1 X114.039 Y136.372 E6.38926
G1 X112.77 Y136.288 E6.49077
G1 X112.618 Y136.272 E6.50297
G1 X111.593 Y136.12 E6.58569
G1 X110.875 Y135.97 E6.64424
G1 X109.21 Y135.519 E6.78194
G1 X108.255 Y135.214 E6.86196
G1 X108.071 Y135.148 E6.87757
G1 X107.12 Y134.762 E6.95949
G1 X106.586 Y134.511 E7.0066
G1 X106.218 Y134.325 E7.03951
G1 X105.248 Y133.792 E7.12786
G1 X104.353 Y133.209 E7.21312
G1 X103.829 Y132.825 E7.26498
G1 X103.261 Y132.389 E7.32214
G1 X102.943 Y132.122 E7.35528
G1 X102.383 Y131.708 E7.41087
G1 X102.224 Y131.607 E7.42591
G1 X101.348 Y130.994 E7.51126
G1 X100.544 Y130.343 E7.59383
G1 X99.722 Y129.624 E7.68101
G1 X99.041 Y128.985 E7.75555
G1 X98.926 Y128.869 E7.76859
G1 X98.328 Y128.219 E7.8391
G1 X98.202 Y128.072 E7.85455
G1 X97.438 Y127.091 E7.9538
G1 X97.128 Y126.654 E7.99657
G1 X96.607 Y125.864 E8.07211
G1 X96.514 Y125.711 E8.08641
G1 X96.089 Y124.955 E8.15564
G1 X95.989 Y124.76 E8.17313
G1 X95.64 Y124.013 E8.23894
G1 X95.557 Y123.815 E8.25608
G1 X94.987 Y122.295 E8.38567
G1 X94.93 Y122.12 E8.40036
G1 X94.694 Y121.303 E8.46824
G1 X94.642 Y121.088 E8.4859
G1 X94.378 Y119.742 E8.59539
G1 X94.263 Y118.722 E8.67732
G1 X94.251 Y118.556 E8.69061
G1 X94.214 Y117.566 E8.76969
G1 X94.245 Y116.429 E8.86049
G1 X94.349 Y115.387 E8.94408
G1 X94.377 Y115.195 E8.95956
G1 X94.632 Y113.87 E9.06727
G1 X95.071 Y112.338 E9.19448
G1 X95.125 Y112.179 E9.20789
G1 X95.485 Y111.236 E9.28846
G1 X95.92 Y110.294 E9.37129
G1 X96.019 Y110.104 E9.38839
G1 X96.764 Y108.83 E9.5062
G1 X96.945 Y108.558 E9.53228
G1 X97.479 Y107.806 E9.6059
G1 X97.603 Y107.644 E9.62218
G1 X98.359 Y106.741 E9.71619
G1 X98.546 Y106.538 E9.73822
G1 X99.094 Y105.976 E9.80088
G0 F1012.5 X99.201 Y105.866
G0 X99.33 Y105.743
G0 F7200 X99.2 Y105.867
G1 F1500 E9.82738
G1 F1125 X99.2 Y129.134 E11.68466
G1 F1500 E5.68466
G0 F7200 X100.8 Y130.55
G1 F1500 E11.68466
G1 F1125 X100.8 Y104.475 E13.76608
G1 F1500 E7.76608
G0 F7200 X102.4 Y103.28
G1 F1500 E13.76608
G1 F1125 X102.4 Y131.72 E16.03628
G1 F1500 E10.03628
G0 F7200 X104 Y132.95
G1 F1500 E16.03628
G1 F1125 X104 Y102.062 E18.50189
G1 F1500 E12.50189
G0 F7200 X105.6 Y101.007
G1 F1500 E18.50189
G1 F1125 X105.6 Y133.985 E21.13434
G1 F1500 E15.13434
G0 F7200 X107.2 Y134.794
G1 F1500 E21.13434
G1 F1125 X107.2 Y100.215 E23.89459
G1 F1500 E17.89459
G0 F7200 X108.8 Y99.603
G1 F1500 E23.89459
G1 F1125 X108.8 Y135.388 E26.7511
G1 F1500 E20.7511
G0 F7200 X110.4 Y135.841
G1 F1500 E26.7511
G1 F1125 X110.4 Y99.151 E29.67985
G1 F1500 E23.67985
G0 F7200 X112 Y98.821
G1 F1500 E29.67985
G1 F1125 X112 Y136.18 E32.66201
G1 F1500 E26.66201
G0 F7200 X113.6 Y136.342
G1 F1500 E32.66201
G1 F1125 X113.6 Y98.655 E35.67035
G1 F1500 E29.67035
G0 F7200 X115.2 Y98.59
G1 F1500 E35.67035
G1 F1125 X115.2 Y136.411 E38.68939
G1 F1500 E32.68939
G0 F7200 X116.8 Y136.35
G1 F1500 E38.68939
G1 F1125 X116.8 Y98.653 E41.69852
G1 F1500 E35.69852
G0 F7200 X118.4 Y98.84
G1 F1500 E41.69852
G1 F1125 X118.4 Y136.157 E44.67733
G1 F1500 E38.67733
G0 F7200 X120 Y135.834
G1 F1500 E44.67733
G1 F1125 X120 Y99.159 E47.60488
G1 F1500 E41.60488
G0 F7200 X121.6 Y99.598
G1 F1500 E47.60488
G1 F1125 X121.6 Y135.392 E50.46212
G1 F1500 E44.46212
G0 F7200 X123.2 Y134.794
G1 F1500 E50.46212
G1 F1125 X123.2 Y100.182 E53.225
G1 F1500 E47.225
G0 F7200 X124.8 Y100.958
G1 F1500 E53.225
G1 F1125 X124.8 Y134.036 E55.86542
G1 F1500 E49.86542
G0 F7200 X126.4 Y133.076
G1 F1500 E55.86542
G1 F1125 X126.4 Y101.928 E58.35179
G1 F1500 E52.35179
G0 F7200 X128 Y103.14
G1 F1500 E58.35179
G1 F1125 X128 Y131.855 E60.64395
G1 F1500 E54.64395
G0 F7200 X129.6 Y130.29
G1 F1500 E60.64395
G1 F1125 X129.6 Y104.718 E62.68522
G1 F1500 E56.68522
G0 F7200 X131.2 Y106.761
G1 F1500 E62.68522
G1 F1125 X131.2 Y128.239 E64.39968
G1 F1500 E58.39968
G0 F7200 X132.8 Y126.102
G1 F1500 E64.39968
G1 F1125 X132.8 Y108.938 E65.76979
G1 F1500 E59.76979
G0 F7200 X134.4 Y112.07
G1 F1500 E65.76979
G1 F1125 X134.4 Y122.931 E66.63676
G1 F1500 E60.63676
G0 F7200 X97.6 Y127.299
G1 F1500 E66.63676
G1 F1125 X97.6 Y107.647 E68.20547
G1 F1500 E62.20547
G0 F7200 X96 Y110.14
G1 F1500 E68.20547
G1 F1125 X96 Y124.781 E69.37417
G1 F1500 E63.37417
G0 F7200 X94.4 Y119.854
G1 F1500 E69.37417
G1 F1125 X94.4 Y115.075 E69.75566
G1 F1500 E63.75566
G0 F7200 X97.601 Y127.299
;TIME_ELAPSED:64.891471

;LAYER:-5
M140 S50
G0 X97.601 Y127.299 Z0.54
;TYPE:SUPPORT
G1 F1500 E69.75566
G1 F1125 X101.067 Y130.765 E70.24475
G1 X101.348 Y130.992 E70.28079
G1 X102.224 Y131.606 E70.38753
G1 X102.383 Y131.707 E70.40633
G1 X102.943 Y132.121 E70.47581
G1 X103.26 Y132.388 E70.51717
G1 X103.828 Y132.824 E70.58862
G1 X104.352 Y133.208 E70.65344
G1 X105.247 Y133.79 E70.75996
G1 X105.822 Y134.106 E70.82543
G1 X95.576 Y123.86 E72.27125
G1 X95.556 Y123.814 E72.27626
G1 X94.987 Y122.294 E72.4382
G1 X94.929 Y122.119 E72.4566
G1 X94.799 Y121.669 E72.50333
G1 X108.383 Y135.253 E74.42018
G1 X109.209 Y135.518 E74.50674
G1 X110.378 Y135.834 E74.62757
G1 X94.399 Y119.855 E76.88238
G1 X94.377 Y119.741 E76.89396
G1 X94.262 Y118.721 E76.99638
G1 X94.25 Y118.555 E77.01299
G1 X94.24 Y118.281 E77.04035
G1 X112.161 Y136.202 E79.56919
G1 X112.618 Y136.27 E79.6153
G1 X112.77 Y136.287 E79.63056
G1 X113.722 Y136.349 E79.72575
G1 X94.233 Y116.86 E82.47586
G1 X94.245 Y116.428 E82.51898
G1 X94.332 Y115.545 E82.60751
G1 X115.196 Y136.409 E85.55165
G1 X116.196 Y136.386 E85.65146
G1 X116.563 Y136.362 E85.68815
G1 X94.54 Y114.339 E88.79584
G1 X94.632 Y113.869 E88.84362
G1 X94.821 Y113.206 E88.91241
G1 X117.859 Y136.244 E92.16332
G1 X117.934 Y136.235 E92.17086
G1 X118.856 Y136.077 E92.2642
G1 X119.064 Y136.035 E92.28537
G1 X95.147 Y112.118 E95.66032
G1 X95.484 Y111.234 E95.75472
G1 X95.545 Y111.102 E95.76923
G1 X120.22 Y135.776 E99.25107
G1 X121.049 Y135.569 E99.33632
G1 X121.319 Y135.49 E99.36439
G1 X121.34 Y135.482 E99.36664
G1 X95.998 Y110.141 E102.94259
G1 X96.018 Y110.102 E102.94697
G1 X96.518 Y109.246 E103.04588
G1 X122.383 Y135.111 E106.69571
G1 X122.66 Y135.013 E106.72503
G1 X123.378 Y134.719 E106.80245
G1 X123.397 Y134.71 E106.80455
G1 X97.068 Y108.382 E110.51978
G1 X97.478 Y107.805 E110.59041
G1 X97.602 Y107.643 E110.61077
G1 X97.667 Y107.566 E110.62082
G1 X124.357 Y134.256 E114.38707
G1 X124.867 Y134.001 E114.44396
G1 X125.237 Y133.798 E114.48607
G1 X125.284 Y133.769 E114.49158
G1 X98.311 Y106.796 E118.29776
G1 X98.359 Y106.739 E118.3052
G1 X98.545 Y106.537 E118.3326
G1 X98.999 Y106.07 E118.39759
G1 X126.165 Y133.236 E122.231
G1 X126.2 Y133.213 E122.23518
G1 X126.997 Y132.654 E122.33232
G1 X99.73 Y105.387 E126.17999
G1 X100.255 Y104.921 E126.25003
G1 X100.488 Y104.73 E126.28009
G1 X127.785 Y132.028 E130.13206
G1 X128.042 Y131.819 E130.16512
G1 X128.532 Y131.361 E130.23204
G1 X101.264 Y104.093 E134.07985
G1 X101.475 Y103.919 E134.10714
G1 X102.084 Y103.498 E134.18101
G1 X129.247 Y130.662 E138.01408
G1 X129.575 Y130.316 E138.06165
G1 X129.916 Y129.916 E138.11409
G1 X102.894 Y102.894 E141.92719
G1 X103.315 Y102.56 E141.98081
G1 X103.697 Y102.282 E142.02795
G1 X130.551 Y129.137 E145.81741
G1 X131.06 Y128.442 E145.90337
G1 X131.145 Y128.317 E145.91845
G1 X104.515 Y101.686 E149.6763
G1 X104.554 Y101.657 E149.68115
G1 X104.914 Y101.422 E149.72405
G1 X105.382 Y101.139 E149.77862
G1 X131.758 Y127.515 E153.50056
G1 X131.838 Y127.424 E153.51265
G1 X131.965 Y127.267 E153.5328
G1 X132.377 Y126.72 E153.60113
G1 X106.291 Y100.634 E157.28214
G1 X106.579 Y100.484 E157.31455
G1 X106.838 Y100.362 E157.34311
G1 X107.261 Y100.19 E157.38868
G1 X132.945 Y125.874 E161.01297
G1 X133.095 Y125.64 E161.0407
G1 X133.213 Y125.442 E161.0637
G1 X133.469 Y124.983 E161.11614
G1 X108.265 Y99.78 E164.67263
G1 X108.349 Y99.745 E164.68171
G1 X108.57 Y99.672 E164.70493
G1 X109.339 Y99.44 E164.78508
G1 X133.941 Y124.042 E168.25668
G1 X134.092 Y123.723 E168.2919
G1 X134.157 Y123.566 E168.30885
G1 X134.357 Y123.043 E168.36473
G1 X110.452 Y99.138 E171.73798
G1 X110.59 Y99.102 E171.75221
G1 X111.528 Y98.893 E171.8481
G1 X111.608 Y98.88 E171.85619
G1 X134.723 Y121.995 E175.11796
G1 X134.743 Y121.932 E175.12456
G1 X135.002 Y120.939 E175.22695
G1 X135.017 Y120.874 E175.23361
G1 X112.849 Y98.707 E178.36168
G1 X113.286 Y98.673 E178.40542
G1 X114.178 Y98.622 E178.49457
G1 X135.231 Y119.674 E181.4653
G1 X135.321 Y118.82 E181.55099
G1 X135.334 Y118.649 E181.5681
G1 X135.344 Y118.373 E181.59566
G1 X115.56 Y98.589 E184.38739
G1 X116.403 Y98.623 E184.47158
G1 X117.042 Y98.67 E184.53551
G1 X117.057 Y98.672 E184.53702
G1 X135.355 Y116.97 E187.11906
G1 X135.329 Y116.285 E187.18746
G1 X135.316 Y116.115 E187.20448
G1 X135.241 Y115.442 E187.27204
G1 X118.692 Y98.893 E189.60729
G1 X119.392 Y99.021 E189.67829
G1 X120.126 Y99.187 E189.75338
G1 X120.498 Y99.285 E189.79176
G1 X134.909 Y113.696 E191.82531
G1 X134.763 Y113.142 E191.88248
G1 X134.711 Y112.972 E191.90022
G1 X134.42 Y112.127 E191.98939
G1 X134.365 Y111.979 E192.00514
G1 X134.183 Y111.555 E192.05118
G1 X122.55 Y99.923 E193.69266
G1 X123.037 Y100.111 E193.74474
G1 X123.402 Y100.269 E193.78443
G1 X124.545 Y100.822 E193.91112
G1 X125.002 Y101.065 E193.96277
G1 X125.254 Y101.212 E193.99188
G1 X125.886 Y101.581 E194.0649
G1 X126.034 Y101.674 E194.08234
G1 X126.9 Y102.273 E194.18741
G1 X127.286 Y102.564 E194.23564
G1 X128.018 Y103.154 E194.32946
G1 X128.819 Y103.896 E194.4384
G1 X129.147 Y104.226 E194.48483
G1 X129.901 Y105.047 E194.59605
G1 X130.36 Y105.607 E194.6683
G1 X130.534 Y105.834 E194.69684
G1 X131.06 Y106.557 E194.78605
G1 X131.414 Y107.075 E194.84866
G1 X131.696 Y107.454 E194.89579
G1 X131.861 Y107.654 E194.92166
G1 F1500 E188.92166
G0 F7200 X132.37 Y108.328
G1 F1500 E194.92166
G1 F1125 X125.254 Y101.212 E195.92581
G1 F1500 E189.92581
G0 F7200 X98.201 Y128.071
G1 F1500 E195.92581
G1 F1125 X98.327 Y128.218 E195.94513
G1 X98.926 Y128.868 E196.03332
G1 X99.04 Y128.984 E196.04955
G1 X99.722 Y129.623 E196.1428
G1 X100.543 Y130.342 E196.2517
G1 X101.067 Y130.765 E196.31889
G1 F1500 E190.31889
G0 F7200 X115.485 Y98.386
;TIME_ELAPSED:134.328117

;LAYER:-4
G0 X115.485 Y98.386 Z0.74
;TYPE:SUPPORT-INTERFACE
G1 F1500 E196.31889
G1 X114.7 Y98.4 E196.34501
G1 X115.84 Y98.4 E196.38292
G1 X116.422 Y98.423 E196.4023
G1 X117.065 Y98.472 E196.42374
G1 X118.032 Y98.578 E196.4561
G1 X118.243 Y98.606 E196.46318
G1 X119.298 Y98.8 E196.49886
G1 X111.032 Y98.8 E196.77378
G1 X110.443 Y98.932 E196.79386
G1 X109.563 Y99.162 E196.82411
G1 X109.438 Y99.2 E196.82846
G1 X120.982 Y99.2 E197.21241
G1 X121.001 Y99.205 E197.21307
G1 X121.355 Y99.306 E197.22531
G1 X122.275 Y99.6 E197.25743
G1 X108.18 Y99.6 E197.72624
G1 X107.2 Y100 E197.76144
G1 X123.291 Y100 E198.29663
G1 X123.352 Y100.026 E198.29884
G1 X124.135 Y100.4 E198.3277
G1 X106.309 Y100.4 E198.92059
G1 X105.803 Y100.659 E198.9395
G1 X105.659 Y100.739 E198.94498
G1 X105.558 Y100.8 E198.9489
G1 X124.928 Y100.8 E199.59315
G1 X125.151 Y100.919 E199.60156
G1 X125.632 Y101.2 E199.62009
G1 X104.896 Y101.2 E200.30977
G1 X104.806 Y101.254 E200.31326
G1 X104.35 Y101.556 E200.33145
G1 X104.29 Y101.6 E200.33392
G1 X126.279 Y101.6 E201.06528
G1 X126.859 Y102 E201.08871
G1 X103.743 Y102 E201.85756
G1 X103.196 Y102.4 E201.88009
G1 X127.402 Y102.4 E202.68519
G1 X127.894 Y102.8 E202.70628
G1 X102.701 Y102.8 E203.5442
G1 X102.446 Y102.986 E203.5547
G1 X102.454 Y102.999 E203.55521
G1 X102.164 Y103.2 E203.56694
G1 X128.368 Y103.2 E204.43849
G1 X128.798 Y103.6 E204.45802
G1 X101.585 Y103.6 E205.36313
G1 X101.415 Y103.717 E205.37
G1 X101.218 Y103.867 E205.37823
G1 X101.058 Y104 E205.38515
G1 X129.208 Y104 E206.32143
G1 X129.289 Y104.081 E206.32524
G1 X129.583 Y104.4 E206.33966
G1 X100.574 Y104.4 E207.30451
G1 X100.125 Y104.771 E207.32388
G1 X100.093 Y104.8 E207.32532
G1 X129.95 Y104.8 E208.31836
G1 X130.049 Y104.908 E208.32324
G1 X130.287 Y105.2 E208.33577
G1 X99.642 Y105.2 E209.35502
G1 X99.192 Y105.6 E209.37505
G1 X130.609 Y105.6 E210.41998
G1 X130.773 Y105.816 E210.429
G1 X130.906 Y106 E210.43655
G1 X98.793 Y106 E211.50464
G1 X98.404 Y106.4 E211.52319
G1 X131.193 Y106.4 E212.61376
G1 X131.309 Y106.562 E212.62039
G1 X131.471 Y106.8 E212.62996
G1 X98.055 Y106.8 E213.74138
G1 X97.717 Y107.2 E213.7588
G1 X131.758 Y107.2 E214.89101
G1 X131.854 Y107.329 E214.89636
