;FLAVOR:Marlin
;TIME:1629
;Filament used: 0.727277m
;Layer height: 0.2

;POSTPROCESSED
;ChangeAtZ instances: 1
;Generated with Cura_SteamEngine 3.6.0
M140 S60
M105
M190 S60
M104 S190
M105
M109 S190
M82 ;absolute extrusion mode
; Ender 3 Custom Start G-code
G28 ; Home all axes
G92 E0 ; Reset Extruder
G1 Z2.0 F3000 ; Move Z Axis up little to prevent scratching of Heat Bed
G1 X0.1 Y20 Z0.3 F5000.0 ; Move to start position
G1 X0.1 Y200.0 Z0.3 F1500.0 E15 ; Draw the first line
G1 X0.4 Y200.0 Z0.3 F5000.0 ; Move to side a little
G1 X0.4 Y20 Z0.3 F1500.0 E30 ; Draw the second line
G92 E0 ; Reset Extruder
G1 Z2.0 F3000 ; Move Z Axis up little to prevent scratching of Heat Bed
; End of custom start GCode
G92 E0
G1 F1500 E-6
;LAYER_COUNT:410

;LAYER:-6
M107
G0 F7200 X104.894 Y91.563 Z0.24
;TYPE:SUPPORT-INTERFACE
G1 F1500 E0
G1 F1125 X105.545 Y90.912 E0.07349
G1 X105.678 Y90.789 E0.08795
G1 X106.353 Y90.206 E0.15915
G1 X106.475 Y90.108 E0.17164
G1 X107.196 Y89.572 E0.24335
G1 X107.337 Y89.475 E0.25702
G1 X108.246 Y88.904 E0.3427
G1 X108.801 Y88.598 E0.39329
G1 X109.742 Y88.146 E0.47662
G1 X109.911 Y88.073 E0.49132
G1 X110.712 Y87.759 E0.56
G1 X110.896 Y87.695 E0.57555
G1 X111.751 Y87.43 E0.647
G1 X111.896 Y87.391 E0.65899
G1 X112.781 Y87.187 E0.73148
G1 X112.949 Y87.155 E0.74513
G1 X113.823 Y87.019 E0.81574
G1 X113.998 Y86.998 E0.82981
G1 X114.899 Y86.926 E0.90196
G1 X115.063 Y86.918 E0.91507
G1 X115.952 Y86.911 E0.98603
G1 X116.153 Y86.917 E1.00209
G1 X116.769 Y86.957 E1.05136
G1 X117.562 Y86.949 E1.11466
G1 X118.515 Y86.865 E1.19103
G1 X118.714 Y86.856 E1.20693
G1 X119.589 Y86.842 E1.27679
G1 X119.766 Y86.846 E1.29092
G1 X120.833 Y86.914 E1.37627
G1 X121.873 Y87.058 E1.46008
G1 X122.893 Y87.272 E1.54327
G1 X123.61 Y87.468 E1.6026
G1 X124.586 Y87.8 E1.6849
G1 X125.565 Y88.211 E1.76965
G1 X125.733 Y88.289 E1.78444
G1 X126.661 Y88.775 E1.86806
G1 X127.407 Y89.231 E1.93785
G1 X127.584 Y89.348 E1.95479
G1 X128.305 Y89.864 E2.02556
G1 X129.104 Y90.523 E2.10824
G1 X129.25 Y90.654 E2.12389
G1 X129.878 Y91.259 E2.1935
G1 X130.018 Y91.406 E2.20971
G1 X130.977 Y92.515 E2.32674
G1 X131.547 Y93.296 E2.40392
G1 X131.649 Y93.446 E2.4184
G1 X132.112 Y94.189 E2.48828
G1 X132.2 Y94.341 E2.5023
G1 X132.619 Y95.133 E2.57383
G1 X132.694 Y95.289 E2.58764
G1 X133.052 Y96.108 E2.65899
G1 X133.124 Y96.29 E2.67461
G1 X133.412 Y97.107 E2.74376
G1 X133.467 Y97.282 E2.75841
G1 X133.702 Y98.144 E2.82973
G1 X133.738 Y98.297 E2.84227
G1 X133.938 Y99.343 E2.92728
G1 X134.059 Y100.385 E3.01102
G1 X134.105 Y101.466 E3.09739
G1 X134.084 Y102.381 E3.17045
G1 X134.144 Y103.3 E3.24396
G1 X134.323 Y104.475 E3.33884
G1 X134.359 Y104.833 E3.36756
G1 X134.426 Y105.936 E3.45577
G1 X134.427 Y106.671 E3.51444
G1 X134.414 Y107.107 E3.54926
G1 X134.34 Y108.223 E3.63853
G1 X134.193 Y109.267 E3.72269
G1 X133.987 Y110.243 E3.80232
G1 X133.579 Y111.673 E3.92102
G1 X133.51 Y111.892 E3.93935
G1 X133.131 Y112.872 E4.02323
G1 X132.795 Y113.609 E4.08788
G1 X132.663 Y113.877 E4.11173
G1 X132.126 Y114.858 E4.201
G1 X131.743 Y115.466 E4.25836
G1 X131.579 Y115.709 E4.28176
G1 X131.036 Y116.462 E4.35587
G1 X130.927 Y116.602 E4.37003
G1 X130.251 Y117.401 E4.45358
G1 X130.103 Y117.562 E4.47103
G1 X129.303 Y118.366 E4.56157
G1 X128.806 Y118.81 E4.61477
G1 X128.616 Y118.97 E4.6346
G1 X127.739 Y119.657 E4.72352
G1 X127.2 Y120.031 E4.77589
G1 X126.937 Y120.203 E4.80098
G1 X125.879 Y120.855 E4.90018
G1 X125.439 Y121.143 E4.94216
G1 X124.653 Y121.593 E5.01445
G1 X124.503 Y121.671 E5.02795
G1 X123.571 Y122.116 E5.11039
G1 X122.946 Y122.371 E5.16427
G1 X121.98 Y122.706 E5.24589
G1 X121.831 Y122.751 E5.25831
G1 X120.964 Y122.982 E5.32994
G1 X120.755 Y123.028 E5.34702
G1 X119.353 Y123.269 E5.46057
G1 X119.24 Y123.283 E5.46966
G1 X118.133 Y123.371 E5.55831
G1 X117.244 Y123.383 E5.62928
G1 X117.034 Y123.376 E5.64605
G1 X115.704 Y123.277 E5.75251
G1 X114.502 Y123.087 E5.84965
G1 X113.471 Y122.842 E5.93424
G1 X112.457 Y122.521 E6.01914
G1 X111.585 Y122.181 E6.09385
G1 X110.568 Y121.706 E6.18345
G1 X110.415 Y121.627 E6.1972
G1 X109.666 Y121.204 E6.26586
G1 X109.492 Y121.097 E6.28217
G1 X108.712 Y120.579 E6.35691
G1 X108.173 Y120.249 E6.40736
G1 X107.333 Y119.684 E6.48817
G1 X107.162 Y119.559 E6.50508
G1 X106.176 Y118.77 E6.60588
G1 X105.352 Y118.001 E6.69585
G1 X105.23 Y117.877 E6.70973
G1 X104.537 Y117.12 E6.79166
G1 X104.151 Y116.646 E6.84045
G1 X103.957 Y116.395 E6.86578
G1 X103.417 Y115.654 E6.93897
G1 X103.309 Y115.493 E6.95444
G1 X102.742 Y114.571 E7.04084
G1 X102.272 Y113.665 E7.12232
G1 X102.193 Y113.498 E7.13706
G1 X101.754 Y112.46 E7.22703
G1 X101.528 Y111.857 E7.27843
G1 X101.242 Y111.007 E7.35002
G1 X101.185 Y110.816 E7.36593
G1 X100.969 Y109.979 E7.43493
G1 X100.927 Y109.791 E7.45031
G1 X100.77 Y108.923 E7.52072
G1 X100.743 Y108.735 E7.53588
G1 X100.636 Y107.696 E7.61926
G1 X100.608 Y107.055 E7.67047
G1 X100.598 Y106.59 E7.7076
G1 X100.608 Y105.661 E7.78176
G1 X100.618 Y105.467 E7.79727
G1 X100.749 Y104.134 E7.90419
G1 X100.809 Y103.732 E7.93663
G1 X100.881 Y103.332 E7.96907
G1 X100.958 Y102.671 E8.02219
G1 X100.963 Y102.253 E8.05556
G1 X100.943 Y101.367 E8.12631
G1 X100.997 Y100.313 E8.21055
G1 X101.016 Y100.114 E8.22651
G1 X101.127 Y99.257 E8.29549
G1 X101.161 Y99.05 E8.31223
G1 X101.375 Y98.032 E8.39527
G1 X101.623 Y97.152 E8.46825
G1 X101.672 Y97.001 E8.48093
G1 X101.97 Y96.177 E8.55087
G1 X102.046 Y95.989 E8.56706
G1 X102.468 Y95.054 E8.64894
G1 X102.992 Y94.095 E8.73618
G1 X103.559 Y93.213 E8.81987
G1 X104.205 Y92.352 E8.9058
G1 X104.676 Y91.813 E8.96293
G0 F1012.5 X104.894 Y91.563
G1 F1500 E2.96293
G0 F7200 X105.6 Y90.861
G1 F1500 E8.98944
G1 F1125 X105.6 Y118.232 E11.17431
G1 F1500 E5.17431
G0 F7200 X107.2 Y119.586
G1 F1500 E11.17431
G1 F1125 X107.2 Y89.569 E13.57039
G1 F1500 E7.57039
G0 F7200 X108.8 Y88.598
G1 F1500 E13.57039
G1 F1125 X108.8 Y120.637 E16.12789
G1 F1500 E10.12789
G0 F7200 X110.4 Y121.618
G1 F1500 E16.12789
G1 F1125 X110.4 Y87.881 E18.82092
G1 F1500 E12.82092
G0 F7200 X112 Y87.367
G1 F1500 E18.82092
G1 F1125 X112 Y122.342 E21.61278
G1 F1500 E15.61278
G0 F7200 X113.6 Y122.872
G1 F1500 E21.61278
G1 F1125 X113.6 Y87.053 E24.472
G1 F1500 E18.472
G0 F7200 X115.2 Y86.916
G1 F1500 E24.472
G1 F1125 X115.2 Y123.197 E27.36811
G1 F1500 E21.36811
G0 F7200 X116.8 Y123.358
G1 F1500 E27.36811
G1 F1125 X116.8 Y86.956 E30.27387
G1 F1500 E24.27387
G0 F7200 X118.4 Y86.875
G1 F1500 E30.27387
G1 F1125 X118.4 Y123.35 E33.18547
G1 F1500 E27.18547
G0 F7200 X120 Y123.158
G1 F1500 E33.18547
G1 F1125 X120 Y86.861 E36.08285
G1 F1500 E30.08285
G0 F7200 X121.6 Y87.021
G1 F1500 E36.08285
G1 F1125 X121.6 Y122.813 E38.93992
G1 F1500 E32.93992
G0 F7200 X123.2 Y122.268
G1 F1500 E38.93992
G1 F1125 X123.2 Y87.356 E41.72675
G1 F1500 E35.72675
G0 F7200 X124.8 Y87.89
G1 F1500 E41.72675
G1 F1125 X124.8 Y121.509 E44.41036
G1 F1500 E38.41036
G0 F7200 X126.4 Y120.534
G1 F1500 E44.41036
G1 F1125 X126.4 Y88.639 E46.95636
G1 F1500 E40.95636
G0 F7200 X128 Y89.646
G1 F1500 E46.95636
G1 F1125 X128 Y119.453 E49.33568
G1 F1500 E43.33568
G0 F7200 X129.6 Y118.068
G1 F1500 E49.33568
G1 F1125 X129.6 Y90.992 E51.49701
G1 F1500 E45.49701
G0 F7200 X131.2 Y92.821
G1 F1500 E51.49701
G1 F1125 X131.2 Y116.235 E53.36601
G1 F1500 E47.36601
G0 F7200 X132.8 Y113.599
G1 F1500 E53.36601
G1 F1125 X132.8 Y95.532 E54.8082
G1 F1500 E48.8082
G0 F7200 X134.4 Y105.508
G1 F1500 E54.8082
G1 F1125 X134.4 Y107.319 E54.95276
G1 F1500 E48.95276
G0 F7200 X104 Y116.45
G1 F1500 E54.95276
G1 F1125 X104 Y92.625 E56.85458
G1 F1500 E50.85458
G0 F7200 X102.4 Y95.204
G1 F1500 E56.85458
G1 F1125 X102.4 Y113.911 E58.34785
G1 F1500 E52.34785
G0 F7200 X100.8 Y109.088
G1 F1500 E58.34785
G1 F1125 X100.8 Y103.792 E58.7706
G1 F1500 E52.7706
G0 F7200 X102.271 Y113.664
;TIME_ELAPSED:56.405151

;LAYER:-5
M140 S50
G0 X102.271 Y113.664 Z0.54
;TYPE:SUPPORT
G1 F1500 E58.7706
G1 F1125 X102.741 Y114.57 E58.87244
G1 X103.309 Y115.492 E58.98049
G1 X103.417 Y115.652 E58.99976
G1 X103.957 Y116.394 E59.09132
G1 X104.151 Y116.645 E59.12298
G1 X104.537 Y117.119 E59.18397
G1 X105.23 Y117.876 E59.28638
G1 X105.351 Y118 E59.30366
G1 X106.175 Y118.769 E59.41613
G1 X107.161 Y119.558 E59.54213
G1 X107.333 Y119.683 E59.56335
G1 X108.172 Y120.248 E59.66427
G1 X108.712 Y120.578 E59.72742
G1 X109.492 Y121.096 E59.82085
G1 X109.665 Y121.203 E59.84115
G1 X110.179 Y121.493 E59.90003
G1 X102.201 Y113.515 E61.02581
G1 X102.193 Y113.497 E61.02778
G1 X101.754 Y112.459 E61.14023
G1 X101.527 Y111.855 E61.20462
G1 X101.31 Y111.21 E61.27252
G1 X112.696 Y122.596 E62.87921
G1 X113.47 Y122.841 E62.96021
G1 X114.501 Y123.086 E63.06595
G1 X114.619 Y123.104 E63.07786
G1 X100.843 Y109.328 E65.02181
G1 X100.769 Y108.922 E65.06298
G1 X100.742 Y108.734 E65.08194
G1 X100.636 Y107.707 E65.18495
G1 X116.244 Y123.315 E67.38741
G1 X117.033 Y123.375 E67.46637
G1 X117.243 Y123.381 E67.48733
G1 X117.718 Y123.375 E67.53473
G1 X100.601 Y106.258 E69.95012
G1 X100.607 Y105.66 E70.00979
G1 X100.618 Y105.466 E70.02918
G1 X100.672 Y104.914 E70.08452
G1 X119.054 Y123.296 E72.67842
G1 X119.24 Y123.281 E72.69704
G1 X119.352 Y123.268 E72.70829
G1 X120.28 Y123.108 E72.80225
G1 X100.823 Y103.651 E75.54785
G1 X100.88 Y103.331 E75.58028
G1 X100.957 Y102.67 E75.64668
G1 X100.96 Y102.374 E75.67622
G1 X121.439 Y122.854 E78.5661
G1 X121.83 Y122.75 E78.60647
G1 X121.98 Y122.705 E78.62209
G1 X122.518 Y122.518 E78.67892
G1 X100.962 Y100.962 E81.72071
G1 X100.996 Y100.312 E81.78565
G1 X101.015 Y100.114 E81.8055
G1 X101.073 Y99.659 E81.85127
G1 X123.541 Y122.127 E85.02175
G1 X123.569 Y122.115 E85.02479
G1 X124.5 Y121.671 E85.12771
G1 X101.284 Y98.456 E88.40366
G1 X101.374 Y98.032 E88.44691
G1 X101.572 Y97.329 E88.51979
G1 X125.403 Y121.161 E91.88267
G1 X125.437 Y121.142 E91.88656
G1 X125.878 Y120.855 E91.93906
G1 X126.27 Y120.613 E91.98502
G1 X101.932 Y96.276 E95.41931
G1 X101.969 Y96.177 E95.42985
G1 X102.044 Y95.989 E95.45005
G1 X102.36 Y95.289 E95.52668
G1 X127.139 Y120.068 E99.02327
G1 X127.199 Y120.03 E99.03035
G1 X127.738 Y119.657 E99.09576
G1 X127.964 Y119.479 E99.12446
G1 X102.845 Y94.36 E102.66903
G1 X102.991 Y94.094 E102.6993
G1 X103.383 Y93.483 E102.77174
G1 X128.752 Y118.853 E106.35165
G1 X128.805 Y118.809 E106.35852
G1 X129.302 Y118.366 E106.42495
G1 X129.491 Y118.177 E106.45162
G1 X103.972 Y92.659 E110.05256
G1 X104.204 Y92.351 E110.09103
G1 X104.612 Y91.884 E110.15291
G1 X130.192 Y117.464 E113.76252
G1 X130.25 Y117.4 E113.77114
G1 X130.843 Y116.7 E113.86268
G1 X105.299 Y91.157 E117.46715
G1 X105.544 Y90.912 E117.50172
G1 X105.677 Y90.788 E117.51986
G1 X106.036 Y90.479 E117.56712
G1 X131.447 Y115.891 E121.15296
G1 X131.578 Y115.709 E121.17534
G1 X131.742 Y115.466 E121.20459
G1 X132.011 Y115.04 E121.25486
G1 X106.821 Y89.85 E124.80944
G1 X107.195 Y89.571 E124.856
G1 X107.336 Y89.475 E124.87302
G1 X107.658 Y89.273 E124.91095
G1 X132.521 Y114.136 E128.41939
G1 X132.662 Y113.877 E128.44881
G1 X132.793 Y113.608 E128.47866
G1 X132.986 Y113.187 E128.52488
G1 X108.54 Y88.741 E131.97447
G1 X108.8 Y88.598 E132.00408
G1 X109.483 Y88.27 E132.07968
G1 X133.397 Y112.183 E135.45413
G1 X133.509 Y111.891 E135.48534
G1 X133.578 Y111.673 E135.50815
G1 X133.738 Y111.111 E135.56646
G1 X110.478 Y87.85 E138.84877
G1 X110.711 Y87.759 E138.87373
G1 X110.895 Y87.695 E138.89316
G1 X111.538 Y87.496 E138.96033
G1 X134.038 Y109.996 E142.13532
G1 X134.192 Y109.267 E142.20966
G1 X134.258 Y108.802 E142.25653
G1 X112.668 Y87.213 E145.30304
G1 X112.779 Y87.186 E145.31444
G1 X112.948 Y87.154 E145.3316
G1 X113.822 Y87.018 E145.41986
G1 X113.882 Y87.012 E145.42587
G1 X134.386 Y107.516 E148.31921
G1 X134.413 Y107.107 E148.36011
G1 X134.426 Y106.671 E148.40363
G1 X134.425 Y106.141 E148.45652
G1 X115.201 Y86.917 E151.16923
G1 X115.951 Y86.91 E151.24407
G1 X116.152 Y86.917 E151.26414
G1 X116.648 Y86.95 E151.31374
G1 X134.339 Y104.641 E153.81013
G1 X134.322 Y104.475 E153.82678
G1 X134.143 Y103.299 E153.94547
G1 X134.125 Y103.012 E153.97416
G1 X118.021 Y86.909 E156.24654
G1 X118.513 Y86.865 E156.29583
G1 X118.713 Y86.855 E156.31581
G1 X119.372 Y86.845 E156.38157
G1 X134.102 Y101.575 E158.46014
G1 X134.104 Y101.465 E158.47111
G1 X134.058 Y100.384 E158.57907
G1 X134.023 Y100.082 E158.60941
G1 X120.859 Y86.918 E160.46699
G1 X121.871 Y87.058 E160.56893
G1 X122.557 Y87.202 E160.63887
G1 X133.757 Y98.402 E162.21931
G1 X133.737 Y98.297 E162.22998
G1 X133.701 Y98.143 E162.24576
G1 X133.466 Y97.282 E162.33481
G1 X133.411 Y97.106 E162.35321
G1 X133.158 Y96.388 E162.42917
G1 X124.561 Y87.792 E163.64223
G1 X124.585 Y87.8 E163.64476
G1 X125.564 Y88.21 E163.75066
G1 X125.732 Y88.289 E163.76918
G1 X126.66 Y88.775 E163.87371
G1 X127.406 Y89.231 E163.96095
G1 X127.431 Y89.248 E163.96397
G1 X127.583 Y89.348 E163.98212
G1 X128.303 Y89.864 E164.07051
G1 X129.102 Y90.523 E164.17385
G1 X129.249 Y90.653 E164.19343
G1 X129.877 Y91.259 E164.28051
G1 X130.017 Y91.406 E164.30077
G1 X130.975 Y92.515 E164.44699
G1 X131.546 Y93.296 E164.54353
G1 X131.648 Y93.446 E164.56163
G0 F7200 X131.678 Y93.495
G1 F1125 X127.431 Y89.248 E165.16093
G1 F1500 E159.16093
G0 F7200 X113.967 Y86.8
;TIME_ELAPSED:113.863120

;LAYER:-4
G0 X113.967 Y86.8 Z0.74
;TYPE:SUPPORT-INTERFACE
G1 F1500 E165.16093
G1 X113.802 Y86.821 E165.16646
G1 X112.905 Y86.959 E165.19664
G1 X112.74 Y86.991 E165.20223
G1 X111.851 Y87.196 E165.23258
G1 X111.837 Y87.2 E165.23306
G1 X123.381 Y87.2 E165.61702
G1 X123.727 Y87.294 E165.62894
G1 X124.623 Y87.6 E165.66043
G1 X110.571 Y87.6 E166.1278
G1 X109.831 Y87.89 E166.15424
G1 X109.648 Y87.968 E166.16086
G1 X109.582 Y88 E166.1633
G1 X125.583 Y88 E166.69549
G1 X125.637 Y88.023 E166.69744
G1 X125.81 Y88.104 E166.7038
G1 X126.384 Y88.4 E166.72528
G1 X108.753 Y88.4 E167.31169
G1 X108.138 Y88.735 E167.33498
G1 X108.035 Y88.8 E167.33903
G1 X127.087 Y88.8 E167.9727
G1 X127.524 Y89.067 E167.98974
G1 X127.689 Y89.176 E167.99631
G1 X127.723 Y89.2 E167.9977
G1 X107.399 Y89.2 E168.67368
G1 X107.23 Y89.306 E168.68031
G1 X107.088 Y89.404 E168.68605
G1 X106.824 Y89.6 E168.69699
G1 X128.281 Y89.6 E169.41065
G1 X128.415 Y89.696 E169.41613
G1 X128.785 Y90 E169.43206
G1 X106.29 Y90 E170.18024
G1 X106.227 Y90.05 E170.18292
G1 X105.827 Y90.4 E170.2006
G1 X129.268 Y90.4 E170.98025
G1 X129.383 Y90.504 E170.98541
G1 X129.691 Y90.8 E170.99961
G1 X105.374 Y90.8 E171.8084
G1 X104.974 Y91.2 E171.82721
G1 X130.1 Y91.2 E172.66291
G1 X130.163 Y91.267 E172.66597
G1 X130.451 Y91.6 E172.68061
G1 X104.598 Y91.6 E173.54049
G1 X104.248 Y92 E173.55816
G1 X130.797 Y92 E174.44119
G1 X131.138 Y92.396 E174.45857
G0 F7200 X131.141 Y92.4
G1 F1500 X103.92 Y92.4 E175.36394
G1 X103.619 Y92.8 E175.38059
G1 X131.434 Y92.8 E176.30572
G1 X131.717 Y93.187 E176.32167
G1 X131.726 Y93.2 E176.32219
G1 X103.326 Y93.2 E177.26678
G1 X103.303 Y93.233 E177.26812
G1 X103.07 Y93.6 E177.28258
G1 X131.982 Y93.6 E178.2442
G1 X132.231 Y94 E178.25987
G1 X102.817 Y94 E179.23818
G1 X102.732 Y94.143 E179.24371
G1 X102.594 Y94.4 E179.25342
G1 X132.459 Y94.4 E180.24673
G1 X132.67 Y94.8 E180.26177
G1 X102.378 Y94.8 E181.26929
G1 X102.296 Y94.952 E181.27503
G1 X102.184 Y95.2 E181.28408
G1 X132.875 Y95.2 E182.30487
G1 X133.05 Y95.6 E182.31939
G1 X102.004 Y95.6 E183.35199
G1 X101.858 Y95.921 E183.36371
G1 X101.826 Y96 E183.36655
G1 X133.225 Y96 E184.41088
G1 X133.233 Y96.02 E184.4116
G1 X133.308 Y96.209 E184.41836
G1 X133.376 Y96.4 E184.42511
G1 X101.677 Y96.4 E185.47942
G1 X101.533 Y96.8 E185.49356
G1 X133.517 Y96.8 E186.55735
G1 X133.603 Y97.046 E186.56602
G1 X133.652 Y97.2 E186.57139
G1 X101.402 Y97.2 E187.64403
G1 X101.289 Y97.6 E187.65786
G1 X133.762 Y97.6 E188.73792
G1 X133.871 Y98 E188.7517
G1 X101.177 Y98 E189.83911
G1 X101.093 Y98.4 E189.85271
G1 X133.963 Y98.4 E190.94597
G1 X134.039 Y98.8 E190.95951
G1 X101.01 Y98.8 E192.05806
G1 X100.962 Y99.025 E192.06571
G1 X100.933 Y99.2 E192.07161
G1 X134.116 Y99.2 E193.17528
G1 X134.135 Y99.301 E193.1787
G1 X134.17 Y99.6 E193.18871
G1 X100.881 Y99.6 E194.29591
G1 X100.829 Y100 E194.30932
G1 X134.216 Y100 E195.41978
G1 X134.259 Y100.374 E195.4323
G1 X134.261 Y100.4 E195.43317
G1 X100.794 Y100.4 E196.54629
G1 X100.773 Y100.8 E196.55961
G1 X134.28 Y100.8 E197.67405
G1 X134.298 Y101.2 E197.68737
