;FLAVOR:Marlin
;TIME:2656
;Filament used: 2.81836m
;Layer height: 0.2

;POSTPROCESSED
;ChangeAtZ instances: 1
;Generated with Cura_SteamEngine 3.6.0
M140 S60
M105
M190 S60
M104 S190
M105
M109 S190
M82 ;absolute extrusion mode
; Ender 3 Custom Start G-code
G28 ; Home all axes
G92 E0 ; Reset Extruder
G1 Z2.0 F3000 ; Move Z Axis up little to prevent scratching of Heat Bed
G1 X0.1 Y20 Z0.3 F5000.0 ; Move to start position
G1 X0.1 Y200.0 Z0.3 F1500.0 E15 ; Draw the first line
G1 X0.4 Y200.0 Z0.3 F5000.0 ; Move to side a little
G1 X0.4 Y20 Z0.3 F1500.0 E30 ; Draw the second line
G92 E0 ; Reset Extruder
G1 Z2.0 F3000 ; Move Z Axis up little to prevent scratching of Heat Bed
; End of custom start GCode
G92 E0
G1 F1500 E-6
;LAYER_COUNT:22

;LAYER:-6
M107
G0 F7200 X101.871 Y46.227 Z0.24
;TYPE:SUPPORT-INTERFACE
G1 F1500 E0
G1 F1125 X102.312 Y45.243 E0.08607
G1 X102.74 Y44.44 E0.15871
G1 X102.839 Y44.271 E0.17434
G1 X103.292 Y43.553 E0.24211
G1 X103.407 Y43.385 E0.25836
G1 X103.928 Y42.681 E0.32828
G1 X104.05 Y42.526 E0.34402
G1 X104.622 Y41.861 E0.41404
G1 X104.746 Y41.726 E0.42867
G1 X105.48 Y40.994 E0.51142
G1 X106.176 Y40.39 E0.58498
G1 X106.311 Y40.281 E0.59883
G1 X107.019 Y39.752 E0.66938
G1 X107.159 Y39.656 E0.68293
G1 X108.037 Y39.097 E0.76602
G1 X108.853 Y38.655 E0.84009
G1 X108.995 Y38.585 E0.85273
G1 X109.822 Y38.212 E0.92515
G1 X109.972 Y38.152 E0.93805
G1 X110.824 Y37.841 E1.01045
G1 X110.972 Y37.793 E1.02287
G1 X111.856 Y37.541 E1.09624
G1 X112 Y37.506 E1.10807
G1 X112.88 Y37.324 E1.1798
G1 X113.045 Y37.295 E1.19318
G1 X113.931 Y37.178 E1.26451
G1 X114.121 Y37.161 E1.27974
G1 X115.464 Y37.1 E1.38706
G1 X116.243 Y37.101 E1.44924
G1 X117.735 Y37.155 E1.56841
G1 X117.735 Y37.132 E1.57025
G1 X117.917 Y37.131 E1.58478
G1 X118.224 Y37.111 E1.60934
G1 X118.773 Y37.101 E1.65317
G1 X119.554 Y37.102 E1.71551
G1 X120.555 Y37.138 E1.79547
G1 X121.595 Y37.249 E1.87896
G1 X121.77 Y37.274 E1.89307
G1 X122.782 Y37.466 E1.97529
G1 X123.676 Y37.7 E2.04906
G1 X124.681 Y38.036 E2.13364
G1 X124.847 Y38.099 E2.14782
G1 X125.65 Y38.44 E2.21746
G1 X125.839 Y38.528 E2.2341
G1 X126.633 Y38.937 E2.30539
G1 X126.75 Y39.002 E2.31608
G1 X127.529 Y39.477 E2.38891
G1 X127.68 Y39.577 E2.40337
G1 X128.542 Y40.201 E2.48831
G1 X129.233 Y40.777 E2.56012
G1 X129.346 Y40.878 E2.57222
G1 X129.995 Y41.503 E2.64414
G1 X130.115 Y41.628 E2.65797
G1 X130.718 Y42.299 E2.72999
G1 X131.364 Y43.127 E2.81382
G1 X131.477 Y43.286 E2.82939
G1 X131.967 Y44.024 E2.9001
G1 X132.489 Y44.944 E2.98454
G1 X132.567 Y45.094 E2.99803
G1 X132.95 Y45.909 E3.06991
G1 X133.336 Y46.903 E3.15503
G1 X133.394 Y47.075 E3.16952
G1 X133.727 Y48.226 E3.26517
G1 X134.266 Y50.453 E3.44807
G1 X134.479 Y51.493 E3.53281
G1 X134.512 Y51.69 E3.54875
G1 X134.622 Y52.56 E3.61875
G1 X134.638 Y52.733 E3.63262
G1 X134.686 Y53.629 E3.70425
G1 X134.67 Y54.695 E3.78935
G1 X134.661 Y54.863 E3.80278
G1 X134.578 Y55.742 E3.87326
G1 X134.554 Y55.929 E3.88831
G1 X134.411 Y56.784 E3.9575
G1 X134.37 Y56.987 E3.97404
G1 X134.304 Y57.252 E3.99584
G1 X134.188 Y57.911 E4.04925
G1 X134.154 Y58.51 E4.09714
G1 X134.193 Y176.463 E13.51266
G1 X134.235 Y177.132 E13.56617
G1 X134.268 Y177.301 E13.57991
G1 X134.253 Y177.305 E13.58115
G1 X134.394 Y177.929 E13.63222
G1 X134.56 Y178.824 E13.70488
G1 X134.583 Y178.981 E13.71755
G1 X134.684 Y179.887 E13.79031
G1 X134.696 Y180.046 E13.80304
G1 X134.729 Y180.93 E13.87366
G1 X134.73 Y181.108 E13.88786
G1 X134.687 Y182.166 E13.97239
G1 X134.592 Y183.044 E14.04288
G1 X134.562 Y183.248 E14.05934
G1 X134.317 Y184.506 E14.16165
G1 X133.795 Y186.691 E14.34097
G1 X133.491 Y187.771 E14.43053
G1 X133.128 Y188.773 E14.5156
G1 X132.75 Y189.627 E14.59015
G1 X132.261 Y190.556 E14.67396
G1 X132.16 Y190.729 E14.68995
G1 X131.707 Y191.447 E14.75771
G1 X131.592 Y191.615 E14.77397
G1 X131.071 Y192.319 E14.84388
G1 X130.951 Y192.472 E14.8594
G1 X130.377 Y193.139 E14.92964
G1 X130.253 Y193.274 E14.94428
G1 X129.519 Y194.006 E15.02702
G1 X128.689 Y194.719 E15.11437
G1 X127.98 Y195.248 E15.18498
G1 X127.84 Y195.344 E15.19853
G1 X126.962 Y195.903 E15.28161
G1 X126.146 Y196.345 E15.35569
G1 X125.177 Y196.788 E15.44074
G1 X125.027 Y196.848 E15.45364
G1 X124.175 Y197.159 E15.52604
G1 X124.027 Y197.207 E15.53846
G1 X123.146 Y197.458 E15.61158
G1 X122.999 Y197.494 E15.62366
G1 X122.119 Y197.676 E15.69539
G1 X121.954 Y197.705 E15.70877
G1 X121.068 Y197.822 E15.78011
G1 X120.878 Y197.839 E15.79533
G1 X119.535 Y197.9 E15.90265
G1 X118.757 Y197.899 E15.96475
G1 X117.265 Y197.845 E16.08393
G1 X117.265 Y197.868 E16.08576
G1 X117.082 Y197.869 E16.10037
G1 X116.774 Y197.889 E16.12501
G1 X116.228 Y197.899 E16.1686
G1 X115.445 Y197.898 E16.2311
G1 X114.321 Y197.853 E16.3209
G1 X113.229 Y197.726 E16.40865
G1 X112.217 Y197.534 E16.49088
G1 X111.323 Y197.3 E16.56464
G1 X110.318 Y196.964 E16.64923
G1 X110.152 Y196.901 E16.6634
G1 X109.349 Y196.56 E16.73304
G1 X109.16 Y196.472 E16.74969
G1 X108.366 Y196.063 E16.82098
G1 X108.249 Y195.998 E16.83166
G1 X107.47 Y195.523 E16.9045
G1 X107.319 Y195.423 E16.91895
G1 X106.457 Y194.799 E17.0039
G1 X105.766 Y194.223 E17.07571
G1 X105.653 Y194.122 E17.08781
G1 X105.004 Y193.497 E17.15973
G1 X104.884 Y193.372 E17.17356
G1 X104.281 Y192.701 E17.24557
G1 X103.626 Y191.861 E17.3306
G1 X103.029 Y190.971 E17.41615
G1 X102.504 Y190.045 E17.50112
G1 X102.432 Y189.906 E17.51361
G1 X102.049 Y189.09 E17.58557
G1 X101.984 Y188.936 E17.59891
G1 X101.665 Y188.102 E17.67019
G1 X101.61 Y187.938 E17.684
G1 X101.241 Y186.661 E17.7901
G1 X100.702 Y184.403 E17.97541
G1 X100.516 Y183.477 E18.0508
G1 X100.49 Y183.318 E18.06366
G1 X100.376 Y182.411 E18.13663
G1 X100.361 Y182.247 E18.14978
G1 X100.315 Y181.363 E18.22044
G1 X100.332 Y180.298 E18.30546
G1 X100.342 Y180.114 E18.32017
G1 X100.422 Y179.261 E18.38856
G1 X100.452 Y179.034 E18.40684
G1 X100.594 Y178.192 E18.475
G1 X100.694 Y177.751 E18.5111
G1 X100.813 Y177.093 E18.56447
G1 X100.847 Y176.487 E18.61292
G1 X100.807 Y58.544 E28.02764
G1 X100.765 Y57.876 E28.08107
G1 X100.735 Y57.72 E28.09375
G1 X100.75 Y57.716 E28.09499
G1 X100.604 Y57.063 E28.1484
G1 X100.445 Y56.208 E28.21782
G1 X100.414 Y56.007 E28.23406
G1 X100.316 Y55.129 E28.30458
G1 X100.303 Y54.952 E28.31875
G1 X100.27 Y54.066 E28.38952
G1 X100.269 Y53.902 E28.40261
G1 X100.312 Y52.834 E28.48793
G1 X100.404 Y51.979 E28.55658
G1 X100.436 Y51.759 E28.57432
G1 X100.684 Y50.486 E28.67785
G1 X101.204 Y48.308 E28.85659
G1 X101.508 Y47.229 E28.94608
G1 X101.758 Y46.539 E29.00466
G0 F1012.5 X101.871 Y46.227
G1 F1500 E23.00466
G0 F7200 X102.4 Y45.077
G1 F1500 E29.03116
G1 F1125 X102.4 Y189.837 E40.58653
G1 F1500 E34.58653
G0 F7200 X104 Y192.34
G1 F1500 E40.58653
G1 F1125 X104 Y42.589 E52.5403
G1 F1500 E46.5403
G0 F7200 X105.6 Y40.889
G1 F1500 E52.5403
G1 F1125 X105.6 Y194.07 E64.76787
G1 F1500 E58.76787
G0 F7200 X107.2 Y195.336
G1 F1500 E64.76787
G1 F1125 X107.2 Y39.629 E77.19708
G1 F1500 E71.19708
G0 F7200 X108.8 Y38.683
G1 F1500 E77.19708
G1 F1125 X108.8 Y196.286 E89.77763
G1 F1500 E83.77763
G0 F7200 X110.4 Y196.991
G1 F1500 E89.77763
G1 F1125 X110.4 Y37.995 E102.46938
G1 F1500 E96.46938
G0 F7200 X112 Y37.506
G1 F1500 E102.46938
G1 F1125 X112 Y197.477 E115.23896
G1 F1500 E109.23896
G0 F7200 X113.6 Y197.769
G1 F1500 E115.23896
G1 F1125 X113.6 Y37.221 E128.05459
G1 F1500 E122.05459
G0 F7200 X115.2 Y37.111
G1 F1500 E128.05459
G1 F1125 X115.2 Y197.888 E140.88851
G1 F1500 E134.88851
G0 F7200 X116.8 Y197.888
G1 F1500 E140.88851
G1 F1125 X116.8 Y37.122 E153.72154
G1 F1500 E147.72154
G0 F7200 X118.4 Y37.107
G1 F1500 E153.72154
G1 F1125 X118.4 Y197.886 E166.55562
G1 F1500 E160.55562
G0 F7200 X120 Y197.879
G1 F1500 E166.55562
G1 F1125 X120 Y37.119 E179.38818
G1 F1500 E173.38818
G0 F7200 X121.6 Y37.25
G1 F1500 E179.38818
G1 F1125 X121.6 Y197.752 E192.20014
G1 F1500 E186.20014
G0 F7200 X123.2 Y197.443
G1 F1500 E192.20014
G1 F1125 X123.2 Y37.576 E204.96142
G1 F1500 E198.96142
G0 F7200 X124.8 Y38.082
G1 F1500 E204.96142
G1 F1125 X124.8 Y196.931 E217.64143
G1 F1500 E211.64143
G0 F7200 X126.4 Y196.208
G1 F1500 E217.64143
G1 F1125 X126.4 Y38.817 E230.20506
G1 F1500 E224.20506
G0 F7200 X128 Y39.809
G1 F1500 E230.20506
G1 F1125 X128 Y195.234 E242.61176
G1 F1500 E236.61176
G0 F7200 X129.6 Y193.926
G1 F1500 E242.61176
G1 F1125 X129.6 Y41.123 E254.80915
G1 F1500 E248.80915
G0 F7200 X131.2 Y42.917
G1 F1500 E254.80915
G1 F1125 X131.2 Y192.145 E266.72118
G1 F1500 E260.72118
G0 F7200 X132.8 Y189.515
G1 F1500 E266.72118
G1 F1125 X132.8 Y45.59 E278.20989
G1 F1500 E272.20989
G0 F7200 X134.4 Y51.108
G1 F1500 E278.20989
G1 F1125 X134.4 Y56.839 E278.66737
G1 F1500 E272.66737
G0 F7200 X100.8 Y58.432
G1 F1500 E278.66737
G1 F1125 X100.8 Y50 E279.34045
G1 F1500 E273.34045
G0 F7200 X100.8 Y177.164
G1 F1500 E279.34045
G1 F1125 X100.8 Y184.813 E279.95102
G1 F1500 E273.95102
G0 F7200 X134.4 Y184.08
G1 F1500 E279.95102
G1 F1125 X134.4 Y177.962 E280.43939
G1 F1500 E274.43939
G0 F7200 X117.733 Y37.132
;TIME_ELAPSED:207.542812

;LAYER:-5
M140 S50
G0 X117.733 Y37.132 Z0.54
;TYPE:SUPPORT
G1 F1500 E280.43939
G1 F1125 X117.733 Y37.154 E280.44158
G1 X116.299 Y37.103 E280.58476
G1 X134.608 Y55.412 E283.16835
G1 X134.577 Y55.741 E283.20133
G1 X134.553 Y55.928 E283.22014
G1 X134.433 Y56.651 E283.29327
G1 X114.907 Y37.125 E286.0486
G1 X114.119 Y37.161 E286.12731
G1 X113.93 Y37.178 E286.14624
G1 X113.591 Y37.223 E286.18036
G1 X134.201 Y57.833 E289.08866
G1 X134.186 Y57.911 E289.09658
G1 X134.153 Y58.51 E289.15644
G1 X134.154 Y59.201 E289.22539
G1 X112.38 Y37.427 E292.29794
G1 X111.999 Y37.505 E292.33674
G1 X111.855 Y37.541 E292.35155
G1 X111.251 Y37.712 E292.41419
G1 X134.154 Y60.615 E295.64605
G1 X134.155 Y62.03 E295.78724
G1 X110.195 Y38.07 E299.16825
G1 X109.971 Y38.151 E299.19202
G1 X109.82 Y38.212 E299.20827
G1 X109.202 Y38.491 E299.27593
G1 X134.155 Y63.445 E302.79714
G1 X134.155 Y64.859 E302.93823
G1 X108.268 Y38.972 E306.59116
G1 X108.036 Y39.097 E306.61746
G1 X107.39 Y39.508 E306.69385
G1 X134.156 Y66.274 E310.47083
G1 X134.157 Y67.689 E310.61201
G1 X106.561 Y40.093 E314.50611
G1 X106.31 Y40.281 E314.5374
G1 X106.174 Y40.389 E314.55473
G1 X105.783 Y40.73 E314.6065
G1 X134.157 Y69.103 E318.6103
G1 X134.157 Y70.518 E318.75149
G1 X105.056 Y41.416 E322.85803
G1 X104.745 Y41.726 E322.90184
G1 X104.621 Y41.861 E322.92013
G1 X104.373 Y42.148 E322.95798
G1 X134.158 Y71.933 E327.16097
G1 X134.158 Y73.347 E327.30205
G1 X103.741 Y42.93 E331.59422
G1 X103.405 Y43.385 E331.65066
G1 X103.291 Y43.553 E331.67092
G1 X103.159 Y43.762 E331.69558
G1 X134.159 Y74.762 E336.07002
G1 X134.16 Y76.177 E336.21121
G1 X102.628 Y44.646 E340.66064
G1 X102.311 Y45.243 E340.72809
G1 X102.156 Y45.587 E340.76574
G1 X134.16 Y77.591 E345.28185
G1 X134.16 Y79.006 E345.42304
G1 X101.739 Y46.585 E349.99799
G1 X101.507 Y47.228 E350.0662
G1 X101.388 Y47.648 E350.10975
G1 X134.161 Y80.421 E354.73438
G1 X134.161 Y81.835 E354.87547
G1 X101.092 Y48.767 E359.54179
G1 X100.82 Y49.909 E359.65893
G1 X134.162 Y83.25 E364.36377
G1 X134.162 Y84.665 E364.50496
G1 X100.568 Y51.071 E369.24544
G1 X100.435 Y51.759 E369.31536
G1 X100.403 Y51.979 E369.33754
G1 X100.37 Y52.287 E369.36845
G1 X134.162 Y86.079 E374.13686
G1 X134.163 Y87.494 E374.27805
G1 X100.279 Y53.61 E379.05945
G1 X100.268 Y53.902 E379.08861
G1 X100.269 Y54.066 E379.10497
G1 X100.301 Y54.952 E379.19344
G1 X100.309 Y55.054 E379.20365
G1 X134.164 Y88.909 E383.98095
G1 X134.164 Y90.323 E384.12204
G1 X100.535 Y56.694 E388.86746
G1 X100.603 Y57.062 E388.9048
G1 X100.749 Y57.716 E388.97166
G1 X100.734 Y57.719 E388.97319
G1 X100.764 Y57.875 E388.98904
G1 X100.795 Y58.368 E389.03833
G1 X134.165 Y91.738 E393.74719
G1 X134.165 Y93.153 E393.88838
G1 X100.806 Y59.794 E398.5957
G1 X100.807 Y61.209 E398.73689
G1 X134.165 Y94.567 E403.44406
G1 X134.166 Y95.982 E403.58525
G1 X100.807 Y62.623 E408.29257
G1 X100.807 Y64.038 E408.43376
G1 X134.167 Y97.397 E413.14114
G1 X134.167 Y98.811 E413.28223
G1 X100.808 Y65.453 E417.98948
G1 X100.809 Y66.868 E418.13066
G1 X134.167 Y100.226 E422.83784
G1 X134.168 Y101.641 E422.97903
G1 X100.809 Y68.282 E427.68634
G1 X100.81 Y69.697 E427.82753
G1 X134.168 Y103.055 E432.53471
G1 X134.169 Y104.47 E432.6759
G1 X100.81 Y71.112 E437.38314
G1 X100.81 Y72.526 E437.52423
G1 X134.169 Y105.885 E442.23155
G1 X134.169 Y107.299 E442.37263
G1 X100.811 Y73.941 E447.07981
G1 X100.812 Y75.356 E447.221
G1 X134.17 Y108.714 E451.92817
G1 X134.171 Y110.129 E452.06936
G1 X100.812 Y76.77 E456.77668
G1 X100.812 Y78.185 E456.91787
G1 X134.171 Y111.543 E461.62511
G1 X134.172 Y112.958 E461.7663
G1 X100.813 Y79.6 E466.47355
G1 X100.813 Y81.014 E466.61463
G1 X134.172 Y114.373 E471.32195
G1 X134.172 Y115.788 E471.46314
G1 X100.814 Y82.429 E476.17038
G1 X100.815 Y83.844 E476.31157
G1 X134.173 Y117.202 E481.01875
G1 X134.174 Y118.617 E481.15994
G1 X100.815 Y85.258 E485.86725
G1 X100.815 Y86.673 E486.00844
G1 X134.174 Y120.032 E490.71576
G1 X134.174 Y121.447 E490.85695
G1 X100.816 Y88.088 E495.56419
G1 X100.816 Y89.502 E495.70528
G1 X134.175 Y122.861 E500.4126
G1 X134.175 Y124.276 E500.55378
G1 X100.817 Y90.917 E505.26103
G1 X100.817 Y92.332 E505.40222
G1 X134.176 Y125.691 E510.10953
G1 X134.176 Y127.105 E510.25062
G1 X100.818 Y93.747 E514.9578
G1 X100.818 Y95.161 E515.09889
G1 X134.177 Y128.52 E519.8062
G1 X134.177 Y129.935 E519.94739
G1 X100.819 Y96.576 E524.65464
G1 X100.819 Y97.991 E524.79583
G1 X134.177 Y131.349 E529.503
G1 X134.178 Y132.764 E529.64419
G1 X100.819 Y99.405 E534.3515
G1 X100.82 Y100.82 E534.49269
G1 X134.179 Y134.179 E539.20001
G1 X134.179 Y135.593 E539.3411
G1 X100.821 Y102.235 E544.04827
G1 X100.821 Y103.649 E544.18936
G1 X134.179 Y137.008 E548.89661
G1 X134.18 Y138.423 E549.0378
G1 X100.822 Y105.064 E553.74504
G1 X100.822 Y106.479 E553.88623
G1 X134.18 Y139.837 E558.5934
G1 X134.181 Y141.252 E558.73459
G1 X100.822 Y107.893 E563.44191
G1 X100.823 Y109.308 E563.5831
G1 X134.181 Y142.667 E568.29034
G1 X134.181 Y144.081 E568.43143
G1 X100.824 Y110.723 E573.13854
G1 X100.824 Y112.137 E573.27962
G1 X134.182 Y145.496 E577.98687
G1 X134.183 Y146.911 E578.12806
G1 X100.824 Y113.552 E582.83537
G1 X100.825 Y114.967 E582.97656
G1 X134.183 Y148.325 E587.68374
G1 X134.184 Y149.74 E587.82493
G1 X100.825 Y116.381 E592.53224
G1 X100.826 Y117.796 E592.67343
G1 X134.184 Y151.155 E597.38068
G1 X134.184 Y152.569 E597.52177
G1 X100.827 Y119.211 E602.22887
G1 X100.827 Y120.626 E602.37006
G1 X134.185 Y153.984 E607.07723
G1 X134.186 Y155.399 E607.21842
G1 X100.827 Y122.04 E611.92574
G1 X100.828 Y123.455 E612.06693
G1 X134.186 Y156.813 E616.7741
G1 X134.186 Y158.228 E616.91529
G1 X100.829 Y124.87 E621.62239
G1 X100.829 Y126.285 E621.76358
G1 X134.187 Y159.643 E626.47076
G1 X134.187 Y161.057 E626.61185
G1 X100.829 Y127.699 E631.31902
G1 X100.83 Y129.114 E631.46021
G1 X134.188 Y162.472 E636.16738
G1 X134.189 Y163.887 E636.30857
G1 X100.83 Y130.529 E641.01582
G1 X100.831 Y131.944 E641.15701
G1 X134.189 Y165.301 E645.86411
G1 X134.189 Y166.716 E646.0053
G1 X100.832 Y133.358 E650.7124
G1 X100.832 Y134.773 E650.85359
G1 X134.19 Y168.131 E655.56077
G1 X134.19 Y169.545 E655.70186
G1 X100.832 Y136.188 E660.40896
G1 X100.833 Y137.602 E660.55005
G1 X134.191 Y170.96 E665.25722
G1 X134.191 Y172.375 E665.39841
G1 X100.833 Y139.017 E670.10559
G1 X100.834 Y140.432 E670.24678
G1 X134.191 Y173.789 E674.95381
G1 X134.192 Y175.204 E675.095
G1 X100.834 Y141.847 E679.8021
G1 X100.834 Y143.261 E679.94319
G1 X134.203 Y176.63 E684.65192
G1 X134.235 Y177.13 E684.70191
G1 X134.268 Y177.299 E684.71909
G1 X134.252 Y177.304 E684.72076
G1 X134.394 Y177.927 E684.78452
G1 X134.464 Y178.304 E684.82278
G1 X100.835 Y144.676 E689.56813
G1 X100.836 Y146.091 E689.70932
G1 X134.688 Y179.943 E694.4862
G1 X134.696 Y180.045 E694.49641
G1 X134.728 Y180.929 E694.58467
G1 X134.73 Y181.107 E694.60243
G1 X134.718 Y181.387 E694.6304
G1 X100.836 Y147.505 E699.41151
G1 X100.836 Y148.92 E699.5527
G1 X134.628 Y182.711 E704.32105
G1 X134.592 Y183.043 E704.35437
G1 X134.561 Y183.247 E704.37496
G1 X134.429 Y183.926 E704.44398
G1 X100.837 Y150.335 E709.1841
G1 X100.838 Y151.75 E709.32529
G1 X134.177 Y185.089 E714.02978
G1 X133.904 Y186.23 E714.14685
G1 X100.838 Y153.164 E718.81282
