;FLAVOR:Marlin
;TIME:4124
;Filament used: 3.52816m
;Layer height: 0.2
;Generated with Cura_SteamEngine 3.6.0
M140 S60
M105
M190 S60
M104 S190
M105
M109 S190
M82 ;absolute extrusion mode
; Ender 3 Custom Start G-code
G28 ; Home all axes
G92 E0 ; Reset Extruder
G1 Z2.0 F3000 ; Move Z Axis up little to prevent scratching of Heat Bed
G1 X0.1 Y20 Z0.3 F5000.0 ; Move to start position
G1 X0.1 Y200.0 Z0.3 F1500.0 E15 ; Draw the first line
G1 X0.4 Y200.0 Z0.3 F5000.0 ; Move to side a little
G1 X0.4 Y20 Z0.3 F1500.0 E30 ; Draw the second line
G92 E0 ; Reset Extruder
G1 Z2.0 F3000 ; Move Z Axis up little to prevent scratching of Heat Bed
; End of custom start GCode
G92 E0
G1 F1500 E-6
;LAYER_COUNT:23
;LAYER:-6
M107
G0 F7200 X82.404 Y78.967 Z0.24
;TYPE:SUPPORT-INTERFACE
G1 F1500 E0
G1 F1125 X83.085 Y78.318 E0.07509
G1 X84.181 Y77.342 E0.19224
G1 X85.287 Y76.448 E0.30576
G1 X86.59 Y75.582 E0.43065
G1 X86.932 Y75.378 E0.46244
G1 X87.924 Y74.838 E0.5526
G1 X88.087 Y74.756 E0.56716
G1 X88.893 Y74.385 E0.63799
G1 X89.058 Y74.316 E0.65226
G1 X89.913 Y73.995 E0.72517
G1 X90.915 Y73.697 E0.80861
G1 X91.081 Y73.655 E0.82228
G1 X91.893 Y73.476 E0.88865
G1 X92.02 Y73.452 E0.89897
G1 X92.964 Y73.311 E0.97516
G1 X93.156 Y73.29 E0.99058
G1 X94.041 Y73.223 E1.06143
G1 X94.203 Y73.217 E1.07437
G1 X95.251 Y73.219 E1.15802
G1 X95.484 Y73.235 E1.17666
G1 X96.5 Y73.218 E1.25778
G1 X97.385 Y73.214 E1.32842
G1 X98.435 Y73.28 E1.4124
G1 X98.618 Y73.3 E1.4271
G1 X99.888 Y73.496 E1.52968
G1 X100.039 Y73.528 E1.542
G1 X100.702 Y73.627 E1.59551
G1 X101.385 Y73.643 E1.65004
G1 X102.059 Y73.574 E1.70412
G1 X102.412 Y73.502 E1.73288
G1 X103.195 Y73.32 E1.79705
G1 X104.103 Y73.174 E1.87046
G1 X104.279 Y73.152 E1.88462
G1 X105.151 Y73.077 E1.95449
G1 X105.357 Y73.067 E1.97095
G1 X106.799 Y73.069 E2.08606
G1 X106.951 Y73.075 E2.0982
G1 X106.951 Y73.083 E2.09884
G1 X107.268 Y73.085 E2.12414
G1 X107.268 Y73.075 E2.12494
G1 X108.347 Y73.046 E2.2111
G1 X108.536 Y73.049 E2.22619
G1 X109.905 Y73.132 E2.33567
G1 X110.089 Y73.152 E2.35044
G1 X110.792 Y73.258 E2.4072
G1 X111.466 Y73.317 E2.4612
G1 X112.431 Y73.25 E2.53842
G1 X112.891 Y73.176 E2.57561
G1 X113.098 Y73.15 E2.59226
G1 X113.945 Y73.076 E2.66013
G1 X114.159 Y73.067 E2.67723
G1 X115.755 Y73.075 E2.80463
G1 X115.755 Y73.082 E2.80519
G1 X116.081 Y73.084 E2.83121
G1 X116.081 Y73.074 E2.83201
G1 X117.151 Y73.046 E2.91745
G1 X117.34 Y73.049 E2.93254
G1 X118.709 Y73.132 E3.04202
G1 X119.817 Y73.292 E3.13138
G1 X120.007 Y73.327 E3.14681
G1 X120.581 Y73.457 E3.19379
G1 X121.243 Y73.563 E3.2473
G1 X121.925 Y73.586 E3.30177
G1 X122.483 Y73.532 E3.34652
G1 X122.487 Y73.55 E3.34799
G1 X123.826 Y73.274 E3.45713
G1 X124.014 Y73.243 E3.47234
G1 X125.055 Y73.11 E3.55611
G1 X126.09 Y73.056 E3.63884
G1 X127.152 Y73.066 E3.72362
G1 X128.123 Y73.058 E3.80113
G1 X128.327 Y73.064 E3.81742
G1 X129.351 Y73.135 E3.89936
G1 X129.83 Y73.195 E3.93789
G1 X130.5 Y73.237 E3.99148
G1 X131.231 Y73.185 E4.04998
G1 X131.524 Y73.144 E4.07359
G1 X131.747 Y73.121 E4.09149
G1 X132.604 Y73.065 E4.16004
G1 X132.797 Y73.059 E4.17546
G1 X133.523 Y73.063 E4.23341
G1 X133.523 Y73.069 E4.23389
G1 X134.911 Y73.058 E4.34469
G1 X135.116 Y73.064 E4.36106
G1 X135.976 Y73.119 E4.42985
G1 X136.86 Y73.23 E4.50097
G1 X137.349 Y73.306 E4.54047
G1 X137.349 Y73.283 E4.54231
G1 X137.516 Y73.302 E4.55572
G1 X138.197 Y73.295 E4.61009
G1 X138.737 Y73.226 E4.65354
G1 X139.129 Y73.163 E4.68524
G1 X140.019 Y73.07 E4.75667
G1 X140.17 Y73.06 E4.76875
G1 X141.232 Y73.032 E4.85355
G1 X141.467 Y73.042 E4.87232
G1 X141.825 Y73.044 E4.9009
G1 X142.457 Y73.033 E4.95136
G1 X143.531 Y73.087 E5.0372
G1 X144.41 Y73.19 E5.10784
G1 X144.583 Y73.218 E5.12183
G1 X145.879 Y73.485 E5.22746
G1 X145.992 Y73.516 E5.23681
G1 X146.863 Y73.767 E5.30917
G1 X147.048 Y73.828 E5.32472
G1 X147.867 Y74.131 E5.39442
G1 X148.044 Y74.204 E5.40971
G1 X148.836 Y74.564 E5.47915
G1 X149.004 Y74.649 E5.49418
G1 X150.192 Y75.32 E5.60309
G1 X150.368 Y75.43 E5.61966
G1 X151.19 Y75.988 E5.69897
G1 X151.325 Y76.088 E5.71238
G1 X152.353 Y76.921 E5.818
G1 X152.999 Y77.498 E5.88714
G1 X153.666 Y78.136 E5.96082
G1 X154.378 Y78.918 E6.04524
G1 X155.044 Y79.764 E6.13118
G1 X155.644 Y80.654 E6.21686
G1 X156.149 Y81.537 E6.29806
G1 X156.244 Y81.724 E6.3148
G1 X156.878 Y83.133 E6.43814
G1 X157.211 Y84.091 E6.5191
G1 X157.261 Y84.254 E6.53271
G1 X157.49 Y85.114 E6.60375
G1 X157.527 Y85.274 E6.61686
G1 X157.697 Y86.162 E6.68903
G1 X157.722 Y86.333 E6.70282
G1 X157.823 Y87.206 E6.77297
G1 X157.837 Y87.386 E6.78739
G1 X157.879 Y88.498 E6.87621
G1 X157.879 Y88.747 E6.89609
G1 X157.833 Y89.888 E6.98724
G1 X157.731 Y90.805 E7.06089
G1 X157.704 Y90.992 E7.07598
G1 X157.549 Y91.83 E7.144
G1 X157.463 Y92.777 E7.21991
G1 X157.464 Y93.925 E7.31155
G1 X157.507 Y94.589 E7.36466
G1 X157.573 Y94.986 E7.39679
G1 X157.643 Y95.324 E7.42434
G1 X157.669 Y95.485 E7.43736
G1 X157.804 Y96.541 E7.52234
G1 X157.858 Y97.411 E7.59192
G1 X157.869 Y97.814 E7.6241
G1 X157.861 Y98.741 E7.6981
G1 X157.848 Y98.975 E7.71681
G1 X157.834 Y99.622 E7.76847
G1 X157.879 Y100.806 E7.86305
G1 X157.879 Y101.055 E7.88292
G1 X157.833 Y102.196 E7.97408
G1 X157.731 Y103.113 E8.04773
G1 X157.704 Y103.3 E8.06281
G1 X157.549 Y104.138 E8.13084
G1 X157.463 Y105.085 E8.20674
G1 X157.464 Y106.233 E8.29838
G1 X157.507 Y106.897 E8.35149
G1 X157.573 Y107.294 E8.38362
G1 X157.643 Y107.632 E8.41117
G1 X157.668 Y107.787 E8.4237
G1 X157.804 Y108.849 E8.50917
G1 X157.858 Y109.719 E8.57875
G1 X157.869 Y110.122 E8.61093
G1 X157.861 Y111.051 E8.68509
G1 X157.853 Y111.232 E8.69955
G1 X157.761 Y112.287 E8.78409
G1 X157.589 Y113.345 E8.86965
G1 X157.329 Y114.443 E8.95972
G1 X157.025 Y115.401 E9.03995
G1 X156.958 Y115.586 E9.05566
G1 X156.565 Y116.551 E9.13883
G1 X156.169 Y117.36 E9.21073
G1 X156.083 Y117.522 E9.22537
G1 X155.554 Y118.418 E9.30843
G1 X154.944 Y119.302 E9.39416
G1 X154.305 Y120.101 E9.47583
G1 X154.179 Y120.246 E9.49117
G1 X153.571 Y120.898 E9.56233
G1 X153.433 Y121.036 E9.57791
G1 X152.806 Y121.62 E9.6463
G1 X152.276 Y122.085 E9.70259
G1 X151.55 Y122.68 E9.77752
G1 X151.384 Y122.805 E9.7941
G1 X150.353 Y123.515 E9.89403
G1 X150.196 Y123.612 E9.90876
G1 X149.308 Y124.125 E9.99062
G1 X149.151 Y124.209 E10.00484
G1 X148.337 Y124.6 E10.07692
G1 X147.753 Y124.929 E10.13043
G1 X147.205 Y125.336 E10.18491
G1 X146.709 Y125.814 E10.2399
G1 X146.254 Y126.314 E10.29387
G1 X146.109 Y126.46 E10.31029
G1 X145.194 Y127.311 E10.41004
G1 X144.469 Y127.928 E10.48603
G1 X143.78 Y128.476 E10.5563
G1 X143.594 Y128.613 E10.57474
G1 X142.578 Y129.29 E10.6722
G1 X142.295 Y129.461 E10.69859
G1 X141.486 Y129.914 E10.77261
G1 X141.311 Y130.003 E10.78828
G1 X140.385 Y130.433 E10.86978
G1 X139.583 Y130.743 E10.93841
G1 X138.688 Y131.034 E11.01354
G1 X138.513 Y131.084 E11.02807
G1 X137.643 Y131.298 E11.09958
G1 X137.471 Y131.335 E11.11363
G1 X137.042 Y131.407 E11.14835
G1 X136.39 Y131.56 E11.20181
G1 X135.75 Y131.799 E11.25634
G1 X135.145 Y132.117 E11.3109
G1 X134.586 Y132.509 E11.3654
G1 X134.081 Y132.968 E11.41988
G1 X133.637 Y133.487 E11.4744
G1 X133.263 Y134.059 E11.52895
G1 X132.963 Y134.674 E11.58357
G1 X132.895 Y134.877 E11.60066
G1 X132.883 Y134.874 E11.60165
G1 X132.671 Y135.563 E11.65919
G1 X132.178 Y136.941 E11.77602
G1 X131.682 Y138.015 E11.87045
G1 X131.175 Y138.928 E11.95381
G1 X130.672 Y139.702 E12.0275
G1 X130.567 Y139.853 E12.04218
G1 X130.043 Y140.542 E12.11127
G1 X129.923 Y140.69 E12.12648
G1 X129.496 Y141.186 E12.17873
G1 X128.772 Y141.936 E12.26194
G1 X128.644 Y142.059 E12.27611
G1 X127.984 Y142.648 E12.34672
G1 X127.847 Y142.761 E12.3609
G1 X127.08 Y143.35 E12.43809
G1 X126.681 Y143.635 E12.47723
G1 X126.161 Y144.059 E12.53079
G1 X125.692 Y144.554 E12.58522
G1 X125.287 Y145.103 E12.63968
G1 X124.955 Y145.701 E12.69428
G1 X124.702 Y146.335 E12.74877
G1 X124.531 Y146.992 E12.80296
G1 X124.463 Y147.452 E12.84008
G1 X124.356 Y148.431 E12.91869
G1 X124.165 Y149.479 E13.00373
G1 X123.949 Y150.327 E13.07358
G1 X123.88 Y150.553 E13.09244
G1 X123.378 Y151.968 E13.21229
G1 X122.879 Y153.047 E13.30719
G1 X122.372 Y153.96 E13.39055
G1 X121.869 Y154.734 E13.46423
G1 X121.763 Y154.885 E13.47896
G1 X121.246 Y155.565 E13.54715
G1 X121.118 Y155.723 E13.56338
G1 X120.544 Y156.38 E13.63302
G1 X119.719 Y157.205 E13.72615
G1 X118.909 Y157.902 E13.81145
G1 X118.282 Y158.378 E13.87429
G1 X117.825 Y158.705 E13.91915
G1 X117.332 Y159.044 E13.96691
G1 X116.924 Y159.311 E14.00583
G1 X115.974 Y159.884 E14.09439
G1 X115.32 Y160.228 E14.15338
G1 X114.962 Y160.403 E14.18518
G1 X114.106 Y160.786 E14.26004
G1 X113.907 Y160.865 E14.27713
G1 X112.684 Y161.293 E14.38056
G1 X111.618 Y161.576 E14.4686
G1 X111.466 Y161.61 E14.48104
G1 X110.568 Y161.776 E14.55393
G1 X109.524 Y161.897 E14.63783
G1 X109.343 Y161.911 E14.65232
G1 X108.434 Y161.944 E14.72493
G1 X107.393 Y161.911 E14.80807
G1 X106.905 Y161.916 E14.84702
G1 X106.721 Y161.927 E14.86174
G1 X105.813 Y161.944 E14.93423
G1 X105.66 Y161.942 E14.94644
G1 X104.765 Y161.894 E15.01799
G1 X103.696 Y161.763 E15.10396
G1 X102.649 Y161.556 E15.18915
G1 X102.503 Y161.52 E15.20116
G1 X101.219 Y161.145 E15.30793
G1 X100.961 Y161.053 E15.3298
G1 X99.925 Y160.65 E15.41853
G1 X99.138 Y160.282 E15.48788
G1 X97.97 Y159.647 E15.59401
G1 X97.748 Y159.515 E15.61462
G1 X96.842 Y158.921 E15.7011
G1 X96.134 Y158.42 E15.77034
G1 X95.327 Y157.805 E15.85133
G1 X95.168 Y157.672 E15.86788
G1 X94.498 Y157.075 E15.93951
G1 X93.674 Y156.231 E16.03366
G1 X93.037 Y155.475 E16.11258
G1 X92.93 Y155.338 E16.12645
G1 X92.319 Y154.485 E16.21021
G1 X91.847 Y153.723 E16.28176
G1 X91.762 Y153.572 E16.29559
G1 X91.141 Y152.345 E16.40537
G1 X90.747 Y151.376 E16.48887
G1 X90.691 Y151.219 E16.50217
G1 X90.415 Y150.359 E16.57427
G1 X90.373 Y150.209 E16.5867
G1 X90.164 Y149.346 E16.65758
G1 X90.127 Y149.164 E16.67241
G1 X89.965 Y148.202 E16.75028
G1 X89.814 Y147.55 E16.8037
G1 X89.576 Y146.909 E16.85828
G1 X89.26 Y146.304 E16.91277
G1 X88.87 Y145.744 E16.96724
G1 X88.412 Y145.237 E17.02178
G1 X87.894 Y144.792 E17.07629
G1 X87.301 Y144.404 E17.13286
G1 X86.528 Y143.969 E17.20366
G1 X85.953 Y143.623 E17.25723
G1 X84.96 Y142.943 E17.3533
G1 X83.885 Y142.07 E17.46385
G1 X82.804 Y141.105 E17.57952
G1 X82.055 Y140.387 E17.66234
G1 X81.924 Y140.252 E17.67735
G1 X81.347 Y139.609 E17.74632
G1 X81.2 Y139.432 E17.76468
G1 X80.578 Y138.62 E17.84633
G1 X80.078 Y137.865 E17.91862
G1 X79.988 Y137.718 E17.93238
G1 X79.545 Y136.929 E18.00461
G1 X79.47 Y136.783 E18.01771
G1 X79.097 Y135.988 E18.08781
G1 X79.024 Y135.816 E18.10272
G1 X78.648 Y134.819 E18.18778
G1 X78.369 Y133.9 E18.26444
G1 X78.131 Y132.879 E18.34813
G1 X78.099 Y132.713 E18.36162
G1 X77.961 Y131.834 E18.43265
G1 X77.939 Y131.636 E18.44855
G1 X77.87 Y130.779 E18.51718
G1 X77.861 Y130.588 E18.53244
G1 X77.854 Y129.76 E18.59854
G1 X77.862 Y128.832 E18.67262
G1 X77.87 Y128.651 E18.68708
G1 X77.944 Y127.762 E18.75829
G1 X77.963 Y127.589 E18.77218
G1 X78.1 Y126.705 E18.84359
G1 X78.334 Y125.67 E18.9283
G1 X78.442 Y125.3 E18.95906
G1 X78.601 Y124.643 E19.01302
G1 X78.682 Y123.724 E19.08666
G1 X78.681 Y119.575 E19.41786
G1 X78.638 Y118.903 E19.47161
G1 X78.461 Y118.063 E19.54013
G1 X78.337 Y117.649 E19.57463
G1 X78.099 Y116.59 E19.66127
G1 X78.076 Y116.466 E19.67134
G1 X77.949 Y115.586 E19.74231
G1 X77.926 Y115.36 E19.76045
G1 X77.848 Y113.89 E19.87795
G1 X77.847 Y113.286 E19.92617
G1 X77.888 Y112.205 E20.01252
G1 X78.002 Y111.163 E20.09619
G1 X78.167 Y110.246 E20.17057
G1 X78.296 Y109.632 E20.22065
G1 X78.279 Y109.628 E20.22204
G1 X78.332 Y109.024 E20.27044
G1 X78.27 Y108.074 E20.34644
G1 X78.23 Y107.774 E20.3706
G1 X78.159 Y106.9 E20.44059
G1 X78.15 Y106.705 E20.45617
G1 X78.143 Y105.877 E20.52227
G1 X78.151 Y104.947 E20.59651
G1 X78.159 Y104.765 E20.61105
G1 X78.233 Y103.876 E20.68226
G1 X78.252 Y103.703 E20.69615
G1 X78.389 Y102.819 E20.76756
G1 X78.624 Y101.78 E20.85259
G1 X78.74 Y101.384 E20.88553
G1 X78.899 Y100.728 E20.93941
G1 X78.978 Y99.811 E21.01288
G1 X78.975 Y95.701 E21.34096
G1 X78.932 Y95.029 E21.39471
G1 X78.754 Y94.188 E21.46333
G1 X78.624 Y93.755 E21.49942
G1 X78.388 Y92.704 E21.5854
G1 X78.365 Y92.58 E21.59547
G1 X78.238 Y91.7 E21.66645
G1 X78.215 Y91.474 E21.68458
G1 X78.137 Y90.004 E21.80209
G1 X78.136 Y89.4 E21.8503
G1 X78.177 Y88.319 E21.93665
G1 X78.291 Y87.277 E22.02032
G1 X78.487 Y86.212 E22.10677
G1 X78.645 Y85.566 E22.15985
G1 X78.978 Y84.475 E22.25091
G1 X79.359 Y83.49 E22.33521
G1 X79.421 Y83.347 E22.34765
G1 X79.821 Y82.514 E22.42141
G1 X79.886 Y82.389 E22.43266
G1 X80.427 Y81.456 E22.51875
G1 X80.92 Y80.724 E22.5892
G1 X81.04 Y80.56 E22.60542
G1 X81.677 Y79.757 E22.68724
G1 X82.18 Y79.211 E22.7465
G0 F1012.5 X82.404 Y78.967
G1 F1500 E16.7465
G0 F7200 X83.2 Y78.215
G1 F1500 E22.773
G1 F1125 X83.2 Y141.458 E27.82133
G1 F1500 E21.82133
G0 F7200 X84.8 Y142.813
G1 F1500 E27.82133
G1 F1125 X84.8 Y76.841 E33.0875
G1 F1500 E27.0875
G0 F7200 X86.4 Y75.708
G1 F1500 E33.0875
G1 F1125 X86.4 Y143.891 E38.53016
G1 F1500 E32.53016
G0 F7200 X88 Y144.883
G1 F1500 E38.53016
G1 F1125 X88 Y74.799 E44.12457
G1 F1500 E38.12457
G0 F7200 X89.6 Y74.112
G1 F1500 E44.12457
G1 F1125 X89.6 Y146.973 E49.94065
G1 F1500 E43.94065
G0 F7200 X91.2 Y152.461
G1 F1500 E49.94065
G1 F1125 X91.2 Y73.628 E56.23344
G1 F1500 E50.23344
G0 F7200 X92.8 Y73.335
G1 F1500 E56.23344
G1 F1125 X92.8 Y155.156 E62.76475
G1 F1500 E56.76475
G0 F7200 X94.4 Y156.974
G1 F1500 E62.76475
G1 F1125 X94.4 Y73.218 E69.45051
G1 F1500 E63.45051
G0 F7200 X96 Y73.226
G1 F1500 E69.45051
G1 F1125 X96 Y158.317 E76.24285
G1 F1500 E70.24285
G0 F7200 X97.6 Y159.417
G1 F1500 E76.24285
G1 F1125 X97.6 Y73.228 E83.12282
G1 F1500 E77.12282
G0 F7200 X99.2 Y73.39
G1 F1500 E83.12282
G1 F1125 X99.2 Y160.31 E90.06115
G1 F1500 E84.06115
G0 F7200 X100.8 Y160.99
G1 F1500 E90.06115
G1 F1125 X100.8 Y73.63 E97.03461
G1 F1500 E91.03461
G0 F7200 X102.4 Y73.504
G1 F1500 E97.03461
G1 F1125 X102.4 Y161.489 E104.05795
G1 F1500 E98.05795
G0 F7200 X104 Y161.8
G1 F1500 E104.05795
G1 F1125 X104 Y73.19 E111.13118
G1 F1500 E105.13118
G0 F7200 X105.6 Y73.068
G1 F1500 E111.13118
G1 F1125 X105.6 Y161.938 E118.22517
G1 F1500 E112.22517
G0 F7200 X107.2 Y161.913
G1 F1500 E118.22517
G1 F1125 X107.2 Y73.085 E125.31581
G1 F1500 E119.31581
G0 F7200 X108.8 Y73.066
G1 F1500 E125.31581
G1 F1125 X108.8 Y161.931 E132.4094
G1 F1500 E126.4094
G0 F7200 X110.4 Y161.796
G1 F1500 E132.4094
G1 F1125 X110.4 Y73.199 E139.48159
G1 F1500 E133.48159
G0 F7200 X112 Y73.279
G1 F1500 E139.48159
G1 F1125 X112 Y161.475 E146.52178
G1 F1500 E140.52178
G0 F7200 X113.6 Y160.973
G1 F1500 E146.52178
G1 F1125 X113.6 Y73.106 E153.5357
G1 F1500 E147.5357
G0 F7200 X115.2 Y73.073
G1 F1500 E153.5357
G1 F1125 X115.2 Y160.287 E160.4975
G1 F1500 E154.4975
G0 F7200 X116.8 Y159.386
G1 F1500 E160.4975
G1 F1125 X116.8 Y73.055 E167.38881
G1 F1500 E161.38881
G0 F7200 X118.4 Y73.114
G1 F1500 E167.38881
G1 F1125 X118.4 Y158.289 E174.18785
G1 F1500 E168.18785
G0 F7200 X120 Y156.924
G1 F1500 E174.18785
G1 F1125 X120 Y73.326 E180.861
G1 F1500 E174.861
G0 F7200 X121.6 Y73.576
G1 F1500 E180.861
G1 F1125 X121.6 Y155.1 E187.3686
G1 F1500 E181.3686
G0 F7200 X123.2 Y152.353
G1 F1500 E187.3686
G1 F1125 X123.2 Y73.403 E193.67073
G1 F1500 E187.67073
G0 F7200 X124.8 Y73.142
G1 F1500 E193.67073
G1 F1125 X124.8 Y146.09 E199.49376
G1 F1500 E193.49376
G0 F7200 X126.4 Y143.865
G1 F1500 E199.49376
G1 F1125 X126.4 Y73.059 E205.1458
G1 F1500 E199.1458
G0 F7200 X128 Y73.059
G1 F1500 E205.1458
G1 F1125 X128 Y142.634 E210.69958
G1 F1500 E204.69958
G0 F7200 X129.6 Y141.066
G1 F1500 E210.69958
G1 F1125 X129.6 Y73.167 E216.11957
G1 F1500 E210.11957
G0 F7200 X131.2 Y73.187
G1 F1500 E216.11957
G1 F1125 X131.2 Y138.883 E221.36371
G1 F1500 E215.36371
G0 F7200 X132.8 Y135.144
G1 F1500 E221.36371
G1 F1125 X132.8 Y73.06 E226.31952
G1 F1500 E220.31952
G0 F7200 X134.4 Y73.062
G1 F1500 E226.31952
G1 F1125 X134.4 Y132.679 E231.07841
G1 F1500 E225.07841
G0 F7200 X136 Y131.706
G1 F1500 E231.07841
G1 F1125 X136 Y73.123 E235.75475
G1 F1500 E229.75475
G0 F7200 X137.6 Y73.301
G1 F1500 E235.75475
G1 F1125 X137.6 Y131.308 E240.38512
G1 F1500 E234.38512
G0 F7200 X139.2 Y130.868
G1 F1500 E240.38512
